(G-CODE GENERATED BY FLATCAM v8.991 - www.flatcam.org - Version Date: 2019/12/27)

(Name: Gateway.txt_mill_cnc_0.8)
(Type: G-code from Geometry)
(Units: MM)

(Created on Wednesday, 17 February 2021 at 17:38)

(TOOL DIAMETER: 0.8 mm)
(Feedrate: 40.0 mm/min)
(Feedrate_Z: 20.0 mm/min)
(Feedrate rapids 1500.0 mm/min)

(Z_Cut: -3.0 mm)
(Z_Move: 2.0 mm)
(Z Toolchange: 15.0 mm)
(X,Y Toolchange: 0.0000, 0.0000 mm)
(Z Start: None mm)
(Z End: 15.0 mm)
(Steps per circle: 64)
(Preprocessor Geometry: default)

(X range:    3.9814 ...   73.4886  mm)
(Y range:    3.9814 ...   58.2486  mm)

(Spindle Speed: None RPM)
G21
G90
G94




G01 F40.00
G00 Z2.0000

M03
G00 X6.1786 Y5.0800
G01 F20.00
G01 Z-3.0000
G01 F40.00
G01 X6.1733 Y4.9723
G01 X6.1575 Y4.8657
G01 X6.1313 Y4.7611
G01 X6.0950 Y4.6596
G01 X6.0489 Y4.5621
G01 X5.9935 Y4.4697
G01 X5.9292 Y4.3831
G01 X5.8568 Y4.3032
G01 X5.7769 Y4.2308
G01 X5.6903 Y4.1665
G01 X5.5979 Y4.1111
G01 X5.5004 Y4.0650
G01 X5.3989 Y4.0287
G01 X5.2943 Y4.0025
G01 X5.1877 Y3.9867
G01 X5.0800 Y3.9814
G01 X4.9723 Y3.9867
G01 X4.8657 Y4.0025
G01 X4.7611 Y4.0287
G01 X4.6596 Y4.0650
G01 X4.5621 Y4.1111
G01 X4.4697 Y4.1665
G01 X4.3831 Y4.2308
G01 X4.3032 Y4.3032
G01 X4.2308 Y4.3831
G01 X4.1665 Y4.4697
G01 X4.1111 Y4.5621
G01 X4.0650 Y4.6596
G01 X4.0287 Y4.7611
G01 X4.0025 Y4.8657
G01 X3.9867 Y4.9723
G01 X3.9814 Y5.0800
G01 X3.9867 Y5.1877
G01 X4.0025 Y5.2943
G01 X4.0287 Y5.3989
G01 X4.0650 Y5.5004
G01 X4.1111 Y5.5979
G01 X4.1665 Y5.6903
G01 X4.2308 Y5.7769
G01 X4.3032 Y5.8568
G01 X4.3831 Y5.9292
G01 X4.4697 Y5.9935
G01 X4.5621 Y6.0489
G01 X4.6596 Y6.0950
G01 X4.7611 Y6.1313
G01 X4.8657 Y6.1575
G01 X4.9723 Y6.1733
G01 X5.0800 Y6.1786
G01 X5.1877 Y6.1733
G01 X5.2943 Y6.1575
G01 X5.3989 Y6.1313
G01 X5.5004 Y6.0950
G01 X5.5979 Y6.0489
G01 X5.6903 Y5.9935
G01 X5.7769 Y5.9292
G01 X5.8568 Y5.8568
G01 X5.9292 Y5.7769
G01 X5.9935 Y5.6903
G01 X6.0489 Y5.5979
G01 X6.0950 Y5.5004
G01 X6.1313 Y5.3989
G01 X6.1575 Y5.2943
G01 X6.1733 Y5.1877
G01 X6.1786 Y5.0800
G00 Z2.0000
G00 X21.9012 Y8.8392
G01 F20.00
G01 Z-3.0000
G01 F40.00
G01 X21.8959 Y8.7315
G01 X21.8801 Y8.6249
G01 X21.8539 Y8.5203
G01 X21.8176 Y8.4188
G01 X21.7715 Y8.3213
G01 X21.7161 Y8.2289
G01 X21.6518 Y8.1423
G01 X21.5794 Y8.0624
G01 X21.4995 Y7.9900
G01 X21.4129 Y7.9257
G01 X21.3205 Y7.8703
G01 X21.2230 Y7.8242
G01 X21.1215 Y7.7879
G01 X21.0169 Y7.7617
G01 X20.9103 Y7.7459
G01 X20.8026 Y7.7406
G01 X20.6949 Y7.7459
G01 X20.5883 Y7.7617
G01 X20.4837 Y7.7879
G01 X20.3822 Y7.8242
G01 X20.2847 Y7.8703
G01 X20.1923 Y7.9257
G01 X20.1057 Y7.9900
G01 X20.0258 Y8.0624
G01 X19.9534 Y8.1423
G01 X19.8891 Y8.2289
G01 X19.8337 Y8.3213
G01 X19.7876 Y8.4188
G01 X19.7513 Y8.5203
G01 X19.7251 Y8.6249
G01 X19.7093 Y8.7315
G01 X19.7040 Y8.8392
G01 X19.7093 Y8.9469
G01 X19.7251 Y9.0535
G01 X19.7513 Y9.1581
G01 X19.7876 Y9.2596
G01 X19.8337 Y9.3571
G01 X19.8891 Y9.4495
G01 X19.9534 Y9.5361
G01 X20.0258 Y9.6160
G01 X20.1057 Y9.6884
G01 X20.1923 Y9.7527
G01 X20.2847 Y9.8081
G01 X20.3822 Y9.8542
G01 X20.4837 Y9.8905
G01 X20.5883 Y9.9167
G01 X20.6949 Y9.9325
G01 X20.8026 Y9.9378
G01 X20.9103 Y9.9325
G01 X21.0169 Y9.9167
G01 X21.1215 Y9.8905
G01 X21.2230 Y9.8542
G01 X21.3205 Y9.8081
G01 X21.4129 Y9.7527
G01 X21.4995 Y9.6884
G01 X21.5794 Y9.6160
G01 X21.6518 Y9.5361
G01 X21.7161 Y9.4495
G01 X21.7715 Y9.3571
G01 X21.8176 Y9.2596
G01 X21.8539 Y9.1581
G01 X21.8801 Y9.0535
G01 X21.8959 Y8.9469
G01 X21.9012 Y8.8392
G00 Z2.0000
G00 X26.6002 Y5.9182
G01 F20.00
G01 Z-3.0000
G01 F40.00
G01 X26.5949 Y5.8105
G01 X26.5791 Y5.7039
G01 X26.5529 Y5.5993
G01 X26.5166 Y5.4978
G01 X26.4705 Y5.4003
G01 X26.4151 Y5.3079
G01 X26.3508 Y5.2213
G01 X26.2784 Y5.1414
G01 X26.1985 Y5.0690
G01 X26.1119 Y5.0047
G01 X26.0195 Y4.9493
G01 X25.9220 Y4.9032
G01 X25.8205 Y4.8669
G01 X25.7159 Y4.8407
G01 X25.6093 Y4.8249
G01 X25.5016 Y4.8196
G01 X25.3939 Y4.8249
G01 X25.2873 Y4.8407
G01 X25.1827 Y4.8669
G01 X25.0812 Y4.9032
G01 X24.9837 Y4.9493
G01 X24.8913 Y5.0047
G01 X24.8047 Y5.0690
G01 X24.7248 Y5.1414
G01 X24.6524 Y5.2213
G01 X24.5881 Y5.3079
G01 X24.5327 Y5.4003
G01 X24.4866 Y5.4978
G01 X24.4503 Y5.5993
G01 X24.4241 Y5.7039
G01 X24.4083 Y5.8105
G01 X24.4030 Y5.9182
G01 X24.4083 Y6.0259
G01 X24.4241 Y6.1325
G01 X24.4503 Y6.2371
G01 X24.4866 Y6.3386
G01 X24.5327 Y6.4361
G01 X24.5881 Y6.5285
G01 X24.6524 Y6.6151
G01 X24.7248 Y6.6950
G01 X24.8047 Y6.7674
G01 X24.8913 Y6.8317
G01 X24.9837 Y6.8871
G01 X25.0812 Y6.9332
G01 X25.1827 Y6.9695
G01 X25.2873 Y6.9957
G01 X25.3939 Y7.0115
G01 X25.5016 Y7.0168
G01 X25.6093 Y7.0115
G01 X25.7159 Y6.9957
G01 X25.8205 Y6.9695
G01 X25.9220 Y6.9332
G01 X26.0195 Y6.8871
G01 X26.1119 Y6.8317
G01 X26.1985 Y6.7674
G01 X26.2784 Y6.6950
G01 X26.3508 Y6.6151
G01 X26.4151 Y6.5285
G01 X26.4705 Y6.4361
G01 X26.5166 Y6.3386
G01 X26.5529 Y6.2371
G01 X26.5791 Y6.1325
G01 X26.5949 Y6.0259
G01 X26.6002 Y5.9182
G00 Z2.0000
G00 X26.6002 Y11.8364
G01 F20.00
G01 Z-3.0000
G01 F40.00
G01 X26.5949 Y11.7287
G01 X26.5791 Y11.6221
G01 X26.5529 Y11.5175
G01 X26.5166 Y11.4160
G01 X26.4705 Y11.3185
G01 X26.4151 Y11.2261
G01 X26.3508 Y11.1395
G01 X26.2784 Y11.0596
G01 X26.1985 Y10.9872
G01 X26.1119 Y10.9229
G01 X26.0195 Y10.8675
G01 X25.9220 Y10.8214
G01 X25.8205 Y10.7851
G01 X25.7159 Y10.7589
G01 X25.6093 Y10.7431
G01 X25.5016 Y10.7378
G01 X25.3939 Y10.7431
G01 X25.2873 Y10.7589
G01 X25.1827 Y10.7851
G01 X25.0812 Y10.8214
G01 X24.9837 Y10.8675
G01 X24.8913 Y10.9229
G01 X24.8047 Y10.9872
G01 X24.7248 Y11.0596
G01 X24.6524 Y11.1395
G01 X24.5881 Y11.2261
G01 X24.5327 Y11.3185
G01 X24.4866 Y11.4160
G01 X24.4503 Y11.5175
G01 X24.4241 Y11.6221
G01 X24.4083 Y11.7287
G01 X24.4030 Y11.8364
G01 X24.4083 Y11.9441
G01 X24.4241 Y12.0507
G01 X24.4503 Y12.1553
G01 X24.4866 Y12.2568
G01 X24.5327 Y12.3543
G01 X24.5881 Y12.4467
G01 X24.6524 Y12.5333
G01 X24.7248 Y12.6132
G01 X24.8047 Y12.6856
G01 X24.8913 Y12.7499
G01 X24.9837 Y12.8053
G01 X25.0812 Y12.8514
G01 X25.1827 Y12.8877
G01 X25.2873 Y12.9139
G01 X25.3939 Y12.9297
G01 X25.5016 Y12.9350
G01 X25.6093 Y12.9297
G01 X25.7159 Y12.9139
G01 X25.8205 Y12.8877
G01 X25.9220 Y12.8514
G01 X26.0195 Y12.8053
G01 X26.1119 Y12.7499
G01 X26.1985 Y12.6856
G01 X26.2784 Y12.6132
G01 X26.3508 Y12.5333
G01 X26.4151 Y12.4467
G01 X26.4705 Y12.3543
G01 X26.5166 Y12.2568
G01 X26.5529 Y12.1553
G01 X26.5791 Y12.0507
G01 X26.5949 Y11.9441
G01 X26.6002 Y11.8364
G00 Z2.0000
G00 X73.4886 Y5.0800
G01 F20.00
G01 Z-3.0000
G01 F40.00
G01 X73.4833 Y4.9723
G01 X73.4675 Y4.8657
G01 X73.4413 Y4.7611
G01 X73.4050 Y4.6596
G01 X73.3589 Y4.5621
G01 X73.3035 Y4.4697
G01 X73.2392 Y4.3831
G01 X73.1668 Y4.3032
G01 X73.0869 Y4.2308
G01 X73.0003 Y4.1665
G01 X72.9079 Y4.1111
G01 X72.8104 Y4.0650
G01 X72.7089 Y4.0287
G01 X72.6043 Y4.0025
G01 X72.4977 Y3.9867
G01 X72.3900 Y3.9814
G01 X72.2823 Y3.9867
G01 X72.1757 Y4.0025
G01 X72.0711 Y4.0287
G01 X71.9696 Y4.0650
G01 X71.8721 Y4.1111
G01 X71.7797 Y4.1665
G01 X71.6931 Y4.2308
G01 X71.6132 Y4.3032
G01 X71.5408 Y4.3831
G01 X71.4765 Y4.4697
G01 X71.4211 Y4.5621
G01 X71.3750 Y4.6596
G01 X71.3387 Y4.7611
G01 X71.3125 Y4.8657
G01 X71.2967 Y4.9723
G01 X71.2914 Y5.0800
G01 X71.2967 Y5.1877
G01 X71.3125 Y5.2943
G01 X71.3387 Y5.3989
G01 X71.3750 Y5.5004
G01 X71.4211 Y5.5979
G01 X71.4765 Y5.6903
G01 X71.5408 Y5.7769
G01 X71.6132 Y5.8568
G01 X71.6931 Y5.9292
G01 X71.7797 Y5.9935
G01 X71.8721 Y6.0489
G01 X71.9696 Y6.0950
G01 X72.0711 Y6.1313
G01 X72.1757 Y6.1575
G01 X72.2823 Y6.1733
G01 X72.3900 Y6.1786
G01 X72.4977 Y6.1733
G01 X72.6043 Y6.1575
G01 X72.7089 Y6.1313
G01 X72.8104 Y6.0950
G01 X72.9079 Y6.0489
G01 X73.0003 Y5.9935
G01 X73.0869 Y5.9292
G01 X73.1668 Y5.8568
G01 X73.2392 Y5.7769
G01 X73.3035 Y5.6903
G01 X73.3589 Y5.5979
G01 X73.4050 Y5.5004
G01 X73.4413 Y5.3989
G01 X73.4675 Y5.2943
G01 X73.4833 Y5.1877
G01 X73.4886 Y5.0800
G00 Z2.0000
G00 X73.4886 Y57.1500
G01 F20.00
G01 Z-3.0000
G01 F40.00
G01 X73.4833 Y57.0423
G01 X73.4675 Y56.9357
G01 X73.4413 Y56.8311
G01 X73.4050 Y56.7296
G01 X73.3589 Y56.6321
G01 X73.3035 Y56.5397
G01 X73.2392 Y56.4531
G01 X73.1668 Y56.3732
G01 X73.0869 Y56.3008
G01 X73.0003 Y56.2365
G01 X72.9079 Y56.1811
G01 X72.8104 Y56.1350
G01 X72.7089 Y56.0987
G01 X72.6043 Y56.0725
G01 X72.4977 Y56.0567
G01 X72.3900 Y56.0514
G01 X72.2823 Y56.0567
G01 X72.1757 Y56.0725
G01 X72.0711 Y56.0987
G01 X71.9696 Y56.1350
G01 X71.8721 Y56.1811
G01 X71.7797 Y56.2365
G01 X71.6931 Y56.3008
G01 X71.6132 Y56.3732
G01 X71.5408 Y56.4531
G01 X71.4765 Y56.5397
G01 X71.4211 Y56.6321
G01 X71.3750 Y56.7296
G01 X71.3387 Y56.8311
G01 X71.3125 Y56.9357
G01 X71.2967 Y57.0423
G01 X71.2914 Y57.1500
G01 X71.2967 Y57.2577
G01 X71.3125 Y57.3643
G01 X71.3387 Y57.4689
G01 X71.3750 Y57.5704
G01 X71.4211 Y57.6679
G01 X71.4765 Y57.7603
G01 X71.5408 Y57.8469
G01 X71.6132 Y57.9268
G01 X71.6931 Y57.9992
G01 X71.7797 Y58.0635
G01 X71.8721 Y58.1189
G01 X71.9696 Y58.1650
G01 X72.0711 Y58.2013
G01 X72.1757 Y58.2275
G01 X72.2823 Y58.2433
G01 X72.3900 Y58.2486
G01 X72.4977 Y58.2433
G01 X72.6043 Y58.2275
G01 X72.7089 Y58.2013
G01 X72.8104 Y58.1650
G01 X72.9079 Y58.1189
G01 X73.0003 Y58.0635
G01 X73.0869 Y57.9992
G01 X73.1668 Y57.9268
G01 X73.2392 Y57.8469
G01 X73.3035 Y57.7603
G01 X73.3589 Y57.6679
G01 X73.4050 Y57.5704
G01 X73.4413 Y57.4689
G01 X73.4675 Y57.3643
G01 X73.4833 Y57.2577
G01 X73.4886 Y57.1500
G00 Z2.0000
G00 X6.1786 Y57.1500
G01 F20.00
G01 Z-3.0000
G01 F40.00
G01 X6.1733 Y57.0423
G01 X6.1575 Y56.9357
G01 X6.1313 Y56.8311
G01 X6.0950 Y56.7296
G01 X6.0489 Y56.6321
G01 X5.9935 Y56.5397
G01 X5.9292 Y56.4531
G01 X5.8568 Y56.3732
G01 X5.7769 Y56.3008
G01 X5.6903 Y56.2365
G01 X5.5979 Y56.1811
G01 X5.5004 Y56.1350
G01 X5.3989 Y56.0987
G01 X5.2943 Y56.0725
G01 X5.1877 Y56.0567
G01 X5.0800 Y56.0514
G01 X4.9723 Y56.0567
G01 X4.8657 Y56.0725
G01 X4.7611 Y56.0987
G01 X4.6596 Y56.1350
G01 X4.5621 Y56.1811
G01 X4.4697 Y56.2365
G01 X4.3831 Y56.3008
G01 X4.3032 Y56.3732
G01 X4.2308 Y56.4531
G01 X4.1665 Y56.5397
G01 X4.1111 Y56.6321
G01 X4.0650 Y56.7296
G01 X4.0287 Y56.8311
G01 X4.0025 Y56.9357
G01 X3.9867 Y57.0423
G01 X3.9814 Y57.1500
G01 X3.9867 Y57.2577
G01 X4.0025 Y57.3643
G01 X4.0287 Y57.4689
G01 X4.0650 Y57.5704
G01 X4.1111 Y57.6679
G01 X4.1665 Y57.7603
G01 X4.2308 Y57.8469
G01 X4.3032 Y57.9268
G01 X4.3831 Y57.9992
G01 X4.4697 Y58.0635
G01 X4.5621 Y58.1189
G01 X4.6596 Y58.1650
G01 X4.7611 Y58.2013
G01 X4.8657 Y58.2275
G01 X4.9723 Y58.2433
G01 X5.0800 Y58.2486
G01 X5.1877 Y58.2433
G01 X5.2943 Y58.2275
G01 X5.3989 Y58.2013
G01 X5.5004 Y58.1650
G01 X5.5979 Y58.1189
G01 X5.6903 Y58.0635
G01 X5.7769 Y57.9992
G01 X5.8568 Y57.9268
G01 X5.9292 Y57.8469
G01 X5.9935 Y57.7603
G01 X6.0489 Y57.6679
G01 X6.0950 Y57.5704
G01 X6.1313 Y57.4689
G01 X6.1575 Y57.3643
G01 X6.1733 Y57.2577
G01 X6.1786 Y57.1500
G00 Z2.0000
M05
G00 Z2.0000
G00 Z15.00
G00 X0.0 Y0.0

