(G-CODE GENERATED BY FLATCAM v8.991 - www.flatcam.org - Version Date: 2019/12/27)

(Name: Gateway.gbl_iso_cnc)
(Type: G-code from Geometry)
(Units: MM)

(Created on Wednesday, 17 February 2021 at 15:42)

(TOOL DIAMETER: 0.15 mm)
(Feedrate: 100.0 mm/min)
(Feedrate_Z: 60.0 mm/min)
(Feedrate rapids 1500.0 mm/min)

(Z_Cut: -0.15 mm)
(Z_Move: 2.0 mm)
(Z Toolchange: 15.0 mm)
(X,Y Toolchange: 0.0000, 0.0000 mm)
(Z Start: None mm)
(Z End: 15.0 mm)
(Steps per circle: 64)
(Preprocessor Geometry: default)

(X range:   -0.0750 ...   77.5450  mm)
(Y range:   -0.0750 ...   62.3050  mm)

(Spindle Speed: None RPM)
G21
G90
G94




G01 F100.00
G00 Z2.0000

M03
G00 X-0.0611 Y1.1149
G01 F60.00
G01 Z-0.1500
G01 F100.00
G01 X-0.0598 Y1.0969
G01 X-0.0594 Y1.0879
G01 X-0.0572 Y1.0634
G01 X-0.0572 Y1.0490
G01 X-0.0569 Y1.0423
G01 X-0.0560 Y1.0357
G01 X-0.0546 Y1.0292
G01 X0.0039 Y0.8159
G01 X0.0058 Y0.8098
G01 X0.0083 Y0.8039
G01 X0.1023 Y0.6032
G01 X0.1052 Y0.5976
G01 X0.1086 Y0.5922
G01 X0.2356 Y0.4093
G01 X0.2396 Y0.4040
G01 X0.2441 Y0.3991
G01 X0.3991 Y0.2441
G01 X0.4040 Y0.2396
G01 X0.4093 Y0.2356
G01 X0.5922 Y0.1086
G01 X0.5976 Y0.1052
G01 X0.6032 Y0.1023
G01 X0.8039 Y0.0083
G01 X0.8098 Y0.0058
G01 X0.8159 Y0.0039
G01 X1.0292 Y-0.0546
G01 X1.0361 Y-0.0561
G01 X1.0430 Y-0.0570
G01 X1.2700 Y-0.0750
G01 X76.2000 Y-0.0750
G01 X76.4270 Y-0.0570
G01 X76.4339 Y-0.0561
G01 X76.4408 Y-0.0546
G01 X76.6541 Y0.0039
G01 X76.6602 Y0.0058
G01 X76.6661 Y0.0083
G01 X76.8668 Y0.1023
G01 X76.8724 Y0.1052
G01 X76.8778 Y0.1086
G01 X77.0607 Y0.2356
G01 X77.0660 Y0.2396
G01 X77.0709 Y0.2441
G01 X77.2259 Y0.3991
G01 X77.2304 Y0.4040
G01 X77.2344 Y0.4093
G01 X77.3614 Y0.5922
G01 X77.3648 Y0.5976
G01 X77.3677 Y0.6032
G01 X77.4617 Y0.8039
G01 X77.4642 Y0.8098
G01 X77.4661 Y0.8159
G01 X77.5246 Y1.0292
G01 X77.5261 Y1.0361
G01 X77.5270 Y1.0430
G01 X77.5450 Y1.2700
G01 X77.5450 Y60.9651
G01 X77.5425 Y61.0010
G01 X77.5422 Y61.0089
G01 X77.5397 Y61.0420
G01 X77.5348 Y61.0750
G01 X77.5346 Y61.0826
G01 X77.5298 Y61.1458
G01 X77.5295 Y61.1537
G01 X77.5270 Y61.1867
G01 X77.5261 Y61.1938
G01 X77.5246 Y61.2008
G01 X77.4661 Y61.4141
G01 X77.4642 Y61.4202
G01 X77.4617 Y61.4261
G01 X77.3677 Y61.6268
G01 X77.3648 Y61.6324
G01 X77.3614 Y61.6378
G01 X77.2344 Y61.8207
G01 X77.2304 Y61.8260
G01 X77.2259 Y61.8309
G01 X77.0709 Y61.9859
G01 X77.0660 Y61.9904
G01 X77.0607 Y61.9944
G01 X76.8778 Y62.1214
G01 X76.8724 Y62.1248
G01 X76.8668 Y62.1277
G01 X76.6661 Y62.2217
G01 X76.6602 Y62.2242
G01 X76.6541 Y62.2261
G01 X76.4408 Y62.2846
G01 X76.4339 Y62.2861
G01 X76.4270 Y62.2870
G01 X76.2000 Y62.3050
G01 X1.2700 Y62.3050
G01 X1.0430 Y62.2870
G01 X1.0361 Y62.2861
G01 X1.0292 Y62.2846
G01 X0.8159 Y62.2261
G01 X0.8098 Y62.2242
G01 X0.8039 Y62.2217
G01 X0.6032 Y62.1277
G01 X0.5976 Y62.1248
G01 X0.5922 Y62.1214
G01 X0.4093 Y61.9944
G01 X0.4040 Y61.9904
G01 X0.3991 Y61.9859
G01 X0.2441 Y61.8309
G01 X0.2396 Y61.8260
G01 X0.2356 Y61.8207
G01 X0.1086 Y61.6378
G01 X0.1052 Y61.6324
G01 X0.1023 Y61.6268
G01 X0.0083 Y61.4261
G01 X0.0058 Y61.4202
G01 X0.0039 Y61.4141
G01 X-0.0546 Y61.2008
G01 X-0.0561 Y61.1939
G01 X-0.0570 Y61.1870
G01 X-0.0750 Y60.9600
G01 X-0.0750 Y50.8000
G01 X-0.0674 Y50.6981
G01 X-0.0672 Y50.6901
G01 X-0.0623 Y50.6571
G01 X-0.0620 Y50.6484
G01 X-0.0598 Y50.6239
G01 X-0.0595 Y50.6164
G01 X-0.0572 Y50.5863
G01 X-0.0569 Y50.5723
G01 X-0.0560 Y50.5657
G01 X-0.0546 Y50.5592
G01 X0.0039 Y50.3459
G01 X0.0058 Y50.3398
G01 X0.0083 Y50.3339
G01 X0.1023 Y50.1332
G01 X0.1052 Y50.1276
G01 X0.1086 Y50.1222
G01 X0.2356 Y49.9393
G01 X0.2396 Y49.9340
G01 X0.2441 Y49.9291
G01 X0.3991 Y49.7741
G01 X0.4040 Y49.7696
G01 X0.4093 Y49.7656
G01 X0.5922 Y49.6386
G01 X0.5976 Y49.6352
G01 X0.6032 Y49.6323
G01 X0.8039 Y49.5383
G01 X0.8098 Y49.5358
G01 X0.8159 Y49.5339
G01 X1.0292 Y49.4754
G01 X1.0361 Y49.4739
G01 X1.0430 Y49.4730
G01 X1.2640 Y49.4552
G01 X15.2374 Y49.4550
G01 X15.5899 Y49.4302
G01 X15.9349 Y49.3538
G01 X16.2630 Y49.2304
G01 X16.5737 Y49.0627
G01 X16.8545 Y48.8534
G01 X17.1034 Y48.6045
G01 X17.3127 Y48.3237
G01 X17.4804 Y48.0130
G01 X17.6038 Y47.6849
G01 X17.6796 Y47.3425
G01 X17.6796 Y47.3202
G01 X17.6800 Y47.3129
G01 X17.6810 Y47.3056
G01 X17.6821 Y47.3012
G01 X17.6825 Y47.2802
G01 X17.6834 Y47.2733
G01 X17.6847 Y47.2680
G01 X17.6850 Y47.2447
G01 X17.6860 Y47.2378
G01 X17.6872 Y47.2325
G01 X17.6876 Y47.2087
G01 X17.6887 Y47.2014
G01 X17.6898 Y47.1970
G01 X17.6901 Y47.1761
G01 X17.6910 Y47.1692
G01 X17.6923 Y47.1639
G01 X17.6923 Y47.1424
G01 X17.6927 Y47.1350
G01 X17.6937 Y47.1278
G01 X17.6948 Y47.1234
G01 X17.6952 Y47.1024
G01 X17.6961 Y47.0955
G01 X17.6974 Y47.0902
G01 X17.6977 Y47.0669
G01 X17.6987 Y47.0600
G01 X17.6999 Y47.0547
G01 X17.7003 Y47.0309
G01 X17.7014 Y47.0236
G01 X17.7025 Y47.0192
G01 X17.7025 Y47.0027
G01 X17.7028 Y46.9953
G01 X17.7039 Y46.9881
G01 X17.7050 Y46.9837
G01 X17.7050 Y43.1826
G01 X17.6802 Y42.8301
G01 X17.6038 Y42.4851
G01 X17.4804 Y42.1570
G01 X17.3127 Y41.8463
G01 X17.1034 Y41.5655
G01 X16.8545 Y41.3166
G01 X16.5737 Y41.1073
G01 X16.2630 Y40.9396
G01 X15.9349 Y40.8162
G01 X15.5925 Y40.7404
G01 X15.5727 Y40.7404
G01 X15.5647 Y40.7400
G01 X15.5538 Y40.7379
G01 X15.5372 Y40.7379
G01 X15.5292 Y40.7374
G01 X15.5182 Y40.7353
G01 X15.4947 Y40.7350
G01 X15.4878 Y40.7340
G01 X15.4825 Y40.7328
G01 X15.4686 Y40.7328
G01 X15.4606 Y40.7323
G01 X15.4496 Y40.7302
G01 X15.4330 Y40.7302
G01 X15.4250 Y40.7298
G01 X15.4141 Y40.7277
G01 X15.3905 Y40.7274
G01 X15.3837 Y40.7264
G01 X15.3783 Y40.7252
G01 X15.3645 Y40.7252
G01 X15.3564 Y40.7247
G01 X15.3455 Y40.7226
G01 X15.3213 Y40.7226
G01 X15.3143 Y40.7223
G01 X15.3075 Y40.7213
G01 X15.3021 Y40.7201
G01 X15.2883 Y40.7201
G01 X15.2802 Y40.7196
G01 X15.2693 Y40.7175
G01 X15.2527 Y40.7175
G01 X15.2447 Y40.7171
G01 X15.2337 Y40.7150
G01 X1.2640 Y40.7148
G01 X1.0430 Y40.6970
G01 X1.0361 Y40.6961
G01 X1.0292 Y40.6946
G01 X0.8159 Y40.6361
G01 X0.8098 Y40.6342
G01 X0.8039 Y40.6317
G01 X0.6032 Y40.5377
G01 X0.5976 Y40.5348
G01 X0.5922 Y40.5314
G01 X0.4093 Y40.4044
G01 X0.4040 Y40.4004
G01 X0.3991 Y40.3959
G01 X0.2441 Y40.2409
G01 X0.2396 Y40.2360
G01 X0.2356 Y40.2307
G01 X0.1086 Y40.0478
G01 X0.1052 Y40.0424
G01 X0.1023 Y40.0368
G01 X0.0083 Y39.8361
G01 X0.0058 Y39.8302
G01 X0.0039 Y39.8241
G01 X-0.0546 Y39.6108
G01 X-0.0561 Y39.6039
G01 X-0.0570 Y39.5970
G01 X-0.0750 Y39.3700
G01 X-0.0750 Y1.2700
G01 X-0.0699 Y1.2087
G01 X-0.0671 Y1.1591
G01 X-0.0645 Y1.1311
G01 X-0.0636 Y1.1242
G01 X-0.0611 Y1.1149
G00 Z2.0000
G00 X4.7837 Y1.1037
G01 F60.00
G01 Z-0.1500
G01 F100.00
G01 X4.7867 Y1.1037
G01 X4.7977 Y1.1058
G01 X4.8057 Y1.1062
G01 X4.8274 Y1.1062
G01 X4.8383 Y1.1083
G01 X4.8463 Y1.1088
G01 X4.8604 Y1.1088
G01 X4.8713 Y1.1109
G01 X4.8793 Y1.1113
G01 X4.8934 Y1.1113
G01 X4.9043 Y1.1134
G01 X4.9124 Y1.1139
G01 X4.9264 Y1.1139
G01 X4.9374 Y1.1160
G01 X4.9454 Y1.1164
G01 X4.9594 Y1.1164
G01 X4.9704 Y1.1185
G01 X4.9784 Y1.1189
G01 X4.9925 Y1.1189
G01 X5.0034 Y1.1210
G01 X5.0114 Y1.1215
G01 X5.0255 Y1.1215
G01 X5.0364 Y1.1236
G01 X5.0444 Y1.1240
G01 X5.0585 Y1.1240
G01 X5.0694 Y1.1261
G01 X5.0775 Y1.1266
G01 X5.0915 Y1.1266
G01 X5.1025 Y1.1287
G01 X5.1105 Y1.1291
G01 X5.1361 Y1.1291
G01 X5.1488 Y1.1313
G01 X5.1652 Y1.1316
G01 X5.1761 Y1.1337
G01 X5.1841 Y1.1342
G01 X5.1982 Y1.1342
G01 X5.2091 Y1.1363
G01 X5.2172 Y1.1367
G01 X5.2351 Y1.1367
G01 X5.2479 Y1.1389
G01 X5.2642 Y1.1393
G01 X5.2752 Y1.1414
G01 X5.2832 Y1.1418
G01 X5.2973 Y1.1418
G01 X5.3082 Y1.1439
G01 X5.3162 Y1.1443
G01 X5.3303 Y1.1443
G01 X5.3412 Y1.1464
G01 X5.3492 Y1.1469
G01 X5.3633 Y1.1469
G01 X5.3742 Y1.1490
G01 X5.3823 Y1.1494
G01 X5.3963 Y1.1494
G01 X5.4073 Y1.1515
G01 X5.4153 Y1.1520
G01 X5.4370 Y1.1520
G01 X5.4479 Y1.1541
G01 X5.4559 Y1.1545
G01 X5.4700 Y1.1545
G01 X5.4809 Y1.1566
G01 X5.4889 Y1.1570
G01 X5.5069 Y1.1570
G01 X5.5196 Y1.1592
G01 X5.5360 Y1.1596
G01 X5.5470 Y1.1617
G01 X5.5550 Y1.1621
G01 X5.5690 Y1.1621
G01 X5.5800 Y1.1642
G01 X5.5880 Y1.1647
G01 X5.6072 Y1.1647
G01 X5.6225 Y1.1669
G01 X5.6351 Y1.1672
G01 X5.6460 Y1.1693
G01 X5.6540 Y1.1697
G01 X5.6681 Y1.1697
G01 X5.6790 Y1.1718
G01 X5.6871 Y1.1723
G01 X5.7076 Y1.1723
G01 X5.7203 Y1.1745
G01 X5.7418 Y1.1748
G01 X5.7527 Y1.1769
G01 X5.7607 Y1.1774
G01 X5.7787 Y1.1774
G01 X5.7914 Y1.1795
G01 X5.8066 Y1.1799
G01 X5.8194 Y1.1821
G01 X5.8408 Y1.1824
G01 X5.8518 Y1.1845
G01 X5.8598 Y1.1850
G01 X5.8790 Y1.1850
G01 X5.8942 Y1.1873
G01 X5.9057 Y1.1875
G01 X5.9184 Y1.1897
G01 X5.9399 Y1.1901
G01 X5.9508 Y1.1922
G01 X5.9588 Y1.1926
G01 X5.9700 Y1.1926
G01 X7.0741 Y1.6278
G01 X8.0038 Y2.3681
G01 X8.6718 Y3.3501
G01 X9.0233 Y4.4868
G01 X9.0233 Y5.6732
G01 X8.6718 Y6.8099
G01 X8.0038 Y7.7919
G01 X7.0741 Y8.5322
G01 X5.9674 Y8.9684
G01 X4.7809 Y9.0557
G01 X3.6243 Y8.7915
G01 X2.5949 Y8.1982
G01 X1.7848 Y7.3258
G01 X1.2688 Y6.2565
G01 X1.0918 Y5.0800
G01 X1.2688 Y3.9035
G01 X1.7848 Y2.8342
G01 X2.5949 Y1.9618
G01 X3.6243 Y1.3685
G01 X4.7837 Y1.1037
G00 Z2.0000
G00 X4.9109 Y2.9800
G01 F60.00
G01 Z-0.1500
G01 F100.00
G01 X4.9183 Y2.9787
G01 X4.9258 Y2.9781
G01 X4.9333 Y2.9783
G01 X5.5378 Y3.0240
G01 X5.5452 Y3.0249
G01 X5.5524 Y3.0266
G01 X5.5595 Y3.0290
G01 X6.1234 Y3.2500
G01 X6.1302 Y3.2530
G01 X6.1367 Y3.2568
G01 X6.1427 Y3.2611
G01 X6.6177 Y3.6396
G01 X6.6234 Y3.6446
G01 X6.6285 Y3.6501
G01 X6.6330 Y3.6561
G01 X6.9734 Y4.1564
G01 X6.9772 Y4.1628
G01 X6.9805 Y4.1696
G01 X6.9830 Y4.1766
G01 X7.1608 Y4.7557
G01 X7.1627 Y4.7629
G01 X7.1638 Y4.7703
G01 X7.1641 Y4.7777
G01 X7.1641 Y5.3823
G01 X7.1638 Y5.3897
G01 X7.1627 Y5.3971
G01 X7.1608 Y5.4043
G01 X6.9830 Y5.9834
G01 X6.9805 Y5.9904
G01 X6.9772 Y5.9972
G01 X6.9734 Y6.0036
G01 X6.6330 Y6.5039
G01 X6.6285 Y6.5099
G01 X6.6234 Y6.5154
G01 X6.6177 Y6.5204
G01 X6.1427 Y6.8989
G01 X6.1367 Y6.9032
G01 X6.1302 Y6.9070
G01 X6.1234 Y6.9100
G01 X5.5595 Y7.1310
G01 X5.5529 Y7.1333
G01 X5.5332 Y7.1375
G01 X5.5264 Y7.1384
G01 X5.5194 Y7.1387
G01 X5.5028 Y7.1387
G01 X5.4919 Y7.1408
G01 X5.4839 Y7.1413
G01 X5.4698 Y7.1413
G01 X5.4589 Y7.1434
G01 X5.4508 Y7.1438
G01 X5.4319 Y7.1438
G01 X5.4266 Y7.1451
G01 X5.4197 Y7.1460
G01 X5.3989 Y7.1464
G01 X5.3935 Y7.1476
G01 X5.3867 Y7.1486
G01 X5.3658 Y7.1489
G01 X5.3605 Y7.1502
G01 X5.3536 Y7.1511
G01 X5.3328 Y7.1514
G01 X5.3275 Y7.1527
G01 X5.3206 Y7.1537
G01 X5.2998 Y7.1540
G01 X5.2945 Y7.1552
G01 X5.2876 Y7.1562
G01 X5.2641 Y7.1565
G01 X5.2531 Y7.1586
G01 X5.2451 Y7.1591
G01 X5.2310 Y7.1591
G01 X5.2201 Y7.1612
G01 X5.2121 Y7.1616
G01 X5.1980 Y7.1616
G01 X5.1871 Y7.1637
G01 X5.1791 Y7.1641
G01 X5.1601 Y7.1641
G01 X5.1548 Y7.1654
G01 X5.1479 Y7.1664
G01 X5.1271 Y7.1667
G01 X5.1218 Y7.1679
G01 X5.1149 Y7.1689
G01 X5.0941 Y7.1692
G01 X5.0887 Y7.1705
G01 X5.0819 Y7.1714
G01 X5.0610 Y7.1718
G01 X5.0557 Y7.1730
G01 X5.0488 Y7.1740
G01 X5.0280 Y7.1743
G01 X5.0227 Y7.1756
G01 X5.0158 Y7.1765
G01 X4.9923 Y7.1768
G01 X4.9813 Y7.1789
G01 X4.9733 Y7.1794
G01 X4.9593 Y7.1794
G01 X4.9483 Y7.1815
G01 X4.9403 Y7.1819
G01 X4.9276 Y7.1819
G01 X4.9192 Y7.1814
G01 X4.9109 Y7.1800
G01 X4.3216 Y7.0454
G01 X4.3145 Y7.0434
G01 X4.3076 Y7.0407
G01 X4.3009 Y7.0373
G01 X3.7752 Y6.7351
G01 X3.7688 Y6.7310
G01 X3.7629 Y6.7263
G01 X3.7575 Y6.7210
G01 X3.3460 Y6.2765
G01 X3.3413 Y6.2708
G01 X3.3371 Y6.2647
G01 X3.3335 Y6.2582
G01 X3.0694 Y5.7121
G01 X3.0664 Y5.7051
G01 X3.0642 Y5.6979
G01 X3.0627 Y5.6904
G01 X2.9738 Y5.0910
G01 X2.9731 Y5.0837
G01 X2.9731 Y5.0763
G01 X2.9738 Y5.0690
G01 X3.0627 Y4.4696
G01 X3.0642 Y4.4621
G01 X3.0664 Y4.4549
G01 X3.0694 Y4.4479
G01 X3.3335 Y3.9018
G01 X3.3371 Y3.8953
G01 X3.3413 Y3.8892
G01 X3.3460 Y3.8835
G01 X3.7575 Y3.4390
G01 X3.7629 Y3.4337
G01 X3.7688 Y3.4290
G01 X3.7752 Y3.4249
G01 X4.3009 Y3.1227
G01 X4.3076 Y3.1193
G01 X4.3145 Y3.1166
G01 X4.3216 Y3.1146
G01 X4.9109 Y2.9800
G00 Z2.0000
G00 X5.3622 Y3.6564
G01 F60.00
G01 Z-0.1500
G01 F100.00
G01 X5.8859 Y3.8736
G01 X6.2864 Y4.2741
G01 X6.5036 Y4.7978
G01 X6.5036 Y5.3622
G01 X6.2864 Y5.8859
G01 X5.8859 Y6.2864
G01 X5.3622 Y6.5036
G01 X4.7978 Y6.5036
G01 X4.2741 Y6.2864
G01 X3.8736 Y5.8859
G01 X3.6564 Y5.3622
G01 X3.6564 Y4.7978
G01 X3.8736 Y4.2741
G01 X4.2741 Y3.8736
G01 X4.7978 Y3.6564
G01 X5.3622 Y3.6564
G00 Z2.0000
G00 X6.8117 Y24.2863
G01 F60.00
G01 Z-0.1500
G01 F100.00
G01 X7.4637 Y24.9383
G01 X7.4637 Y25.8617
G01 X6.8117 Y26.5137
G01 X5.8883 Y26.5137
G01 X5.4277 Y26.0531
G01 X5.4222 Y26.0481
G01 X5.4163 Y26.0438
G01 X5.4100 Y26.0400
G01 X5.4033 Y26.0368
G01 X5.3964 Y26.0344
G01 X5.3893 Y26.0326
G01 X5.3820 Y26.0315
G01 X5.3721 Y26.0311
G01 X5.3647 Y26.0315
G01 X5.3575 Y26.0326
G01 X5.3503 Y26.0344
G01 X5.3434 Y26.0368
G01 X5.3367 Y26.0400
G01 X5.3304 Y26.0438
G01 X5.3245 Y26.0481
G01 X5.3191 Y26.0531
G01 X3.1931 Y28.1791
G01 X3.1881 Y28.1845
G01 X3.1838 Y28.1904
G01 X3.1800 Y28.1967
G01 X3.1768 Y28.2034
G01 X3.1744 Y28.2103
G01 X3.1726 Y28.2175
G01 X3.1715 Y28.2247
G01 X3.1711 Y28.2321
G01 X3.1711 Y35.2679
G01 X3.1715 Y35.2753
G01 X3.1726 Y35.2825
G01 X3.1744 Y35.2897
G01 X3.1768 Y35.2966
G01 X3.1800 Y35.3033
G01 X3.1838 Y35.3096
G01 X3.1881 Y35.3155
G01 X3.1931 Y35.3209
G01 X5.3191 Y37.4469
G01 X5.3245 Y37.4519
G01 X5.3304 Y37.4562
G01 X5.3367 Y37.4600
G01 X5.3434 Y37.4632
G01 X5.3503 Y37.4656
G01 X5.3575 Y37.4674
G01 X5.3647 Y37.4685
G01 X5.3721 Y37.4689
G01 X20.4449 Y37.4689
G01 X20.6764 Y37.5642
G01 X29.4491 Y46.3369
G01 X29.4545 Y46.3419
G01 X29.4604 Y46.3462
G01 X29.4667 Y46.3500
G01 X29.4734 Y46.3532
G01 X29.4803 Y46.3556
G01 X29.4875 Y46.3574
G01 X29.4947 Y46.3585
G01 X29.5021 Y46.3589
G01 X37.1246 Y46.3589
G01 X37.1320 Y46.3585
G01 X37.1393 Y46.3574
G01 X37.1464 Y46.3556
G01 X37.1533 Y46.3532
G01 X37.1600 Y46.3500
G01 X37.1663 Y46.3462
G01 X37.1722 Y46.3419
G01 X37.1777 Y46.3369
G01 X37.6383 Y45.8763
G01 X38.5617 Y45.8763
G01 X39.2137 Y46.5283
G01 X39.2137 Y47.4517
G01 X38.5617 Y48.1037
G01 X37.6383 Y48.1037
G01 X37.1777 Y47.6431
G01 X37.1722 Y47.6381
G01 X37.1663 Y47.6338
G01 X37.1600 Y47.6300
G01 X37.1533 Y47.6268
G01 X37.1464 Y47.6244
G01 X37.1393 Y47.6226
G01 X37.1320 Y47.6215
G01 X37.1246 Y47.6211
G01 X29.0851 Y47.6211
G01 X28.8536 Y47.5258
G01 X20.0809 Y38.7531
G01 X20.0755 Y38.7481
G01 X20.0696 Y38.7438
G01 X20.0633 Y38.7400
G01 X20.0566 Y38.7368
G01 X20.0497 Y38.7344
G01 X20.0425 Y38.7326
G01 X20.0353 Y38.7315
G01 X20.0279 Y38.7311
G01 X4.9551 Y38.7311
G01 X4.7236 Y38.6358
G01 X2.0042 Y35.9164
G01 X1.9089 Y35.6849
G01 X1.9089 Y27.8151
G01 X2.0042 Y27.5836
G01 X4.7236 Y24.8642
G01 X4.9551 Y24.7689
G01 X5.3746 Y24.7689
G01 X5.3820 Y24.7685
G01 X5.3893 Y24.7674
G01 X5.3964 Y24.7656
G01 X5.4033 Y24.7632
G01 X5.4100 Y24.7600
G01 X5.4163 Y24.7562
G01 X5.4222 Y24.7519
G01 X5.4277 Y24.7469
G01 X5.8883 Y24.2863
G01 X6.8117 Y24.2863
G00 Z2.0000
G00 X6.8117 Y26.8263
G01 F60.00
G01 Z-0.1500
G01 F100.00
G01 X7.2723 Y27.2869
G01 X7.2778 Y27.2919
G01 X7.2837 Y27.2962
G01 X7.2900 Y27.3000
G01 X7.2967 Y27.3032
G01 X7.3036 Y27.3056
G01 X7.3107 Y27.3074
G01 X7.3180 Y27.3085
G01 X7.3254 Y27.3089
G01 X17.9049 Y27.3089
G01 X18.1364 Y27.4042
G01 X20.8558 Y30.1236
G01 X20.9511 Y30.3551
G01 X20.9511 Y33.9979
G01 X20.9515 Y34.0053
G01 X20.9526 Y34.0125
G01 X20.9544 Y34.0197
G01 X20.9568 Y34.0266
G01 X20.9600 Y34.0333
G01 X20.9638 Y34.0396
G01 X20.9681 Y34.0455
G01 X20.9731 Y34.0509
G01 X28.1791 Y41.2569
G01 X28.1845 Y41.2619
G01 X28.1904 Y41.2662
G01 X28.1967 Y41.2700
G01 X28.2034 Y41.2732
G01 X28.2103 Y41.2756
G01 X28.2175 Y41.2774
G01 X28.2247 Y41.2785
G01 X28.2321 Y41.2789
G01 X37.1246 Y41.2789
G01 X37.1320 Y41.2785
G01 X37.1393 Y41.2774
G01 X37.1464 Y41.2756
G01 X37.1533 Y41.2732
G01 X37.1600 Y41.2700
G01 X37.1663 Y41.2662
G01 X37.1722 Y41.2619
G01 X37.1777 Y41.2569
G01 X37.6383 Y40.7963
G01 X38.5617 Y40.7963
G01 X39.2137 Y41.4483
G01 X39.2137 Y42.3717
G01 X38.5617 Y43.0237
G01 X37.6383 Y43.0237
G01 X37.1777 Y42.5631
G01 X37.1722 Y42.5581
G01 X37.1663 Y42.5538
G01 X37.1600 Y42.5500
G01 X37.1533 Y42.5468
G01 X37.1464 Y42.5444
G01 X37.1393 Y42.5426
G01 X37.1320 Y42.5415
G01 X37.1246 Y42.5411
G01 X27.8151 Y42.5411
G01 X27.5836 Y42.4458
G01 X19.7842 Y34.6464
G01 X19.6889 Y34.4149
G01 X19.6889 Y30.7721
G01 X19.6885 Y30.7647
G01 X19.6874 Y30.7575
G01 X19.6856 Y30.7503
G01 X19.6832 Y30.7434
G01 X19.6800 Y30.7367
G01 X19.6762 Y30.7304
G01 X19.6719 Y30.7245
G01 X19.6669 Y30.7191
G01 X17.5409 Y28.5931
G01 X17.5355 Y28.5881
G01 X17.5296 Y28.5838
G01 X17.5233 Y28.5800
G01 X17.5166 Y28.5768
G01 X17.5097 Y28.5744
G01 X17.5025 Y28.5726
G01 X17.4953 Y28.5715
G01 X17.4879 Y28.5711
G01 X7.3254 Y28.5711
G01 X7.3180 Y28.5715
G01 X7.3107 Y28.5726
G01 X7.3036 Y28.5744
G01 X7.2967 Y28.5768
G01 X7.2900 Y28.5800
G01 X7.2837 Y28.5838
G01 X7.2778 Y28.5881
G01 X7.2723 Y28.5931
G01 X6.8117 Y29.0537
G01 X5.8883 Y29.0537
G01 X5.2363 Y28.4017
G01 X5.2363 Y27.4783
G01 X5.8883 Y26.8263
G01 X6.8117 Y26.8263
G00 Z2.0000
G00 X6.8117 Y29.3663
G01 F60.00
G01 Z-0.1500
G01 F100.00
G01 X7.4637 Y30.0183
G01 X7.4637 Y30.9417
G01 X6.8117 Y31.5937
G01 X5.8883 Y31.5937
G01 X5.2363 Y30.9417
G01 X5.2363 Y30.0183
G01 X5.8883 Y29.3663
G01 X6.8117 Y29.3663
G00 Z2.0000
G00 X7.2920 Y30.0587
G01 F60.00
G01 Z-0.1500
G01 F100.00
G01 X7.2970 Y30.0642
G01 X7.3014 Y30.0701
G01 X7.3051 Y30.0764
G01 X7.3083 Y30.0831
G01 X7.3108 Y30.0900
G01 X7.3126 Y30.0971
G01 X7.3136 Y30.1044
G01 X7.3140 Y30.1118
G01 X7.3140 Y30.8482
G01 X7.3136 Y30.8556
G01 X7.3126 Y30.8629
G01 X7.3108 Y30.8700
G01 X7.3083 Y30.8769
G01 X7.3051 Y30.8836
G01 X7.3014 Y30.8899
G01 X7.2970 Y30.8958
G01 X7.2920 Y30.9013
G01 X6.7713 Y31.4220
G01 X6.7658 Y31.4270
G01 X6.7599 Y31.4314
G01 X6.7536 Y31.4351
G01 X6.7469 Y31.4383
G01 X6.7400 Y31.4408
G01 X6.7329 Y31.4426
G01 X6.7256 Y31.4436
G01 X6.7182 Y31.4440
G01 X5.9818 Y31.4440
G01 X5.9744 Y31.4436
G01 X5.9671 Y31.4426
G01 X5.9600 Y31.4408
G01 X5.9531 Y31.4383
G01 X5.9464 Y31.4351
G01 X5.9401 Y31.4314
G01 X5.9342 Y31.4270
G01 X5.9287 Y31.4220
G01 X5.4080 Y30.9013
G01 X5.4030 Y30.8958
G01 X5.3986 Y30.8899
G01 X5.3949 Y30.8836
G01 X5.3917 Y30.8769
G01 X5.3892 Y30.8700
G01 X5.3874 Y30.8629
G01 X5.3864 Y30.8556
G01 X5.3860 Y30.8482
G01 X5.3860 Y30.1118
G01 X5.3864 Y30.1044
G01 X5.3874 Y30.0971
G01 X5.3892 Y30.0900
G01 X5.3917 Y30.0831
G01 X5.3949 Y30.0764
G01 X5.3986 Y30.0701
G01 X5.4030 Y30.0642
G01 X5.4080 Y30.0587
G01 X5.9287 Y29.5380
G01 X5.9342 Y29.5330
G01 X5.9401 Y29.5286
G01 X5.9464 Y29.5249
G01 X5.9531 Y29.5217
G01 X5.9600 Y29.5192
G01 X5.9671 Y29.5174
G01 X5.9744 Y29.5164
G01 X5.9818 Y29.5160
G01 X6.7182 Y29.5160
G01 X6.7256 Y29.5164
G01 X6.7329 Y29.5174
G01 X6.7400 Y29.5192
G01 X6.7469 Y29.5217
G01 X6.7536 Y29.5249
G01 X6.7599 Y29.5286
G01 X6.7658 Y29.5330
G01 X6.7713 Y29.5380
G01 X7.2920 Y30.0587
G00 Z2.0000
G00 X6.8117 Y31.9063
G01 F60.00
G01 Z-0.1500
G01 F100.00
G01 X7.4637 Y32.5583
G01 X7.4637 Y33.4817
G01 X6.8117 Y34.1337
G01 X5.8883 Y34.1337
G01 X5.2363 Y33.4817
G01 X5.2363 Y32.5583
G01 X5.8883 Y31.9063
G01 X6.8117 Y31.9063
G00 Z2.0000
G00 X7.2920 Y32.5987
G01 F60.00
G01 Z-0.1500
G01 F100.00
G01 X7.2970 Y32.6042
G01 X7.3014 Y32.6101
G01 X7.3051 Y32.6164
G01 X7.3083 Y32.6231
G01 X7.3108 Y32.6300
G01 X7.3126 Y32.6371
G01 X7.3136 Y32.6444
G01 X7.3140 Y32.6518
G01 X7.3140 Y33.3882
G01 X7.3136 Y33.3956
G01 X7.3126 Y33.4029
G01 X7.3108 Y33.4100
G01 X7.3083 Y33.4169
G01 X7.3051 Y33.4236
G01 X7.3014 Y33.4299
G01 X7.2970 Y33.4358
G01 X7.2920 Y33.4413
G01 X6.7713 Y33.9620
G01 X6.7658 Y33.9670
G01 X6.7599 Y33.9714
G01 X6.7536 Y33.9751
G01 X6.7469 Y33.9783
G01 X6.7400 Y33.9808
G01 X6.7329 Y33.9826
G01 X6.7256 Y33.9836
G01 X6.7182 Y33.9840
G01 X5.9818 Y33.9840
G01 X5.9744 Y33.9836
G01 X5.9671 Y33.9826
G01 X5.9600 Y33.9808
G01 X5.9531 Y33.9783
G01 X5.9464 Y33.9751
G01 X5.9401 Y33.9714
G01 X5.9342 Y33.9670
G01 X5.9287 Y33.9620
G01 X5.4080 Y33.4413
G01 X5.4030 Y33.4358
G01 X5.3986 Y33.4299
G01 X5.3949 Y33.4236
G01 X5.3917 Y33.4169
G01 X5.3892 Y33.4100
G01 X5.3874 Y33.4029
G01 X5.3864 Y33.3956
G01 X5.3860 Y33.3882
G01 X5.3860 Y32.6518
G01 X5.3864 Y32.6444
G01 X5.3874 Y32.6371
G01 X5.3892 Y32.6300
G01 X5.3917 Y32.6231
G01 X5.3949 Y32.6164
G01 X5.3986 Y32.6101
G01 X5.4030 Y32.6042
G01 X5.4080 Y32.5987
G01 X5.9287 Y32.0780
G01 X5.9342 Y32.0730
G01 X5.9401 Y32.0686
G01 X5.9464 Y32.0649
G01 X5.9531 Y32.0617
G01 X5.9600 Y32.0592
G01 X5.9671 Y32.0574
G01 X5.9744 Y32.0564
G01 X5.9818 Y32.0560
G01 X6.7182 Y32.0560
G01 X6.7256 Y32.0564
G01 X6.7329 Y32.0574
G01 X6.7400 Y32.0592
G01 X6.7469 Y32.0617
G01 X6.7536 Y32.0649
G01 X6.7599 Y32.0686
G01 X6.7658 Y32.0730
G01 X6.7713 Y32.0780
G01 X7.2920 Y32.5987
G00 Z2.0000
G00 X6.8117 Y34.4463
G01 F60.00
G01 Z-0.1500
G01 F100.00
G01 X7.4637 Y35.0983
G01 X7.4637 Y36.0217
G01 X6.8117 Y36.6737
G01 X5.8883 Y36.6737
G01 X5.2363 Y36.0217
G01 X5.2363 Y35.0983
G01 X5.8883 Y34.4463
G01 X6.8117 Y34.4463
G00 Z2.0000
G00 X7.2920 Y35.1387
G01 F60.00
G01 Z-0.1500
G01 F100.00
G01 X7.2970 Y35.1442
G01 X7.3014 Y35.1501
G01 X7.3051 Y35.1564
G01 X7.3083 Y35.1631
G01 X7.3108 Y35.1700
G01 X7.3126 Y35.1771
G01 X7.3136 Y35.1844
G01 X7.3140 Y35.1918
G01 X7.3140 Y35.9282
G01 X7.3136 Y35.9356
G01 X7.3126 Y35.9429
G01 X7.3108 Y35.9500
G01 X7.3083 Y35.9569
G01 X7.3051 Y35.9636
G01 X7.3014 Y35.9699
G01 X7.2970 Y35.9758
G01 X7.2920 Y35.9813
G01 X6.7713 Y36.5020
G01 X6.7658 Y36.5070
G01 X6.7599 Y36.5114
G01 X6.7536 Y36.5151
G01 X6.7469 Y36.5183
G01 X6.7400 Y36.5208
G01 X6.7329 Y36.5226
G01 X6.7256 Y36.5236
G01 X6.7182 Y36.5240
G01 X5.9818 Y36.5240
G01 X5.9744 Y36.5236
G01 X5.9671 Y36.5226
G01 X5.9600 Y36.5208
G01 X5.9531 Y36.5183
G01 X5.9464 Y36.5151
G01 X5.9401 Y36.5114
G01 X5.9342 Y36.5070
G01 X5.9287 Y36.5020
G01 X5.4080 Y35.9813
G01 X5.4030 Y35.9758
G01 X5.3986 Y35.9699
G01 X5.3949 Y35.9636
G01 X5.3917 Y35.9569
G01 X5.3892 Y35.9500
G01 X5.3874 Y35.9429
G01 X5.3864 Y35.9356
G01 X5.3860 Y35.9282
G01 X5.3860 Y35.1918
G01 X5.3864 Y35.1844
G01 X5.3874 Y35.1771
G01 X5.3892 Y35.1700
G01 X5.3917 Y35.1631
G01 X5.3949 Y35.1564
G01 X5.3986 Y35.1501
G01 X5.4030 Y35.1442
G01 X5.4080 Y35.1387
G01 X5.9287 Y34.6180
G01 X5.9342 Y34.6130
G01 X5.9401 Y34.6086
G01 X5.9464 Y34.6049
G01 X5.9531 Y34.6017
G01 X5.9600 Y34.5992
G01 X5.9671 Y34.5974
G01 X5.9744 Y34.5964
G01 X5.9818 Y34.5960
G01 X6.7182 Y34.5960
G01 X6.7256 Y34.5964
G01 X6.7329 Y34.5974
G01 X6.7400 Y34.5992
G01 X6.7469 Y34.6017
G01 X6.7536 Y34.6049
G01 X6.7599 Y34.6086
G01 X6.7658 Y34.6130
G01 X6.7713 Y34.6180
G01 X7.2920 Y35.1387
G00 Z2.0000
G00 X4.7837 Y53.1737
G01 F60.00
G01 Z-0.1500
G01 F100.00
G01 X4.7856 Y53.1737
G01 X4.7983 Y53.1759
G01 X4.8197 Y53.1762
G01 X4.8307 Y53.1783
G01 X4.8387 Y53.1788
G01 X4.8604 Y53.1788
G01 X4.8713 Y53.1809
G01 X4.8793 Y53.1813
G01 X4.8934 Y53.1813
G01 X4.9043 Y53.1834
G01 X4.9124 Y53.1839
G01 X4.9264 Y53.1839
G01 X4.9374 Y53.1860
G01 X4.9454 Y53.1864
G01 X4.9583 Y53.1864
G01 X4.9710 Y53.1886
G01 X4.9784 Y53.1889
G01 X4.9976 Y53.1889
G01 X5.0129 Y53.1912
G01 X5.0255 Y53.1915
G01 X5.0364 Y53.1936
G01 X5.0444 Y53.1940
G01 X5.0573 Y53.1940
G01 X5.0701 Y53.1962
G01 X5.0915 Y53.1966
G01 X5.1025 Y53.1987
G01 X5.1105 Y53.1991
G01 X5.1245 Y53.1991
G01 X5.1355 Y53.2012
G01 X5.1435 Y53.2016
G01 X5.1652 Y53.2016
G01 X5.1761 Y53.2037
G01 X5.1841 Y53.2042
G01 X5.1982 Y53.2042
G01 X5.2091 Y53.2063
G01 X5.2172 Y53.2067
G01 X5.2312 Y53.2067
G01 X5.2422 Y53.2088
G01 X5.2502 Y53.2093
G01 X5.2694 Y53.2093
G01 X5.2846 Y53.2115
G01 X5.2973 Y53.2118
G01 X5.3082 Y53.2139
G01 X5.3162 Y53.2143
G01 X5.3291 Y53.2143
G01 X5.3418 Y53.2165
G01 X5.3492 Y53.2169
G01 X5.3684 Y53.2169
G01 X5.3837 Y53.2192
G01 X5.3961 Y53.2194
G01 X5.4015 Y53.2207
G01 X5.4083 Y53.2216
G01 X5.4292 Y53.2220
G01 X5.4345 Y53.2232
G01 X5.4414 Y53.2242
G01 X5.4700 Y53.2245
G01 X5.4809 Y53.2266
G01 X5.4889 Y53.2270
G01 X5.5030 Y53.2270
G01 X5.5139 Y53.2291
G01 X5.5220 Y53.2296
G01 X5.5360 Y53.2296
G01 X5.5470 Y53.2317
G01 X5.5550 Y53.2321
G01 X5.5690 Y53.2321
G01 X5.5800 Y53.2342
G01 X5.5880 Y53.2347
G01 X5.6009 Y53.2347
G01 X5.6136 Y53.2368
G01 X5.6210 Y53.2372
G01 X5.6402 Y53.2372
G01 X5.6555 Y53.2395
G01 X5.6679 Y53.2397
G01 X5.6732 Y53.2410
G01 X5.6801 Y53.2420
G01 X5.7009 Y53.2423
G01 X5.7063 Y53.2435
G01 X5.7131 Y53.2445
G01 X5.7340 Y53.2448
G01 X5.7393 Y53.2461
G01 X5.7462 Y53.2470
G01 X5.7748 Y53.2474
G01 X5.7857 Y53.2495
G01 X5.7937 Y53.2499
G01 X5.8078 Y53.2499
G01 X5.8187 Y53.2520
G01 X5.8268 Y53.2524
G01 X5.8408 Y53.2524
G01 X5.8518 Y53.2545
G01 X5.8598 Y53.2550
G01 X5.8727 Y53.2550
G01 X5.8854 Y53.2572
G01 X5.8928 Y53.2575
G01 X5.9133 Y53.2575
G01 X5.9260 Y53.2597
G01 X5.9397 Y53.2601
G01 X5.9450 Y53.2613
G01 X5.9519 Y53.2623
G01 X5.9700 Y53.2626
G01 X7.0741 Y53.6978
G01 X8.0038 Y54.4381
G01 X8.6718 Y55.4201
G01 X9.0233 Y56.5568
G01 X9.0233 Y57.7432
G01 X8.6718 Y58.8799
G01 X8.0038 Y59.8619
G01 X7.0741 Y60.6022
G01 X5.9674 Y61.0384
G01 X4.7809 Y61.1257
G01 X3.6243 Y60.8615
G01 X2.5949 Y60.2682
G01 X1.7848 Y59.3958
G01 X1.2688 Y58.3265
G01 X1.0918 Y57.1500
G01 X1.2688 Y55.9735
G01 X1.7848 Y54.9042
G01 X2.5949 Y54.0318
G01 X3.6243 Y53.4385
G01 X4.7837 Y53.1737
G00 Z2.0000
G00 X4.9109 Y55.0500
G01 F60.00
G01 Z-0.1500
G01 F100.00
G01 X4.9183 Y55.0487
G01 X4.9258 Y55.0481
G01 X4.9333 Y55.0483
G01 X5.5378 Y55.0940
G01 X5.5452 Y55.0949
G01 X5.5524 Y55.0966
G01 X5.5595 Y55.0990
G01 X6.1234 Y55.3200
G01 X6.1302 Y55.3230
G01 X6.1367 Y55.3268
G01 X6.1427 Y55.3311
G01 X6.6177 Y55.7096
G01 X6.6234 Y55.7146
G01 X6.6285 Y55.7201
G01 X6.6330 Y55.7261
G01 X6.9734 Y56.2264
G01 X6.9772 Y56.2328
G01 X6.9805 Y56.2396
G01 X6.9830 Y56.2466
G01 X7.1608 Y56.8257
G01 X7.1627 Y56.8329
G01 X7.1638 Y56.8403
G01 X7.1641 Y56.8477
G01 X7.1641 Y57.4523
G01 X7.1638 Y57.4597
G01 X7.1627 Y57.4671
G01 X7.1608 Y57.4743
G01 X6.9830 Y58.0534
G01 X6.9805 Y58.0604
G01 X6.9772 Y58.0672
G01 X6.9734 Y58.0736
G01 X6.6330 Y58.5739
G01 X6.6285 Y58.5799
G01 X6.6234 Y58.5854
G01 X6.6177 Y58.5904
G01 X6.1427 Y58.9689
G01 X6.1367 Y58.9732
G01 X6.1302 Y58.9770
G01 X6.1234 Y58.9800
G01 X5.5595 Y59.2010
G01 X5.5529 Y59.2033
G01 X5.5460 Y59.2049
G01 X5.5366 Y59.2060
G01 X5.5328 Y59.2070
G01 X5.5249 Y59.2083
G01 X5.5169 Y59.2087
G01 X5.5028 Y59.2087
G01 X5.4919 Y59.2108
G01 X5.4839 Y59.2113
G01 X5.4698 Y59.2113
G01 X5.4589 Y59.2134
G01 X5.4508 Y59.2138
G01 X5.4319 Y59.2138
G01 X5.4266 Y59.2151
G01 X5.4197 Y59.2160
G01 X5.3989 Y59.2164
G01 X5.3935 Y59.2176
G01 X5.3867 Y59.2186
G01 X5.3658 Y59.2189
G01 X5.3605 Y59.2202
G01 X5.3536 Y59.2211
G01 X5.3301 Y59.2214
G01 X5.3192 Y59.2235
G01 X5.3111 Y59.2240
G01 X5.2971 Y59.2240
G01 X5.2861 Y59.2261
G01 X5.2781 Y59.2265
G01 X5.2641 Y59.2265
G01 X5.2531 Y59.2286
G01 X5.2451 Y59.2291
G01 X5.2310 Y59.2291
G01 X5.2201 Y59.2312
G01 X5.2121 Y59.2316
G01 X5.1980 Y59.2316
G01 X5.1871 Y59.2337
G01 X5.1791 Y59.2341
G01 X5.1650 Y59.2341
G01 X5.1541 Y59.2362
G01 X5.1460 Y59.2367
G01 X5.1271 Y59.2367
G01 X5.1218 Y59.2379
G01 X5.1149 Y59.2389
G01 X5.0941 Y59.2392
G01 X5.0887 Y59.2405
G01 X5.0819 Y59.2414
G01 X5.0583 Y59.2418
G01 X5.0474 Y59.2439
G01 X5.0394 Y59.2443
G01 X5.0253 Y59.2443
G01 X5.0144 Y59.2464
G01 X5.0063 Y59.2468
G01 X4.9923 Y59.2468
G01 X4.9813 Y59.2489
G01 X4.9733 Y59.2494
G01 X4.9593 Y59.2494
G01 X4.9483 Y59.2515
G01 X4.9403 Y59.2519
G01 X4.9276 Y59.2519
G01 X4.9192 Y59.2514
G01 X4.9109 Y59.2500
G01 X4.3216 Y59.1154
G01 X4.3145 Y59.1134
G01 X4.3076 Y59.1107
G01 X4.3009 Y59.1073
G01 X3.7752 Y58.8051
G01 X3.7688 Y58.8010
G01 X3.7629 Y58.7963
G01 X3.7575 Y58.7910
G01 X3.3460 Y58.3465
G01 X3.3413 Y58.3408
G01 X3.3371 Y58.3347
G01 X3.3335 Y58.3282
G01 X3.0694 Y57.7821
G01 X3.0664 Y57.7751
G01 X3.0642 Y57.7679
G01 X3.0627 Y57.7604
G01 X2.9738 Y57.1610
G01 X2.9731 Y57.1537
G01 X2.9731 Y57.1463
G01 X2.9738 Y57.1390
G01 X3.0627 Y56.5396
G01 X3.0642 Y56.5321
G01 X3.0664 Y56.5249
G01 X3.0694 Y56.5179
G01 X3.3335 Y55.9718
G01 X3.3371 Y55.9653
G01 X3.3413 Y55.9592
G01 X3.3460 Y55.9535
G01 X3.7575 Y55.5090
G01 X3.7629 Y55.5037
G01 X3.7688 Y55.4990
G01 X3.7752 Y55.4949
G01 X4.3009 Y55.1927
G01 X4.3076 Y55.1893
G01 X4.3145 Y55.1866
G01 X4.3216 Y55.1846
G01 X4.9109 Y55.0500
G00 Z2.0000
G00 X5.3622 Y55.7264
G01 F60.00
G01 Z-0.1500
G01 F100.00
G01 X5.8859 Y55.9436
G01 X6.2864 Y56.3441
G01 X6.5036 Y56.8678
G01 X6.5036 Y57.4322
G01 X6.2864 Y57.9559
G01 X5.8859 Y58.3564
G01 X5.3622 Y58.5736
G01 X4.7978 Y58.5736
G01 X4.2741 Y58.3564
G01 X3.8736 Y57.9559
G01 X3.6564 Y57.4322
G01 X3.6564 Y56.8678
G01 X3.8736 Y56.3441
G01 X4.2741 Y55.9436
G01 X4.7978 Y55.7264
G01 X5.3622 Y55.7264
G00 Z2.0000
G00 X28.3814 Y49.7371
G01 F60.00
G01 Z-0.1500
G01 F100.00
G01 X29.0029 Y50.3586
G01 X29.0029 Y51.2414
G01 X28.3814 Y51.8629
G01 X27.4988 Y51.8629
G01 X27.0915 Y51.4532
G01 X27.0860 Y51.4483
G01 X27.0801 Y51.4439
G01 X27.0738 Y51.4400
G01 X27.0671 Y51.4369
G01 X27.0601 Y51.4344
G01 X27.0530 Y51.4326
G01 X27.0457 Y51.4315
G01 X27.0383 Y51.4311
G01 X25.6921 Y51.4311
G01 X25.6847 Y51.4315
G01 X25.6775 Y51.4326
G01 X25.6703 Y51.4344
G01 X25.6634 Y51.4368
G01 X25.6567 Y51.4400
G01 X25.6504 Y51.4438
G01 X25.6445 Y51.4481
G01 X25.6391 Y51.4531
G01 X24.7831 Y52.3091
G01 X24.7781 Y52.3145
G01 X24.7738 Y52.3204
G01 X24.7700 Y52.3267
G01 X24.7668 Y52.3334
G01 X24.7644 Y52.3403
G01 X24.7626 Y52.3475
G01 X24.7615 Y52.3547
G01 X24.7611 Y52.3621
G01 X24.7611 Y55.2298
G01 X24.7615 Y55.2372
G01 X24.7626 Y55.2445
G01 X24.7644 Y55.2517
G01 X24.7669 Y55.2586
G01 X24.7701 Y55.2653
G01 X24.7739 Y55.2717
G01 X24.7784 Y55.2776
G01 X24.7834 Y55.2831
G01 X25.0151 Y55.5125
G01 X25.0151 Y56.2477
G01 X24.4977 Y56.7651
G01 X23.7623 Y56.7651
G01 X23.2449 Y56.2477
G01 X23.2449 Y55.5125
G01 X23.4766 Y55.2831
G01 X23.4816 Y55.2776
G01 X23.4861 Y55.2717
G01 X23.4899 Y55.2653
G01 X23.4931 Y55.2586
G01 X23.4956 Y55.2517
G01 X23.4974 Y55.2445
G01 X23.4985 Y55.2372
G01 X23.4989 Y55.2298
G01 X23.4989 Y51.9451
G01 X23.5942 Y51.7136
G01 X25.0436 Y50.2642
G01 X25.2751 Y50.1689
G01 X27.0383 Y50.1689
G01 X27.0457 Y50.1685
G01 X27.0530 Y50.1674
G01 X27.0601 Y50.1656
G01 X27.0671 Y50.1631
G01 X27.0738 Y50.1600
G01 X27.0801 Y50.1561
G01 X27.0860 Y50.1517
G01 X27.0915 Y50.1468
G01 X27.4988 Y49.7371
G01 X28.3814 Y49.7371
G00 Z2.0000
G00 X28.8312 Y50.3998
G01 F60.00
G01 Z-0.1500
G01 F100.00
G01 X28.8362 Y50.4052
G01 X28.8406 Y50.4111
G01 X28.8443 Y50.4175
G01 X28.8475 Y50.4241
G01 X28.8500 Y50.4310
G01 X28.8518 Y50.4382
G01 X28.8528 Y50.4455
G01 X28.8532 Y50.4528
G01 X28.8532 Y51.1472
G01 X28.8528 Y51.1545
G01 X28.8518 Y51.1618
G01 X28.8500 Y51.1690
G01 X28.8475 Y51.1759
G01 X28.8443 Y51.1825
G01 X28.8406 Y51.1889
G01 X28.8362 Y51.1948
G01 X28.8312 Y51.2002
G01 X28.3402 Y51.6912
G01 X28.3348 Y51.6962
G01 X28.3289 Y51.7006
G01 X28.3225 Y51.7043
G01 X28.3159 Y51.7075
G01 X28.3090 Y51.7100
G01 X28.3018 Y51.7118
G01 X28.2945 Y51.7128
G01 X28.2872 Y51.7132
G01 X27.5928 Y51.7132
G01 X27.5855 Y51.7128
G01 X27.5782 Y51.7118
G01 X27.5710 Y51.7100
G01 X27.5641 Y51.7075
G01 X27.5575 Y51.7043
G01 X27.5511 Y51.7006
G01 X27.5452 Y51.6962
G01 X27.5398 Y51.6912
G01 X27.1301 Y51.2816
G01 X25.5995 Y51.2816
G01 X24.6116 Y52.2695
G01 X24.6116 Y55.3216
G01 X24.8434 Y55.5534
G01 X24.8484 Y55.5589
G01 X24.8528 Y55.5648
G01 X24.8565 Y55.5711
G01 X24.8597 Y55.5778
G01 X24.8622 Y55.5847
G01 X24.8640 Y55.5918
G01 X24.8650 Y55.5991
G01 X24.8654 Y55.6065
G01 X24.8654 Y56.1535
G01 X24.8650 Y56.1609
G01 X24.8640 Y56.1682
G01 X24.8622 Y56.1753
G01 X24.8597 Y56.1822
G01 X24.8565 Y56.1889
G01 X24.8528 Y56.1952
G01 X24.8484 Y56.2011
G01 X24.8434 Y56.2066
G01 X24.4566 Y56.5934
G01 X24.4511 Y56.5984
G01 X24.4452 Y56.6028
G01 X24.4389 Y56.6065
G01 X24.4322 Y56.6097
G01 X24.4253 Y56.6122
G01 X24.4182 Y56.6140
G01 X24.4109 Y56.6150
G01 X24.4035 Y56.6154
G01 X23.8565 Y56.6154
G01 X23.8491 Y56.6150
G01 X23.8418 Y56.6140
G01 X23.8347 Y56.6122
G01 X23.8278 Y56.6097
G01 X23.8211 Y56.6065
G01 X23.8148 Y56.6028
G01 X23.8089 Y56.5984
G01 X23.8034 Y56.5934
G01 X23.4166 Y56.2066
G01 X23.4116 Y56.2011
G01 X23.4072 Y56.1952
G01 X23.4035 Y56.1889
G01 X23.4003 Y56.1822
G01 X23.3978 Y56.1753
G01 X23.3960 Y56.1682
G01 X23.3950 Y56.1609
G01 X23.3946 Y56.1535
G01 X23.3946 Y55.6065
G01 X23.3950 Y55.5991
G01 X23.3960 Y55.5918
G01 X23.3978 Y55.5847
G01 X23.4003 Y55.5778
G01 X23.4035 Y55.5711
G01 X23.4072 Y55.5648
G01 X23.4116 Y55.5589
G01 X23.4166 Y55.5534
G01 X23.6484 Y55.3216
G01 X23.6485 Y52.0663
G01 X23.6504 Y52.0265
G01 X23.6512 Y52.0191
G01 X23.6570 Y51.9797
G01 X23.6585 Y51.9725
G01 X23.6682 Y51.9337
G01 X23.6703 Y51.9267
G01 X23.6837 Y51.8891
G01 X23.6866 Y51.8823
G01 X23.7036 Y51.8463
G01 X23.7071 Y51.8398
G01 X23.7276 Y51.8055
G01 X23.7317 Y51.7994
G01 X23.7555 Y51.7674
G01 X23.7601 Y51.7617
G01 X23.7895 Y51.7295
G01 X25.0621 Y50.4569
G01 X25.0917 Y50.4301
G01 X25.0974 Y50.4255
G01 X25.1294 Y50.4017
G01 X25.1355 Y50.3976
G01 X25.1698 Y50.3771
G01 X25.1763 Y50.3736
G01 X25.2123 Y50.3566
G01 X25.2191 Y50.3537
G01 X25.2567 Y50.3403
G01 X25.2637 Y50.3382
G01 X25.3025 Y50.3285
G01 X25.3097 Y50.3270
G01 X25.3491 Y50.3212
G01 X25.3565 Y50.3204
G01 X25.4000 Y50.3184
G01 X27.1301 Y50.3184
G01 X27.5398 Y49.9088
G01 X27.5452 Y49.9038
G01 X27.5511 Y49.8994
G01 X27.5575 Y49.8957
G01 X27.5641 Y49.8925
G01 X27.5710 Y49.8900
G01 X27.5782 Y49.8882
G01 X27.5855 Y49.8872
G01 X27.5928 Y49.8868
G01 X28.2872 Y49.8868
G01 X28.2945 Y49.8872
G01 X28.3018 Y49.8882
G01 X28.3090 Y49.8900
G01 X28.3159 Y49.8925
G01 X28.3225 Y49.8957
G01 X28.3289 Y49.8994
G01 X28.3348 Y49.9038
G01 X28.3402 Y49.9088
G01 X28.8312 Y50.3998
G00 Z2.0000
G00 X39.0640 Y47.3582
G01 F60.00
G01 Z-0.1500
G01 F100.00
G01 X39.0636 Y47.3656
G01 X39.0626 Y47.3729
G01 X39.0608 Y47.3800
G01 X39.0583 Y47.3869
G01 X39.0551 Y47.3936
G01 X39.0514 Y47.3999
G01 X39.0470 Y47.4058
G01 X39.0420 Y47.4113
G01 X38.5213 Y47.9320
G01 X38.5158 Y47.9370
G01 X38.5099 Y47.9414
G01 X38.5036 Y47.9451
G01 X38.4969 Y47.9483
G01 X38.4900 Y47.9508
G01 X38.4829 Y47.9526
G01 X38.4756 Y47.9536
G01 X38.4682 Y47.9540
G01 X37.7318 Y47.9540
G01 X37.7244 Y47.9536
G01 X37.7171 Y47.9526
G01 X37.7100 Y47.9508
G01 X37.7031 Y47.9483
G01 X37.6964 Y47.9451
G01 X37.6901 Y47.9414
G01 X37.6842 Y47.9370
G01 X37.6787 Y47.9320
G01 X37.2183 Y47.4716
G01 X29.2100 Y47.4716
G01 X29.1665 Y47.4696
G01 X29.1591 Y47.4688
G01 X29.1197 Y47.4630
G01 X29.1125 Y47.4615
G01 X29.0737 Y47.4518
G01 X29.0667 Y47.4497
G01 X29.0291 Y47.4363
G01 X29.0223 Y47.4334
G01 X28.9863 Y47.4164
G01 X28.9798 Y47.4129
G01 X28.9455 Y47.3924
G01 X28.9394 Y47.3883
G01 X28.9074 Y47.3645
G01 X28.9017 Y47.3599
G01 X28.8695 Y47.3305
G01 X20.1205 Y38.5816
G01 X5.0800 Y38.5816
G01 X5.0365 Y38.5796
G01 X5.0291 Y38.5788
G01 X4.9897 Y38.5730
G01 X4.9825 Y38.5715
G01 X4.9437 Y38.5618
G01 X4.9367 Y38.5597
G01 X4.8991 Y38.5463
G01 X4.8923 Y38.5434
G01 X4.8563 Y38.5264
G01 X4.8498 Y38.5229
G01 X4.8155 Y38.5024
G01 X4.8094 Y38.4983
G01 X4.7774 Y38.4745
G01 X4.7717 Y38.4699
G01 X4.7395 Y38.4405
G01 X2.1995 Y35.9005
G01 X2.1701 Y35.8683
G01 X2.1655 Y35.8626
G01 X2.1417 Y35.8306
G01 X2.1376 Y35.8245
G01 X2.1171 Y35.7902
G01 X2.1136 Y35.7837
G01 X2.0966 Y35.7477
G01 X2.0937 Y35.7409
G01 X2.0803 Y35.7033
G01 X2.0782 Y35.6963
G01 X2.0685 Y35.6575
G01 X2.0670 Y35.6503
G01 X2.0612 Y35.6109
G01 X2.0604 Y35.6035
G01 X2.0584 Y35.5600
G01 X2.0584 Y27.9400
G01 X2.0604 Y27.8965
G01 X2.0612 Y27.8891
G01 X2.0670 Y27.8497
G01 X2.0685 Y27.8425
G01 X2.0782 Y27.8037
G01 X2.0803 Y27.7967
G01 X2.0937 Y27.7591
G01 X2.0966 Y27.7523
G01 X2.1136 Y27.7163
G01 X2.1171 Y27.7098
G01 X2.1376 Y27.6755
G01 X2.1417 Y27.6694
G01 X2.1655 Y27.6374
G01 X2.1701 Y27.6317
G01 X2.1995 Y27.5995
G01 X4.7395 Y25.0595
G01 X4.7717 Y25.0301
G01 X4.7774 Y25.0255
G01 X4.8094 Y25.0017
G01 X4.8155 Y24.9976
G01 X4.8498 Y24.9771
G01 X4.8563 Y24.9736
G01 X4.8923 Y24.9566
G01 X4.8991 Y24.9537
G01 X4.9367 Y24.9403
G01 X4.9437 Y24.9382
G01 X4.9825 Y24.9285
G01 X4.9897 Y24.9270
G01 X5.0291 Y24.9212
G01 X5.0365 Y24.9204
G01 X5.0800 Y24.9184
G01 X5.4683 Y24.9184
G01 X5.9287 Y24.4580
G01 X5.9342 Y24.4530
G01 X5.9401 Y24.4486
G01 X5.9464 Y24.4449
G01 X5.9531 Y24.4417
G01 X5.9600 Y24.4392
G01 X5.9671 Y24.4374
G01 X5.9744 Y24.4364
G01 X5.9818 Y24.4360
G01 X6.7182 Y24.4360
G01 X6.7256 Y24.4364
G01 X6.7329 Y24.4374
G01 X6.7400 Y24.4392
G01 X6.7469 Y24.4417
G01 X6.7536 Y24.4449
G01 X6.7599 Y24.4486
G01 X6.7658 Y24.4530
G01 X6.7713 Y24.4580
G01 X7.2920 Y24.9787
G01 X7.2970 Y24.9842
G01 X7.3014 Y24.9901
G01 X7.3051 Y24.9964
G01 X7.3083 Y25.0031
G01 X7.3108 Y25.0100
G01 X7.3126 Y25.0171
G01 X7.3136 Y25.0244
G01 X7.3140 Y25.0318
G01 X7.3140 Y25.7682
G01 X7.3136 Y25.7756
G01 X7.3126 Y25.7829
G01 X7.3108 Y25.7900
G01 X7.3083 Y25.7969
G01 X7.3051 Y25.8036
G01 X7.3014 Y25.8099
G01 X7.2970 Y25.8158
G01 X7.2920 Y25.8213
G01 X6.7713 Y26.3420
G01 X6.7658 Y26.3470
G01 X6.7599 Y26.3514
G01 X6.7536 Y26.3551
G01 X6.7469 Y26.3583
G01 X6.7400 Y26.3608
G01 X6.7329 Y26.3626
G01 X6.7256 Y26.3636
G01 X6.7182 Y26.3640
G01 X5.9818 Y26.3640
G01 X5.9744 Y26.3636
G01 X5.9671 Y26.3626
G01 X5.9600 Y26.3608
G01 X5.9531 Y26.3583
G01 X5.9464 Y26.3551
G01 X5.9401 Y26.3514
G01 X5.9342 Y26.3470
G01 X5.9287 Y26.3420
G01 X5.4683 Y25.8816
G01 X5.2795 Y25.8816
G01 X3.0216 Y28.1395
G01 X3.0216 Y35.3605
G01 X5.2795 Y37.6184
G01 X20.3200 Y37.6184
G01 X20.3635 Y37.6204
G01 X20.3709 Y37.6212
G01 X20.4103 Y37.6270
G01 X20.4175 Y37.6285
G01 X20.4563 Y37.6382
G01 X20.4633 Y37.6403
G01 X20.5009 Y37.6537
G01 X20.5077 Y37.6566
G01 X20.5437 Y37.6736
G01 X20.5502 Y37.6771
G01 X20.5845 Y37.6976
G01 X20.5906 Y37.7017
G01 X20.6226 Y37.7255
G01 X20.6283 Y37.7301
G01 X20.6605 Y37.7595
G01 X29.4095 Y46.5084
G01 X37.2183 Y46.5084
G01 X37.6787 Y46.0480
G01 X37.6842 Y46.0430
G01 X37.6901 Y46.0386
G01 X37.6964 Y46.0349
G01 X37.7031 Y46.0317
G01 X37.7100 Y46.0292
G01 X37.7171 Y46.0274
G01 X37.7244 Y46.0264
G01 X37.7318 Y46.0260
G01 X38.4682 Y46.0260
G01 X38.4756 Y46.0264
G01 X38.4829 Y46.0274
G01 X38.4900 Y46.0292
G01 X38.4969 Y46.0317
G01 X38.5036 Y46.0349
G01 X38.5099 Y46.0386
G01 X38.5158 Y46.0430
G01 X38.5213 Y46.0480
G01 X39.0420 Y46.5687
G01 X39.0470 Y46.5742
G01 X39.0514 Y46.5801
G01 X39.0551 Y46.5864
G01 X39.0583 Y46.5931
G01 X39.0608 Y46.6000
G01 X39.0626 Y46.6071
G01 X39.0636 Y46.6144
G01 X39.0640 Y46.6218
G01 X39.0640 Y47.3582
G00 Z2.0000
G00 X41.1215 Y45.7163
G01 F60.00
G01 Z-0.1500
G01 F100.00
G01 X41.1216 Y54.6100
G01 X41.1196 Y54.6535
G01 X41.1188 Y54.6609
G01 X41.1130 Y54.7003
G01 X41.1115 Y54.7075
G01 X41.1018 Y54.7463
G01 X41.0997 Y54.7533
G01 X41.0863 Y54.7909
G01 X41.0834 Y54.7977
G01 X41.0664 Y54.8337
G01 X41.0629 Y54.8402
G01 X41.0424 Y54.8745
G01 X41.0383 Y54.8806
G01 X41.0145 Y54.9126
G01 X41.0099 Y54.9183
G01 X40.9805 Y54.9505
G01 X39.7079 Y56.2231
G01 X39.6783 Y56.2499
G01 X39.6726 Y56.2545
G01 X39.6406 Y56.2783
G01 X39.6345 Y56.2824
G01 X39.6002 Y56.3029
G01 X39.5937 Y56.3064
G01 X39.5577 Y56.3234
G01 X39.5509 Y56.3263
G01 X39.5133 Y56.3397
G01 X39.5063 Y56.3418
G01 X39.4675 Y56.3515
G01 X39.4603 Y56.3530
G01 X39.4209 Y56.3588
G01 X39.4135 Y56.3596
G01 X39.3700 Y56.3616
G01 X34.8484 Y56.3616
G01 X34.6166 Y56.5934
G01 X34.6111 Y56.5984
G01 X34.6052 Y56.6028
G01 X34.5989 Y56.6065
G01 X34.5922 Y56.6097
G01 X34.5853 Y56.6122
G01 X34.5782 Y56.6140
G01 X34.5709 Y56.6150
G01 X34.5635 Y56.6154
G01 X34.0165 Y56.6154
G01 X34.0091 Y56.6150
G01 X34.0018 Y56.6140
G01 X33.9947 Y56.6122
G01 X33.9878 Y56.6097
G01 X33.9811 Y56.6065
G01 X33.9748 Y56.6028
G01 X33.9689 Y56.5984
G01 X33.9634 Y56.5934
G01 X33.5766 Y56.2066
G01 X33.5716 Y56.2011
G01 X33.5672 Y56.1952
G01 X33.5635 Y56.1889
G01 X33.5603 Y56.1822
G01 X33.5578 Y56.1753
G01 X33.5560 Y56.1682
G01 X33.5550 Y56.1609
G01 X33.5546 Y56.1535
G01 X33.5546 Y55.6065
G01 X33.5550 Y55.5991
G01 X33.5560 Y55.5918
G01 X33.5578 Y55.5847
G01 X33.5603 Y55.5778
G01 X33.5635 Y55.5711
G01 X33.5672 Y55.5648
G01 X33.5716 Y55.5589
G01 X33.5766 Y55.5534
G01 X33.9634 Y55.1666
G01 X33.9689 Y55.1616
G01 X33.9748 Y55.1572
G01 X33.9811 Y55.1535
G01 X33.9878 Y55.1503
G01 X33.9947 Y55.1478
G01 X34.0018 Y55.1460
G01 X34.0091 Y55.1450
G01 X34.0165 Y55.1446
G01 X34.5635 Y55.1446
G01 X34.5709 Y55.1450
G01 X34.5782 Y55.1460
G01 X34.5853 Y55.1478
G01 X34.5922 Y55.1503
G01 X34.5989 Y55.1535
G01 X34.6052 Y55.1572
G01 X34.6111 Y55.1616
G01 X34.6166 Y55.1666
G01 X34.8484 Y55.3984
G01 X39.1705 Y55.3984
G01 X40.1584 Y54.4105
G01 X40.1584 Y45.9195
G01 X39.1705 Y44.9316
G01 X38.9817 Y44.9316
G01 X38.5213 Y45.3920
G01 X38.5158 Y45.3970
G01 X38.5099 Y45.4014
G01 X38.5036 Y45.4051
G01 X38.4969 Y45.4083
G01 X38.4900 Y45.4108
G01 X38.4829 Y45.4126
G01 X38.4756 Y45.4136
G01 X38.4682 Y45.4140
G01 X37.7318 Y45.4140
G01 X37.7244 Y45.4136
G01 X37.7171 Y45.4126
G01 X37.7100 Y45.4108
G01 X37.7031 Y45.4083
G01 X37.6964 Y45.4051
G01 X37.6901 Y45.4014
G01 X37.6842 Y45.3970
G01 X37.6787 Y45.3920
G01 X37.1580 Y44.8713
G01 X37.1530 Y44.8658
G01 X37.1486 Y44.8599
G01 X37.1449 Y44.8536
G01 X37.1417 Y44.8469
G01 X37.1392 Y44.8400
G01 X37.1374 Y44.8329
G01 X37.1364 Y44.8256
G01 X37.1360 Y44.8182
G01 X37.1360 Y44.0818
G01 X37.1364 Y44.0744
G01 X37.1374 Y44.0671
G01 X37.1392 Y44.0600
G01 X37.1417 Y44.0531
G01 X37.1449 Y44.0464
G01 X37.1486 Y44.0401
G01 X37.1530 Y44.0342
G01 X37.1580 Y44.0287
G01 X37.6787 Y43.5080
G01 X37.6842 Y43.5030
G01 X37.6901 Y43.4986
G01 X37.6964 Y43.4949
G01 X37.7031 Y43.4917
G01 X37.7100 Y43.4892
G01 X37.7171 Y43.4874
G01 X37.7244 Y43.4864
G01 X37.7318 Y43.4860
G01 X38.4682 Y43.4860
G01 X38.4756 Y43.4864
G01 X38.4829 Y43.4874
G01 X38.4900 Y43.4892
G01 X38.4969 Y43.4917
G01 X38.5036 Y43.4949
G01 X38.5099 Y43.4986
G01 X38.5158 Y43.5030
G01 X38.5213 Y43.5080
G01 X38.9817 Y43.9684
G01 X39.3700 Y43.9684
G01 X39.4135 Y43.9704
G01 X39.4209 Y43.9712
G01 X39.4603 Y43.9770
G01 X39.4675 Y43.9785
G01 X39.5063 Y43.9882
G01 X39.5133 Y43.9903
G01 X39.5509 Y44.0037
G01 X39.5577 Y44.0066
G01 X39.5937 Y44.0236
G01 X39.6002 Y44.0271
G01 X39.6345 Y44.0476
G01 X39.6406 Y44.0517
G01 X39.6726 Y44.0755
G01 X39.6783 Y44.0801
G01 X39.7105 Y44.1095
G01 X40.9805 Y45.3795
G01 X41.0099 Y45.4117
G01 X41.0145 Y45.4174
G01 X41.0383 Y45.4494
G01 X41.0424 Y45.4555
G01 X41.0629 Y45.4898
G01 X41.0664 Y45.4963
G01 X41.0834 Y45.5323
G01 X41.0863 Y45.5391
G01 X41.0997 Y45.5767
G01 X41.1018 Y45.5837
G01 X41.1115 Y45.6225
G01 X41.1130 Y45.6297
G01 X41.1188 Y45.6691
G01 X41.1196 Y45.6765
G01 X41.1215 Y45.7163
G00 Z2.0000
G00 X38.5617 Y43.3363
G01 F60.00
G01 Z-0.1500
G01 F100.00
G01 X39.0223 Y43.7969
G01 X39.0278 Y43.8019
G01 X39.0337 Y43.8062
G01 X39.0400 Y43.8100
G01 X39.0467 Y43.8132
G01 X39.0536 Y43.8156
G01 X39.0607 Y43.8174
G01 X39.0680 Y43.8185
G01 X39.0754 Y43.8189
G01 X39.4949 Y43.8189
G01 X39.7264 Y43.9142
G01 X41.1758 Y45.3636
G01 X41.2711 Y45.5951
G01 X41.2711 Y54.7349
G01 X41.1758 Y54.9664
G01 X39.7264 Y56.4158
G01 X39.4949 Y56.5111
G01 X34.9402 Y56.5111
G01 X34.9328 Y56.5115
G01 X34.9255 Y56.5126
G01 X34.9183 Y56.5144
G01 X34.9114 Y56.5169
G01 X34.9047 Y56.5201
G01 X34.8983 Y56.5239
G01 X34.8924 Y56.5284
G01 X34.8869 Y56.5334
G01 X34.6575 Y56.7651
G01 X33.9223 Y56.7651
G01 X33.4049 Y56.2477
G01 X33.4049 Y55.5123
G01 X33.9223 Y54.9949
G01 X34.6575 Y54.9949
G01 X34.8869 Y55.2266
G01 X34.8924 Y55.2316
G01 X34.8983 Y55.2361
G01 X34.9047 Y55.2399
G01 X34.9114 Y55.2431
G01 X34.9183 Y55.2456
G01 X34.9255 Y55.2474
G01 X34.9328 Y55.2485
G01 X34.9402 Y55.2489
G01 X39.0779 Y55.2489
G01 X39.0853 Y55.2485
G01 X39.0925 Y55.2474
G01 X39.0997 Y55.2456
G01 X39.1066 Y55.2432
G01 X39.1133 Y55.2400
G01 X39.1196 Y55.2362
G01 X39.1255 Y55.2319
G01 X39.1309 Y55.2269
G01 X39.9869 Y54.3709
G01 X39.9919 Y54.3655
G01 X39.9962 Y54.3596
G01 X40.0000 Y54.3533
G01 X40.0032 Y54.3466
G01 X40.0056 Y54.3397
G01 X40.0074 Y54.3325
G01 X40.0085 Y54.3253
G01 X40.0089 Y54.3179
G01 X40.0089 Y46.0121
G01 X40.0085 Y46.0047
G01 X40.0074 Y45.9975
G01 X40.0056 Y45.9903
G01 X40.0032 Y45.9834
G01 X40.0000 Y45.9767
G01 X39.9962 Y45.9704
G01 X39.9919 Y45.9645
G01 X39.9869 Y45.9591
G01 X39.1309 Y45.1031
G01 X39.1255 Y45.0981
G01 X39.1196 Y45.0938
G01 X39.1133 Y45.0900
G01 X39.1066 Y45.0868
G01 X39.0997 Y45.0844
G01 X39.0925 Y45.0826
G01 X39.0853 Y45.0815
G01 X39.0779 Y45.0811
G01 X39.0680 Y45.0815
G01 X39.0607 Y45.0826
G01 X39.0536 Y45.0844
G01 X39.0467 Y45.0868
G01 X39.0400 Y45.0900
G01 X39.0337 Y45.0938
G01 X39.0278 Y45.0981
G01 X39.0223 Y45.1031
G01 X38.5617 Y45.5637
G01 X37.6383 Y45.5637
G01 X36.9863 Y44.9117
G01 X36.9863 Y43.9883
G01 X37.6383 Y43.3363
G01 X38.5617 Y43.3363
G00 Z2.0000
G00 X39.0640 Y42.2782
G01 F60.00
G01 Z-0.1500
G01 F100.00
G01 X39.0636 Y42.2856
G01 X39.0626 Y42.2929
G01 X39.0608 Y42.3000
G01 X39.0583 Y42.3069
G01 X39.0551 Y42.3136
G01 X39.0514 Y42.3199
G01 X39.0470 Y42.3258
G01 X39.0420 Y42.3313
G01 X38.5213 Y42.8520
G01 X38.5158 Y42.8570
G01 X38.5099 Y42.8614
G01 X38.5036 Y42.8651
G01 X38.4969 Y42.8683
G01 X38.4900 Y42.8708
G01 X38.4829 Y42.8726
G01 X38.4756 Y42.8736
G01 X38.4682 Y42.8740
G01 X37.7318 Y42.8740
G01 X37.7244 Y42.8736
G01 X37.7171 Y42.8726
G01 X37.7100 Y42.8708
G01 X37.7031 Y42.8683
G01 X37.6964 Y42.8651
G01 X37.6901 Y42.8614
G01 X37.6842 Y42.8570
G01 X37.6787 Y42.8520
G01 X37.2183 Y42.3916
G01 X27.9400 Y42.3916
G01 X27.8965 Y42.3896
G01 X27.8891 Y42.3888
G01 X27.8497 Y42.3830
G01 X27.8425 Y42.3815
G01 X27.8037 Y42.3718
G01 X27.7967 Y42.3697
G01 X27.7591 Y42.3563
G01 X27.7523 Y42.3534
G01 X27.7163 Y42.3364
G01 X27.7098 Y42.3329
G01 X27.6755 Y42.3124
G01 X27.6694 Y42.3083
G01 X27.6374 Y42.2845
G01 X27.6317 Y42.2799
G01 X27.5995 Y42.2505
G01 X19.9795 Y34.6305
G01 X19.9501 Y34.5983
G01 X19.9455 Y34.5926
G01 X19.9217 Y34.5606
G01 X19.9176 Y34.5545
G01 X19.8971 Y34.5202
G01 X19.8936 Y34.5137
G01 X19.8766 Y34.4777
G01 X19.8737 Y34.4709
G01 X19.8603 Y34.4333
G01 X19.8582 Y34.4263
G01 X19.8485 Y34.3875
G01 X19.8470 Y34.3803
G01 X19.8412 Y34.3409
G01 X19.8404 Y34.3335
G01 X19.8384 Y34.2900
G01 X19.8384 Y30.6795
G01 X17.5805 Y28.4216
G01 X7.2317 Y28.4216
G01 X6.7713 Y28.8820
G01 X6.7658 Y28.8870
G01 X6.7599 Y28.8914
G01 X6.7536 Y28.8951
G01 X6.7469 Y28.8983
G01 X6.7400 Y28.9008
G01 X6.7329 Y28.9026
G01 X6.7256 Y28.9036
G01 X6.7182 Y28.9040
G01 X5.9818 Y28.9040
G01 X5.9744 Y28.9036
G01 X5.9671 Y28.9026
G01 X5.9600 Y28.9008
G01 X5.9531 Y28.8983
G01 X5.9464 Y28.8951
G01 X5.9401 Y28.8914
G01 X5.9342 Y28.8870
G01 X5.9287 Y28.8820
G01 X5.4080 Y28.3613
G01 X5.4030 Y28.3558
G01 X5.3986 Y28.3499
G01 X5.3949 Y28.3436
G01 X5.3917 Y28.3369
G01 X5.3892 Y28.3300
G01 X5.3874 Y28.3229
G01 X5.3864 Y28.3156
G01 X5.3860 Y28.3082
G01 X5.3860 Y27.5718
G01 X5.3864 Y27.5644
G01 X5.3874 Y27.5571
G01 X5.3892 Y27.5500
G01 X5.3917 Y27.5431
G01 X5.3949 Y27.5364
G01 X5.3986 Y27.5301
G01 X5.4030 Y27.5242
G01 X5.4080 Y27.5187
G01 X5.9287 Y26.9980
G01 X5.9342 Y26.9930
G01 X5.9401 Y26.9886
G01 X5.9464 Y26.9849
G01 X5.9531 Y26.9817
G01 X5.9600 Y26.9792
G01 X5.9671 Y26.9774
G01 X5.9744 Y26.9764
G01 X5.9818 Y26.9760
G01 X6.7182 Y26.9760
G01 X6.7256 Y26.9764
G01 X6.7329 Y26.9774
G01 X6.7400 Y26.9792
G01 X6.7469 Y26.9817
G01 X6.7536 Y26.9849
G01 X6.7599 Y26.9886
G01 X6.7658 Y26.9930
G01 X6.7713 Y26.9980
G01 X7.2317 Y27.4584
G01 X17.7800 Y27.4584
G01 X17.8235 Y27.4604
G01 X17.8309 Y27.4612
G01 X17.8703 Y27.4670
G01 X17.8775 Y27.4685
G01 X17.9163 Y27.4782
G01 X17.9233 Y27.4803
G01 X17.9609 Y27.4937
G01 X17.9677 Y27.4966
G01 X18.0037 Y27.5136
G01 X18.0102 Y27.5171
G01 X18.0445 Y27.5376
G01 X18.0506 Y27.5417
G01 X18.0826 Y27.5655
G01 X18.0883 Y27.5701
G01 X18.1205 Y27.5995
G01 X20.6605 Y30.1395
G01 X20.6899 Y30.1717
G01 X20.6945 Y30.1774
G01 X20.7183 Y30.2094
G01 X20.7224 Y30.2155
G01 X20.7429 Y30.2498
G01 X20.7464 Y30.2563
G01 X20.7634 Y30.2923
G01 X20.7663 Y30.2991
G01 X20.7797 Y30.3367
G01 X20.7818 Y30.3437
G01 X20.7915 Y30.3825
G01 X20.7930 Y30.3897
G01 X20.7988 Y30.4291
G01 X20.7996 Y30.4365
G01 X20.8016 Y30.4800
G01 X20.8016 Y34.0905
G01 X28.1395 Y41.4284
G01 X37.2183 Y41.4284
G01 X37.6787 Y40.9680
G01 X37.6842 Y40.9630
G01 X37.6901 Y40.9586
G01 X37.6964 Y40.9549
G01 X37.7031 Y40.9517
G01 X37.7100 Y40.9492
G01 X37.7171 Y40.9474
G01 X37.7244 Y40.9464
G01 X37.7318 Y40.9460
G01 X38.4682 Y40.9460
G01 X38.4756 Y40.9464
G01 X38.4829 Y40.9474
G01 X38.4900 Y40.9492
G01 X38.4969 Y40.9517
G01 X38.5036 Y40.9549
G01 X38.5099 Y40.9586
G01 X38.5158 Y40.9630
G01 X38.5213 Y40.9680
G01 X39.0420 Y41.4887
G01 X39.0470 Y41.4942
G01 X39.0514 Y41.5001
G01 X39.0551 Y41.5064
G01 X39.0583 Y41.5131
G01 X39.0608 Y41.5200
G01 X39.0626 Y41.5271
G01 X39.0636 Y41.5344
G01 X39.0640 Y41.5418
G01 X39.0640 Y42.2782
G00 Z2.0000
G00 X39.0640 Y39.7382
G01 F60.00
G01 Z-0.1500
G01 F100.00
G01 X39.0636 Y39.7456
G01 X39.0626 Y39.7529
G01 X39.0608 Y39.7600
G01 X39.0583 Y39.7669
G01 X39.0551 Y39.7736
G01 X39.0514 Y39.7799
G01 X39.0470 Y39.7858
G01 X39.0420 Y39.7913
G01 X38.5213 Y40.3120
G01 X38.5158 Y40.3170
G01 X38.5099 Y40.3214
G01 X38.5036 Y40.3251
G01 X38.4969 Y40.3283
G01 X38.4900 Y40.3308
G01 X38.4829 Y40.3326
G01 X38.4756 Y40.3336
G01 X38.4682 Y40.3340
G01 X37.7318 Y40.3340
G01 X37.7244 Y40.3336
G01 X37.7171 Y40.3326
G01 X37.7100 Y40.3308
G01 X37.7031 Y40.3283
G01 X37.6964 Y40.3251
G01 X37.6901 Y40.3214
G01 X37.6842 Y40.3170
G01 X37.6787 Y40.3120
G01 X37.1580 Y39.7913
G01 X37.1530 Y39.7858
G01 X37.1486 Y39.7799
G01 X37.1449 Y39.7736
G01 X37.1417 Y39.7669
G01 X37.1392 Y39.7600
G01 X37.1374 Y39.7529
G01 X37.1364 Y39.7456
G01 X37.1360 Y39.7382
G01 X37.1360 Y39.0018
G01 X37.1364 Y38.9944
G01 X37.1374 Y38.9871
G01 X37.1392 Y38.9800
G01 X37.1417 Y38.9731
G01 X37.1449 Y38.9664
G01 X37.1486 Y38.9601
G01 X37.1530 Y38.9542
G01 X37.1580 Y38.9487
G01 X37.6787 Y38.4280
G01 X37.6842 Y38.4230
G01 X37.6901 Y38.4186
G01 X37.6964 Y38.4149
G01 X37.7031 Y38.4117
G01 X37.7100 Y38.4092
G01 X37.7171 Y38.4074
G01 X37.7244 Y38.4064
G01 X37.7318 Y38.4060
G01 X38.4682 Y38.4060
G01 X38.4756 Y38.4064
G01 X38.4829 Y38.4074
G01 X38.4900 Y38.4092
G01 X38.4969 Y38.4117
G01 X38.5036 Y38.4149
G01 X38.5099 Y38.4186
G01 X38.5158 Y38.4230
G01 X38.5213 Y38.4280
G01 X39.0420 Y38.9487
G01 X39.0470 Y38.9542
G01 X39.0514 Y38.9601
G01 X39.0551 Y38.9664
G01 X39.0583 Y38.9731
G01 X39.0608 Y38.9800
G01 X39.0626 Y38.9871
G01 X39.0636 Y38.9944
G01 X39.0640 Y39.0018
G01 X39.0640 Y39.7382
G00 Z2.0000
G00 X38.5617 Y38.2563
G01 F60.00
G01 Z-0.1500
G01 F100.00
G01 X39.2137 Y38.9083
G01 X39.2137 Y39.8317
G01 X38.5617 Y40.4837
G01 X37.6383 Y40.4837
G01 X36.9863 Y39.8317
G01 X36.9863 Y38.9083
G01 X37.6383 Y38.2563
G01 X38.5617 Y38.2563
G00 Z2.0000
G00 X39.0640 Y37.1982
G01 F60.00
G01 Z-0.1500
G01 F100.00
G01 X39.0636 Y37.2056
G01 X39.0626 Y37.2129
G01 X39.0608 Y37.2200
G01 X39.0583 Y37.2269
G01 X39.0551 Y37.2336
G01 X39.0514 Y37.2399
G01 X39.0470 Y37.2458
G01 X39.0420 Y37.2513
G01 X38.5213 Y37.7720
G01 X38.5158 Y37.7770
G01 X38.5099 Y37.7814
G01 X38.5036 Y37.7851
G01 X38.4969 Y37.7883
G01 X38.4900 Y37.7908
G01 X38.4829 Y37.7926
G01 X38.4756 Y37.7936
G01 X38.4682 Y37.7940
G01 X37.7318 Y37.7940
G01 X37.7244 Y37.7936
G01 X37.7171 Y37.7926
G01 X37.7100 Y37.7908
G01 X37.7031 Y37.7883
G01 X37.6964 Y37.7851
G01 X37.6901 Y37.7814
G01 X37.6842 Y37.7770
G01 X37.6787 Y37.7720
G01 X37.1580 Y37.2513
G01 X37.1530 Y37.2458
G01 X37.1486 Y37.2399
G01 X37.1449 Y37.2336
G01 X37.1417 Y37.2269
G01 X37.1392 Y37.2200
G01 X37.1374 Y37.2129
G01 X37.1364 Y37.2056
G01 X37.1360 Y37.1982
G01 X37.1360 Y36.4618
G01 X37.1364 Y36.4544
G01 X37.1374 Y36.4471
G01 X37.1392 Y36.4400
G01 X37.1417 Y36.4331
G01 X37.1449 Y36.4264
G01 X37.1486 Y36.4201
G01 X37.1530 Y36.4142
G01 X37.1580 Y36.4087
G01 X37.6787 Y35.8880
G01 X37.6842 Y35.8830
G01 X37.6901 Y35.8786
G01 X37.6964 Y35.8749
G01 X37.7031 Y35.8717
G01 X37.7100 Y35.8692
G01 X37.7171 Y35.8674
G01 X37.7244 Y35.8664
G01 X37.7318 Y35.8660
G01 X38.4682 Y35.8660
G01 X38.4756 Y35.8664
G01 X38.4829 Y35.8674
G01 X38.4900 Y35.8692
G01 X38.4969 Y35.8717
G01 X38.5036 Y35.8749
G01 X38.5099 Y35.8786
G01 X38.5158 Y35.8830
G01 X38.5213 Y35.8880
G01 X39.0420 Y36.4087
G01 X39.0470 Y36.4142
G01 X39.0514 Y36.4201
G01 X39.0551 Y36.4264
G01 X39.0583 Y36.4331
G01 X39.0608 Y36.4400
G01 X39.0626 Y36.4471
G01 X39.0636 Y36.4544
G01 X39.0640 Y36.4618
G01 X39.0640 Y37.1982
G00 Z2.0000
G00 X38.5617 Y35.7163
G01 F60.00
G01 Z-0.1500
G01 F100.00
G01 X39.2137 Y36.3683
G01 X39.2137 Y37.2917
G01 X38.5617 Y37.9437
G01 X37.6383 Y37.9437
G01 X36.9863 Y37.2917
G01 X36.9863 Y36.3683
G01 X37.6383 Y35.7163
G01 X38.5617 Y35.7163
G00 Z2.0000
G00 X39.0640 Y29.5782
G01 F60.00
G01 Z-0.1500
G01 F100.00
G01 X39.0636 Y29.5856
G01 X39.0626 Y29.5929
G01 X39.0608 Y29.6000
G01 X39.0583 Y29.6069
G01 X39.0551 Y29.6136
G01 X39.0514 Y29.6199
G01 X39.0470 Y29.6258
G01 X39.0420 Y29.6313
G01 X38.5213 Y30.1520
G01 X38.5158 Y30.1570
G01 X38.5099 Y30.1614
G01 X38.5036 Y30.1651
G01 X38.4969 Y30.1683
G01 X38.4900 Y30.1708
G01 X38.4829 Y30.1726
G01 X38.4756 Y30.1736
G01 X38.4682 Y30.1740
G01 X37.7318 Y30.1740
G01 X37.7244 Y30.1736
G01 X37.7171 Y30.1726
G01 X37.7100 Y30.1708
G01 X37.7031 Y30.1683
G01 X37.6964 Y30.1651
G01 X37.6901 Y30.1614
G01 X37.6842 Y30.1570
G01 X37.6787 Y30.1520
G01 X37.2183 Y29.6916
G01 X35.5600 Y29.6916
G01 X35.5165 Y29.6896
G01 X35.5091 Y29.6888
G01 X35.4697 Y29.6830
G01 X35.4625 Y29.6815
G01 X35.4237 Y29.6718
G01 X35.4167 Y29.6697
G01 X35.3791 Y29.6563
G01 X35.3723 Y29.6534
G01 X35.3363 Y29.6364
G01 X35.3298 Y29.6329
G01 X35.2955 Y29.6124
G01 X35.2894 Y29.6083
G01 X35.2574 Y29.5845
G01 X35.2517 Y29.5799
G01 X35.2221 Y29.5531
G01 X34.0905 Y28.4216
G01 X32.6317 Y28.4216
G01 X32.1713 Y28.8820
G01 X32.1658 Y28.8870
G01 X32.1599 Y28.8914
G01 X32.1536 Y28.8951
G01 X32.1469 Y28.8983
G01 X32.1400 Y28.9008
G01 X32.1329 Y28.9026
G01 X32.1256 Y28.9036
G01 X32.1182 Y28.9040
G01 X31.3818 Y28.9040
G01 X31.3744 Y28.9036
G01 X31.3671 Y28.9026
G01 X31.3600 Y28.9008
G01 X31.3531 Y28.8983
G01 X31.3464 Y28.8951
G01 X31.3401 Y28.8914
G01 X31.3342 Y28.8870
G01 X31.3287 Y28.8820
G01 X30.8080 Y28.3613
G01 X30.8030 Y28.3558
G01 X30.7986 Y28.3499
G01 X30.7949 Y28.3436
G01 X30.7917 Y28.3369
G01 X30.7892 Y28.3300
G01 X30.7874 Y28.3229
G01 X30.7864 Y28.3156
G01 X30.7860 Y28.3082
G01 X30.7860 Y27.5718
G01 X30.7864 Y27.5644
G01 X30.7874 Y27.5571
G01 X30.7892 Y27.5500
G01 X30.7917 Y27.5431
G01 X30.7949 Y27.5364
G01 X30.7986 Y27.5301
G01 X30.8030 Y27.5242
G01 X30.8080 Y27.5187
G01 X31.3287 Y26.9980
G01 X31.3342 Y26.9930
G01 X31.3401 Y26.9886
G01 X31.3464 Y26.9849
G01 X31.3531 Y26.9817
G01 X31.3600 Y26.9792
G01 X31.3671 Y26.9774
G01 X31.3744 Y26.9764
G01 X31.3818 Y26.9760
G01 X32.1182 Y26.9760
G01 X32.1256 Y26.9764
G01 X32.1329 Y26.9774
G01 X32.1400 Y26.9792
G01 X32.1469 Y26.9817
G01 X32.1536 Y26.9849
G01 X32.1599 Y26.9886
G01 X32.1658 Y26.9930
G01 X32.1713 Y26.9980
G01 X32.6317 Y27.4584
G01 X34.2900 Y27.4584
G01 X34.3335 Y27.4604
G01 X34.3409 Y27.4612
G01 X34.3803 Y27.4670
G01 X34.3875 Y27.4685
G01 X34.4263 Y27.4782
G01 X34.4333 Y27.4803
G01 X34.4709 Y27.4937
G01 X34.4777 Y27.4966
G01 X34.5137 Y27.5136
G01 X34.5202 Y27.5171
G01 X34.5545 Y27.5376
G01 X34.5606 Y27.5417
G01 X34.5926 Y27.5655
G01 X34.5983 Y27.5701
G01 X34.6279 Y27.5969
G01 X35.7595 Y28.7284
G01 X37.2183 Y28.7284
G01 X37.6787 Y28.2680
G01 X37.6842 Y28.2630
G01 X37.6901 Y28.2586
G01 X37.6964 Y28.2549
G01 X37.7031 Y28.2517
G01 X37.7100 Y28.2492
G01 X37.7171 Y28.2474
G01 X37.7244 Y28.2464
G01 X37.7318 Y28.2460
G01 X38.4682 Y28.2460
G01 X38.4756 Y28.2464
G01 X38.4829 Y28.2474
G01 X38.4900 Y28.2492
G01 X38.4969 Y28.2517
G01 X38.5036 Y28.2549
G01 X38.5099 Y28.2586
G01 X38.5158 Y28.2630
G01 X38.5213 Y28.2680
G01 X39.0420 Y28.7887
G01 X39.0470 Y28.7942
G01 X39.0514 Y28.8001
G01 X39.0551 Y28.8064
G01 X39.0583 Y28.8131
G01 X39.0608 Y28.8200
G01 X39.0626 Y28.8271
G01 X39.0636 Y28.8344
G01 X39.0640 Y28.8418
G01 X39.0640 Y29.5782
G00 Z2.0000
G00 X39.0640 Y27.0382
G01 F60.00
G01 Z-0.1500
G01 F100.00
G01 X39.0636 Y27.0456
G01 X39.0626 Y27.0529
G01 X39.0608 Y27.0600
G01 X39.0583 Y27.0669
G01 X39.0551 Y27.0736
G01 X39.0514 Y27.0799
G01 X39.0470 Y27.0858
G01 X39.0420 Y27.0913
G01 X38.5213 Y27.6120
G01 X38.5158 Y27.6170
G01 X38.5099 Y27.6214
G01 X38.5036 Y27.6251
G01 X38.4969 Y27.6283
G01 X38.4900 Y27.6308
G01 X38.4829 Y27.6326
G01 X38.4756 Y27.6336
G01 X38.4682 Y27.6340
G01 X37.7318 Y27.6340
G01 X37.7244 Y27.6336
G01 X37.7171 Y27.6326
G01 X37.7100 Y27.6308
G01 X37.7031 Y27.6283
G01 X37.6964 Y27.6251
G01 X37.6901 Y27.6214
G01 X37.6842 Y27.6170
G01 X37.6787 Y27.6120
G01 X37.2183 Y27.1516
G01 X35.5600 Y27.1516
G01 X35.5165 Y27.1496
G01 X35.5091 Y27.1488
G01 X35.4697 Y27.1430
G01 X35.4625 Y27.1415
G01 X35.4237 Y27.1318
G01 X35.4167 Y27.1297
G01 X35.3791 Y27.1163
G01 X35.3723 Y27.1134
G01 X35.3363 Y27.0964
G01 X35.3298 Y27.0929
G01 X35.2955 Y27.0724
G01 X35.2894 Y27.0683
G01 X35.2574 Y27.0445
G01 X35.2517 Y27.0399
G01 X35.2221 Y27.0131
G01 X34.0905 Y25.8816
G01 X32.6317 Y25.8816
G01 X32.1713 Y26.3420
G01 X32.1658 Y26.3470
G01 X32.1599 Y26.3514
G01 X32.1536 Y26.3551
G01 X32.1469 Y26.3583
G01 X32.1400 Y26.3608
G01 X32.1329 Y26.3626
G01 X32.1256 Y26.3636
G01 X32.1182 Y26.3640
G01 X31.3818 Y26.3640
G01 X31.3744 Y26.3636
G01 X31.3671 Y26.3626
G01 X31.3600 Y26.3608
G01 X31.3531 Y26.3583
G01 X31.3464 Y26.3551
G01 X31.3401 Y26.3514
G01 X31.3342 Y26.3470
G01 X31.3287 Y26.3420
G01 X30.8080 Y25.8213
G01 X30.8030 Y25.8158
G01 X30.7986 Y25.8099
G01 X30.7949 Y25.8036
G01 X30.7917 Y25.7969
G01 X30.7892 Y25.7900
G01 X30.7874 Y25.7829
G01 X30.7864 Y25.7756
G01 X30.7860 Y25.7682
G01 X30.7860 Y25.0318
G01 X30.7864 Y25.0244
G01 X30.7874 Y25.0171
G01 X30.7892 Y25.0100
G01 X30.7917 Y25.0031
G01 X30.7949 Y24.9964
G01 X30.7986 Y24.9901
G01 X30.8030 Y24.9842
G01 X30.8080 Y24.9787
G01 X31.3287 Y24.4580
G01 X31.3342 Y24.4530
G01 X31.3401 Y24.4486
G01 X31.3464 Y24.4449
G01 X31.3531 Y24.4417
G01 X31.3600 Y24.4392
G01 X31.3671 Y24.4374
G01 X31.3744 Y24.4364
G01 X31.3818 Y24.4360
G01 X32.1182 Y24.4360
G01 X32.1256 Y24.4364
G01 X32.1329 Y24.4374
G01 X32.1400 Y24.4392
G01 X32.1469 Y24.4417
G01 X32.1536 Y24.4449
G01 X32.1599 Y24.4486
G01 X32.1658 Y24.4530
G01 X32.1713 Y24.4580
G01 X32.6317 Y24.9184
G01 X34.2900 Y24.9184
G01 X34.3335 Y24.9204
G01 X34.3409 Y24.9212
G01 X34.3803 Y24.9270
G01 X34.3875 Y24.9285
G01 X34.4263 Y24.9382
G01 X34.4333 Y24.9403
G01 X34.4709 Y24.9537
G01 X34.4777 Y24.9566
G01 X34.5137 Y24.9736
G01 X34.5202 Y24.9771
G01 X34.5545 Y24.9976
G01 X34.5606 Y25.0017
G01 X34.5926 Y25.0255
G01 X34.5983 Y25.0301
G01 X34.6279 Y25.0569
G01 X35.7595 Y26.1884
G01 X37.2183 Y26.1884
G01 X37.6787 Y25.7280
G01 X37.6842 Y25.7230
G01 X37.6901 Y25.7186
G01 X37.6964 Y25.7149
G01 X37.7031 Y25.7117
G01 X37.7100 Y25.7092
G01 X37.7171 Y25.7074
G01 X37.7244 Y25.7064
G01 X37.7318 Y25.7060
G01 X38.4682 Y25.7060
G01 X38.4756 Y25.7064
G01 X38.4829 Y25.7074
G01 X38.4900 Y25.7092
G01 X38.4969 Y25.7117
G01 X38.5036 Y25.7149
G01 X38.5099 Y25.7186
G01 X38.5158 Y25.7230
G01 X38.5213 Y25.7280
G01 X39.0420 Y26.2487
G01 X39.0470 Y26.2542
G01 X39.0514 Y26.2601
G01 X39.0551 Y26.2664
G01 X39.0583 Y26.2731
G01 X39.0608 Y26.2800
G01 X39.0626 Y26.2871
G01 X39.0636 Y26.2944
G01 X39.0640 Y26.3018
G01 X39.0640 Y27.0382
G00 Z2.0000
G00 X39.0640 Y24.4982
G01 F60.00
G01 Z-0.1500
G01 F100.00
G01 X39.0636 Y24.5056
G01 X39.0626 Y24.5129
G01 X39.0608 Y24.5200
G01 X39.0583 Y24.5269
G01 X39.0551 Y24.5336
G01 X39.0514 Y24.5399
G01 X39.0470 Y24.5458
G01 X39.0420 Y24.5513
G01 X38.5213 Y25.0720
G01 X38.5158 Y25.0770
G01 X38.5099 Y25.0814
G01 X38.5036 Y25.0851
G01 X38.4969 Y25.0883
G01 X38.4900 Y25.0908
G01 X38.4829 Y25.0926
G01 X38.4756 Y25.0936
G01 X38.4682 Y25.0940
G01 X37.7318 Y25.0940
G01 X37.7244 Y25.0936
G01 X37.7171 Y25.0926
G01 X37.7100 Y25.0908
G01 X37.7031 Y25.0883
G01 X37.6964 Y25.0851
G01 X37.6901 Y25.0814
G01 X37.6842 Y25.0770
G01 X37.6787 Y25.0720
G01 X37.2183 Y24.6116
G01 X35.5600 Y24.6116
G01 X35.5165 Y24.6096
G01 X35.5091 Y24.6088
G01 X35.4697 Y24.6030
G01 X35.4625 Y24.6015
G01 X35.4237 Y24.5918
G01 X35.4167 Y24.5897
G01 X35.3791 Y24.5763
G01 X35.3723 Y24.5734
G01 X35.3363 Y24.5564
G01 X35.3298 Y24.5529
G01 X35.2955 Y24.5324
G01 X35.2894 Y24.5283
G01 X35.2574 Y24.5045
G01 X35.2517 Y24.4999
G01 X35.2221 Y24.4731
G01 X34.0905 Y23.3416
G01 X32.6317 Y23.3416
G01 X32.1713 Y23.8020
G01 X32.1658 Y23.8070
G01 X32.1599 Y23.8114
G01 X32.1536 Y23.8151
G01 X32.1469 Y23.8183
G01 X32.1400 Y23.8208
G01 X32.1329 Y23.8226
G01 X32.1256 Y23.8236
G01 X32.1182 Y23.8240
G01 X31.3818 Y23.8240
G01 X31.3744 Y23.8236
G01 X31.3671 Y23.8226
G01 X31.3600 Y23.8208
G01 X31.3531 Y23.8183
G01 X31.3464 Y23.8151
G01 X31.3401 Y23.8114
G01 X31.3342 Y23.8070
G01 X31.3287 Y23.8020
G01 X30.8080 Y23.2813
G01 X30.8030 Y23.2758
G01 X30.7986 Y23.2699
G01 X30.7949 Y23.2636
G01 X30.7917 Y23.2569
G01 X30.7892 Y23.2500
G01 X30.7874 Y23.2429
G01 X30.7864 Y23.2356
G01 X30.7860 Y23.2282
G01 X30.7860 Y22.4918
G01 X30.7864 Y22.4844
G01 X30.7874 Y22.4771
G01 X30.7892 Y22.4700
G01 X30.7917 Y22.4631
G01 X30.7949 Y22.4564
G01 X30.7986 Y22.4501
G01 X30.8030 Y22.4442
G01 X30.8080 Y22.4387
G01 X31.3287 Y21.9180
G01 X31.3342 Y21.9130
G01 X31.3401 Y21.9086
G01 X31.3464 Y21.9049
G01 X31.3531 Y21.9017
G01 X31.3600 Y21.8992
G01 X31.3671 Y21.8974
G01 X31.3744 Y21.8964
G01 X31.3818 Y21.8960
G01 X32.1182 Y21.8960
G01 X32.1256 Y21.8964
G01 X32.1329 Y21.8974
G01 X32.1400 Y21.8992
G01 X32.1469 Y21.9017
G01 X32.1536 Y21.9049
G01 X32.1599 Y21.9086
G01 X32.1658 Y21.9130
G01 X32.1713 Y21.9180
G01 X32.6317 Y22.3784
G01 X34.2900 Y22.3784
G01 X34.3335 Y22.3804
G01 X34.3409 Y22.3812
G01 X34.3803 Y22.3870
G01 X34.3875 Y22.3885
G01 X34.4263 Y22.3982
G01 X34.4333 Y22.4003
G01 X34.4709 Y22.4137
G01 X34.4777 Y22.4166
G01 X34.5137 Y22.4336
G01 X34.5202 Y22.4371
G01 X34.5545 Y22.4576
G01 X34.5606 Y22.4617
G01 X34.5926 Y22.4855
G01 X34.5983 Y22.4901
G01 X34.6279 Y22.5169
G01 X35.7595 Y23.6484
G01 X37.2183 Y23.6484
G01 X37.6787 Y23.1880
G01 X37.6842 Y23.1830
G01 X37.6901 Y23.1786
G01 X37.6964 Y23.1749
G01 X37.7031 Y23.1717
G01 X37.7100 Y23.1692
G01 X37.7171 Y23.1674
G01 X37.7244 Y23.1664
G01 X37.7318 Y23.1660
G01 X38.4682 Y23.1660
G01 X38.4756 Y23.1664
G01 X38.4829 Y23.1674
G01 X38.4900 Y23.1692
G01 X38.4969 Y23.1717
G01 X38.5036 Y23.1749
G01 X38.5099 Y23.1786
G01 X38.5158 Y23.1830
G01 X38.5213 Y23.1880
G01 X39.0420 Y23.7087
G01 X39.0470 Y23.7142
G01 X39.0514 Y23.7201
G01 X39.0551 Y23.7264
G01 X39.0583 Y23.7331
G01 X39.0608 Y23.7400
G01 X39.0626 Y23.7471
G01 X39.0636 Y23.7544
G01 X39.0640 Y23.7618
G01 X39.0640 Y24.4982
G00 Z2.0000
G00 X39.0640 Y21.9582
G01 F60.00
G01 Z-0.1500
G01 F100.00
G01 X39.0636 Y21.9656
G01 X39.0626 Y21.9729
G01 X39.0608 Y21.9800
G01 X39.0583 Y21.9869
G01 X39.0551 Y21.9936
G01 X39.0514 Y21.9999
G01 X39.0470 Y22.0058
G01 X39.0420 Y22.0113
G01 X38.5213 Y22.5320
G01 X38.5158 Y22.5370
G01 X38.5099 Y22.5414
G01 X38.5036 Y22.5451
G01 X38.4969 Y22.5483
G01 X38.4900 Y22.5508
G01 X38.4829 Y22.5526
G01 X38.4756 Y22.5536
G01 X38.4682 Y22.5540
G01 X37.7318 Y22.5540
G01 X37.7244 Y22.5536
G01 X37.7171 Y22.5526
G01 X37.7100 Y22.5508
G01 X37.7031 Y22.5483
G01 X37.6964 Y22.5451
G01 X37.6901 Y22.5414
G01 X37.6842 Y22.5370
G01 X37.6787 Y22.5320
G01 X37.2183 Y22.0716
G01 X35.5600 Y22.0716
G01 X35.5165 Y22.0696
G01 X35.5091 Y22.0688
G01 X35.4697 Y22.0630
G01 X35.4625 Y22.0615
G01 X35.4237 Y22.0518
G01 X35.4167 Y22.0497
G01 X35.3791 Y22.0363
G01 X35.3723 Y22.0334
G01 X35.3363 Y22.0164
G01 X35.3298 Y22.0129
G01 X35.2955 Y21.9924
G01 X35.2894 Y21.9883
G01 X35.2574 Y21.9645
G01 X35.2517 Y21.9599
G01 X35.2221 Y21.9331
G01 X34.0905 Y20.8016
G01 X32.6317 Y20.8016
G01 X32.1713 Y21.2620
G01 X32.1658 Y21.2670
G01 X32.1599 Y21.2714
G01 X32.1536 Y21.2751
G01 X32.1469 Y21.2783
G01 X32.1400 Y21.2808
G01 X32.1329 Y21.2826
G01 X32.1256 Y21.2836
G01 X32.1182 Y21.2840
G01 X31.3818 Y21.2840
G01 X31.3744 Y21.2836
G01 X31.3671 Y21.2826
G01 X31.3600 Y21.2808
G01 X31.3531 Y21.2783
G01 X31.3464 Y21.2751
G01 X31.3401 Y21.2714
G01 X31.3342 Y21.2670
G01 X31.3287 Y21.2620
G01 X30.8080 Y20.7413
G01 X30.8030 Y20.7358
G01 X30.7986 Y20.7299
G01 X30.7949 Y20.7236
G01 X30.7917 Y20.7169
G01 X30.7892 Y20.7100
G01 X30.7874 Y20.7029
G01 X30.7864 Y20.6956
G01 X30.7860 Y20.6882
G01 X30.7860 Y19.9518
G01 X30.7864 Y19.9444
G01 X30.7874 Y19.9371
G01 X30.7892 Y19.9300
G01 X30.7917 Y19.9231
G01 X30.7949 Y19.9164
G01 X30.7986 Y19.9101
G01 X30.8030 Y19.9042
G01 X30.8080 Y19.8987
G01 X31.3287 Y19.3780
G01 X31.3342 Y19.3730
G01 X31.3401 Y19.3686
G01 X31.3464 Y19.3649
G01 X31.3531 Y19.3617
G01 X31.3600 Y19.3592
G01 X31.3671 Y19.3574
G01 X31.3744 Y19.3564
G01 X31.3818 Y19.3560
G01 X32.1182 Y19.3560
G01 X32.1256 Y19.3564
G01 X32.1329 Y19.3574
G01 X32.1400 Y19.3592
G01 X32.1469 Y19.3617
G01 X32.1536 Y19.3649
G01 X32.1599 Y19.3686
G01 X32.1658 Y19.3730
G01 X32.1713 Y19.3780
G01 X32.6317 Y19.8384
G01 X34.2900 Y19.8384
G01 X34.3335 Y19.8404
G01 X34.3409 Y19.8412
G01 X34.3803 Y19.8470
G01 X34.3875 Y19.8485
G01 X34.4263 Y19.8582
G01 X34.4333 Y19.8603
G01 X34.4709 Y19.8737
G01 X34.4777 Y19.8766
G01 X34.5137 Y19.8936
G01 X34.5202 Y19.8971
G01 X34.5545 Y19.9176
G01 X34.5606 Y19.9217
G01 X34.5926 Y19.9455
G01 X34.5983 Y19.9501
G01 X34.6279 Y19.9769
G01 X35.7595 Y21.1084
G01 X37.2183 Y21.1084
G01 X37.6787 Y20.6480
G01 X37.6842 Y20.6430
G01 X37.6901 Y20.6386
G01 X37.6964 Y20.6349
G01 X37.7031 Y20.6317
G01 X37.7100 Y20.6292
G01 X37.7171 Y20.6274
G01 X37.7244 Y20.6264
G01 X37.7318 Y20.6260
G01 X38.4682 Y20.6260
G01 X38.4756 Y20.6264
G01 X38.4829 Y20.6274
G01 X38.4900 Y20.6292
G01 X38.4969 Y20.6317
G01 X38.5036 Y20.6349
G01 X38.5099 Y20.6386
G01 X38.5158 Y20.6430
G01 X38.5213 Y20.6480
G01 X39.0420 Y21.1687
G01 X39.0470 Y21.1742
G01 X39.0514 Y21.1801
G01 X39.0551 Y21.1864
G01 X39.0583 Y21.1931
G01 X39.0608 Y21.2000
G01 X39.0626 Y21.2071
G01 X39.0636 Y21.2144
G01 X39.0640 Y21.2218
G01 X39.0640 Y21.9582
G00 Z2.0000
G00 X39.0640 Y19.4182
G01 F60.00
G01 Z-0.1500
G01 F100.00
G01 X39.0636 Y19.4256
G01 X39.0626 Y19.4329
G01 X39.0608 Y19.4400
G01 X39.0583 Y19.4469
G01 X39.0551 Y19.4536
G01 X39.0514 Y19.4599
G01 X39.0470 Y19.4658
G01 X39.0420 Y19.4713
G01 X38.5213 Y19.9920
G01 X38.5158 Y19.9970
G01 X38.5099 Y20.0014
G01 X38.5036 Y20.0051
G01 X38.4969 Y20.0083
G01 X38.4900 Y20.0108
G01 X38.4829 Y20.0126
G01 X38.4756 Y20.0136
G01 X38.4682 Y20.0140
G01 X37.7318 Y20.0140
G01 X37.7244 Y20.0136
G01 X37.7171 Y20.0126
G01 X37.7100 Y20.0108
G01 X37.7031 Y20.0083
G01 X37.6964 Y20.0051
G01 X37.6901 Y20.0014
G01 X37.6842 Y19.9970
G01 X37.6787 Y19.9920
G01 X37.1580 Y19.4713
G01 X37.1530 Y19.4658
G01 X37.1486 Y19.4599
G01 X37.1449 Y19.4536
G01 X37.1417 Y19.4469
G01 X37.1392 Y19.4400
G01 X37.1374 Y19.4329
G01 X37.1364 Y19.4256
G01 X37.1360 Y19.4182
G01 X37.1360 Y18.6818
G01 X37.1364 Y18.6744
G01 X37.1374 Y18.6671
G01 X37.1392 Y18.6600
G01 X37.1417 Y18.6531
G01 X37.1449 Y18.6464
G01 X37.1486 Y18.6401
G01 X37.1530 Y18.6342
G01 X37.1580 Y18.6287
G01 X37.6787 Y18.1080
G01 X37.6842 Y18.1030
G01 X37.6901 Y18.0986
G01 X37.6964 Y18.0949
G01 X37.7031 Y18.0917
G01 X37.7100 Y18.0892
G01 X37.7171 Y18.0874
G01 X37.7244 Y18.0864
G01 X37.7318 Y18.0860
G01 X38.4682 Y18.0860
G01 X38.4756 Y18.0864
G01 X38.4829 Y18.0874
G01 X38.4900 Y18.0892
G01 X38.4969 Y18.0917
G01 X38.5036 Y18.0949
G01 X38.5099 Y18.0986
G01 X38.5158 Y18.1030
G01 X38.5213 Y18.1080
G01 X39.0420 Y18.6287
G01 X39.0470 Y18.6342
G01 X39.0514 Y18.6401
G01 X39.0551 Y18.6464
G01 X39.0583 Y18.6531
G01 X39.0608 Y18.6600
G01 X39.0626 Y18.6671
G01 X39.0636 Y18.6744
G01 X39.0640 Y18.6818
G01 X39.0640 Y19.4182
G00 Z2.0000
G00 X38.5617 Y17.9363
G01 F60.00
G01 Z-0.1500
G01 F100.00
G01 X39.2137 Y18.5883
G01 X39.2137 Y19.5117
G01 X38.5617 Y20.1637
G01 X37.6383 Y20.1637
G01 X36.9863 Y19.5117
G01 X36.9863 Y18.5883
G01 X37.6383 Y17.9363
G01 X38.5617 Y17.9363
G00 Z2.0000
G00 X39.0640 Y16.8782
G01 F60.00
G01 Z-0.1500
G01 F100.00
G01 X39.0636 Y16.8856
G01 X39.0626 Y16.8929
G01 X39.0608 Y16.9000
G01 X39.0583 Y16.9069
G01 X39.0551 Y16.9136
G01 X39.0514 Y16.9199
G01 X39.0470 Y16.9258
G01 X39.0420 Y16.9313
G01 X38.5213 Y17.4520
G01 X38.5158 Y17.4570
G01 X38.5099 Y17.4614
G01 X38.5036 Y17.4651
G01 X38.4969 Y17.4683
G01 X38.4900 Y17.4708
G01 X38.4829 Y17.4726
G01 X38.4756 Y17.4736
G01 X38.4682 Y17.4740
G01 X37.7318 Y17.4740
G01 X37.7244 Y17.4736
G01 X37.7171 Y17.4726
G01 X37.7100 Y17.4708
G01 X37.7031 Y17.4683
G01 X37.6964 Y17.4651
G01 X37.6901 Y17.4614
G01 X37.6842 Y17.4570
G01 X37.6787 Y17.4520
G01 X37.1580 Y16.9313
G01 X37.1530 Y16.9258
G01 X37.1486 Y16.9199
G01 X37.1449 Y16.9136
G01 X37.1417 Y16.9069
G01 X37.1392 Y16.9000
G01 X37.1374 Y16.8929
G01 X37.1364 Y16.8856
G01 X37.1360 Y16.8782
G01 X37.1360 Y16.1418
G01 X37.1364 Y16.1344
G01 X37.1374 Y16.1271
G01 X37.1392 Y16.1200
G01 X37.1417 Y16.1131
G01 X37.1449 Y16.1064
G01 X37.1486 Y16.1001
G01 X37.1530 Y16.0942
G01 X37.1580 Y16.0887
G01 X37.6787 Y15.5680
G01 X37.6842 Y15.5630
G01 X37.6901 Y15.5586
G01 X37.6964 Y15.5549
G01 X37.7031 Y15.5517
G01 X37.7100 Y15.5492
G01 X37.7171 Y15.5474
G01 X37.7244 Y15.5464
G01 X37.7318 Y15.5460
G01 X38.4682 Y15.5460
G01 X38.4756 Y15.5464
G01 X38.4829 Y15.5474
G01 X38.4900 Y15.5492
G01 X38.4969 Y15.5517
G01 X38.5036 Y15.5549
G01 X38.5099 Y15.5586
G01 X38.5158 Y15.5630
G01 X38.5213 Y15.5680
G01 X39.0420 Y16.0887
G01 X39.0470 Y16.0942
G01 X39.0514 Y16.1001
G01 X39.0551 Y16.1064
G01 X39.0583 Y16.1131
G01 X39.0608 Y16.1200
G01 X39.0626 Y16.1271
G01 X39.0636 Y16.1344
G01 X39.0640 Y16.1418
G01 X39.0640 Y16.8782
G00 Z2.0000
G00 X38.5617 Y15.3963
G01 F60.00
G01 Z-0.1500
G01 F100.00
G01 X39.2137 Y16.0483
G01 X39.2137 Y16.9717
G01 X38.5617 Y17.6237
G01 X37.6383 Y17.6237
G01 X36.9863 Y16.9717
G01 X36.9863 Y16.0483
G01 X37.6383 Y15.3963
G01 X38.5617 Y15.3963
G00 Z2.0000
G00 X38.5617 Y10.3163
G01 F60.00
G01 Z-0.1500
G01 F100.00
G01 X39.0223 Y10.7769
G01 X39.0278 Y10.7819
G01 X39.0337 Y10.7862
G01 X39.0400 Y10.7900
G01 X39.0467 Y10.7932
G01 X39.0536 Y10.7956
G01 X39.0607 Y10.7974
G01 X39.0680 Y10.7985
G01 X39.0754 Y10.7989
G01 X49.6549 Y10.7989
G01 X49.8864 Y10.8942
G01 X52.6058 Y13.6136
G01 X52.7011 Y13.8451
G01 X52.7011 Y18.7579
G01 X52.7015 Y18.7653
G01 X52.7026 Y18.7725
G01 X52.7044 Y18.7797
G01 X52.7068 Y18.7866
G01 X52.7100 Y18.7933
G01 X52.7138 Y18.7996
G01 X52.7181 Y18.8055
G01 X52.7231 Y18.8109
G01 X54.8491 Y20.9369
G01 X54.8545 Y20.9419
G01 X54.8604 Y20.9462
G01 X54.8667 Y20.9500
G01 X54.8734 Y20.9532
G01 X54.8803 Y20.9556
G01 X54.8875 Y20.9574
G01 X54.8947 Y20.9585
G01 X54.9021 Y20.9589
G01 X65.0646 Y20.9589
G01 X65.0720 Y20.9585
G01 X65.0793 Y20.9574
G01 X65.0864 Y20.9556
G01 X65.0933 Y20.9532
G01 X65.1000 Y20.9500
G01 X65.1063 Y20.9462
G01 X65.1122 Y20.9419
G01 X65.1177 Y20.9369
G01 X65.5783 Y20.4763
G01 X66.5017 Y20.4763
G01 X67.1537 Y21.1283
G01 X67.1537 Y22.0517
G01 X66.5017 Y22.7037
G01 X65.5783 Y22.7037
G01 X65.1177 Y22.2431
G01 X65.1122 Y22.2381
G01 X65.1063 Y22.2338
G01 X65.1000 Y22.2300
G01 X65.0933 Y22.2268
G01 X65.0864 Y22.2244
G01 X65.0793 Y22.2226
G01 X65.0720 Y22.2215
G01 X65.0646 Y22.2211
G01 X54.9021 Y22.2211
G01 X54.8947 Y22.2215
G01 X54.8875 Y22.2226
G01 X54.8803 Y22.2244
G01 X54.8734 Y22.2268
G01 X54.8667 Y22.2300
G01 X54.8604 Y22.2338
G01 X54.8545 Y22.2381
G01 X54.8491 Y22.2431
G01 X52.7231 Y24.3691
G01 X52.7181 Y24.3745
G01 X52.7138 Y24.3804
G01 X52.7100 Y24.3867
G01 X52.7068 Y24.3934
G01 X52.7044 Y24.4003
G01 X52.7026 Y24.4075
G01 X52.7015 Y24.4147
G01 X52.7011 Y24.4221
G01 X52.7011 Y31.8749
G01 X52.6058 Y32.1064
G01 X49.8864 Y34.8258
G01 X49.6549 Y34.9211
G01 X39.0754 Y34.9211
G01 X39.0680 Y34.9215
G01 X39.0607 Y34.9226
G01 X39.0536 Y34.9244
G01 X39.0467 Y34.9268
G01 X39.0400 Y34.9300
G01 X39.0337 Y34.9338
G01 X39.0278 Y34.9381
G01 X39.0223 Y34.9431
G01 X38.5617 Y35.4037
G01 X37.6383 Y35.4037
G01 X37.1777 Y34.9431
G01 X37.1722 Y34.9381
G01 X37.1663 Y34.9338
G01 X37.1600 Y34.9300
G01 X37.1533 Y34.9268
G01 X37.1464 Y34.9244
G01 X37.1393 Y34.9226
G01 X37.1320 Y34.9215
G01 X37.1246 Y34.9211
G01 X35.8521 Y34.9211
G01 X35.8447 Y34.9215
G01 X35.8375 Y34.9226
G01 X35.8303 Y34.9244
G01 X35.8234 Y34.9268
G01 X35.8167 Y34.9300
G01 X35.8104 Y34.9338
G01 X35.8045 Y34.9381
G01 X35.7991 Y34.9431
G01 X34.9431 Y35.7991
G01 X34.9381 Y35.8045
G01 X34.9338 Y35.8104
G01 X34.9300 Y35.8167
G01 X34.9268 Y35.8234
G01 X34.9244 Y35.8303
G01 X34.9226 Y35.8375
G01 X34.9215 Y35.8447
G01 X34.9211 Y35.8521
G01 X34.9211 Y36.9549
G01 X34.8258 Y37.1864
G01 X33.3764 Y38.6358
G01 X33.1449 Y38.7311
G01 X27.8151 Y38.7311
G01 X27.5836 Y38.6358
G01 X22.3242 Y33.3764
G01 X22.2289 Y33.1449
G01 X22.2289 Y28.2321
G01 X22.2285 Y28.2247
G01 X22.2274 Y28.2175
G01 X22.2256 Y28.2103
G01 X22.2232 Y28.2034
G01 X22.2200 Y28.1967
G01 X22.2162 Y28.1904
G01 X22.2119 Y28.1845
G01 X22.2069 Y28.1791
G01 X17.5409 Y23.5131
G01 X17.5355 Y23.5081
G01 X17.5296 Y23.5038
G01 X17.5233 Y23.5000
G01 X17.5166 Y23.4968
G01 X17.5097 Y23.4944
G01 X17.5025 Y23.4926
G01 X17.4953 Y23.4915
G01 X17.4879 Y23.4911
G01 X7.3254 Y23.4911
G01 X7.3180 Y23.4915
G01 X7.3107 Y23.4926
G01 X7.3036 Y23.4944
G01 X7.2967 Y23.4968
G01 X7.2900 Y23.5000
G01 X7.2837 Y23.5038
G01 X7.2778 Y23.5081
G01 X7.2723 Y23.5131
G01 X6.8117 Y23.9737
G01 X5.8883 Y23.9737
G01 X5.2363 Y23.3217
G01 X5.2363 Y22.3983
G01 X5.8883 Y21.7463
G01 X6.8117 Y21.7463
G01 X7.2723 Y22.2069
G01 X7.2778 Y22.2119
G01 X7.2837 Y22.2162
G01 X7.2900 Y22.2200
G01 X7.2967 Y22.2232
G01 X7.3036 Y22.2256
G01 X7.3107 Y22.2274
G01 X7.3180 Y22.2285
G01 X7.3254 Y22.2289
G01 X17.9049 Y22.2289
G01 X18.1364 Y22.3242
G01 X23.3958 Y27.5836
G01 X23.4911 Y27.8151
G01 X23.4911 Y32.7279
G01 X23.4915 Y32.7353
G01 X23.4926 Y32.7425
G01 X23.4944 Y32.7497
G01 X23.4968 Y32.7566
G01 X23.5000 Y32.7633
G01 X23.5038 Y32.7696
G01 X23.5081 Y32.7755
G01 X23.5131 Y32.7809
G01 X28.1791 Y37.4469
G01 X28.1845 Y37.4519
G01 X28.1904 Y37.4562
G01 X28.1967 Y37.4600
G01 X28.2034 Y37.4632
G01 X28.2103 Y37.4656
G01 X28.2175 Y37.4674
G01 X28.2247 Y37.4685
G01 X28.2321 Y37.4689
G01 X32.7279 Y37.4689
G01 X32.7353 Y37.4685
G01 X32.7425 Y37.4674
G01 X32.7497 Y37.4656
G01 X32.7566 Y37.4632
G01 X32.7633 Y37.4600
G01 X32.7696 Y37.4562
G01 X32.7755 Y37.4519
G01 X32.7809 Y37.4469
G01 X33.6369 Y36.5909
G01 X33.6419 Y36.5855
G01 X33.6462 Y36.5796
G01 X33.6500 Y36.5733
G01 X33.6532 Y36.5666
G01 X33.6556 Y36.5597
G01 X33.6574 Y36.5525
G01 X33.6585 Y36.5453
G01 X33.6589 Y36.5379
G01 X33.6589 Y35.4351
G01 X33.7542 Y35.2036
G01 X35.2036 Y33.7542
G01 X35.4351 Y33.6589
G01 X37.1246 Y33.6589
G01 X37.1320 Y33.6585
G01 X37.1393 Y33.6574
G01 X37.1464 Y33.6556
G01 X37.1533 Y33.6532
G01 X37.1600 Y33.6500
G01 X37.1663 Y33.6462
G01 X37.1722 Y33.6419
G01 X37.1777 Y33.6369
G01 X37.6383 Y33.1763
G01 X38.5617 Y33.1763
G01 X39.0223 Y33.6369
G01 X39.0278 Y33.6419
G01 X39.0337 Y33.6462
G01 X39.0400 Y33.6500
G01 X39.0467 Y33.6532
G01 X39.0536 Y33.6556
G01 X39.0607 Y33.6574
G01 X39.0680 Y33.6585
G01 X39.0754 Y33.6589
G01 X49.2379 Y33.6589
G01 X49.2453 Y33.6585
G01 X49.2525 Y33.6574
G01 X49.2597 Y33.6556
G01 X49.2666 Y33.6532
G01 X49.2733 Y33.6500
G01 X49.2796 Y33.6462
G01 X49.2855 Y33.6419
G01 X49.2909 Y33.6369
G01 X51.4169 Y31.5109
G01 X51.4219 Y31.5055
G01 X51.4262 Y31.4996
G01 X51.4300 Y31.4933
G01 X51.4332 Y31.4866
G01 X51.4356 Y31.4797
G01 X51.4374 Y31.4725
G01 X51.4385 Y31.4653
G01 X51.4389 Y31.4579
G01 X51.4389 Y24.0051
G01 X51.5342 Y23.7736
G01 X53.6648 Y21.6430
G01 X53.6698 Y21.6376
G01 X53.6741 Y21.6317
G01 X53.6779 Y21.6254
G01 X53.6811 Y21.6187
G01 X53.6835 Y21.6118
G01 X53.6853 Y21.6046
G01 X53.6864 Y21.5974
G01 X53.6868 Y21.5900
G01 X53.6864 Y21.5826
G01 X53.6853 Y21.5754
G01 X53.6835 Y21.5682
G01 X53.6811 Y21.5613
G01 X53.6779 Y21.5546
G01 X53.6741 Y21.5483
G01 X53.6698 Y21.5424
G01 X53.6648 Y21.5370
G01 X51.5342 Y19.4064
G01 X51.4389 Y19.1749
G01 X51.4389 Y14.2621
G01 X51.4385 Y14.2547
G01 X51.4374 Y14.2475
G01 X51.4356 Y14.2403
G01 X51.4332 Y14.2334
G01 X51.4300 Y14.2267
G01 X51.4262 Y14.2204
G01 X51.4219 Y14.2145
G01 X51.4169 Y14.2091
G01 X49.2909 Y12.0831
G01 X49.2855 Y12.0781
G01 X49.2796 Y12.0738
G01 X49.2733 Y12.0700
G01 X49.2666 Y12.0668
G01 X49.2597 Y12.0644
G01 X49.2525 Y12.0626
G01 X49.2453 Y12.0615
G01 X49.2379 Y12.0611
G01 X39.0754 Y12.0611
G01 X39.0680 Y12.0615
G01 X39.0607 Y12.0626
G01 X39.0536 Y12.0644
G01 X39.0467 Y12.0668
G01 X39.0400 Y12.0700
G01 X39.0337 Y12.0738
G01 X39.0278 Y12.0781
G01 X39.0223 Y12.0831
G01 X38.5617 Y12.5437
G01 X37.6383 Y12.5437
G01 X36.9863 Y11.8917
G01 X36.9863 Y10.9683
G01 X37.6383 Y10.3163
G01 X38.5617 Y10.3163
G00 Z2.0000
G00 X32.2117 Y19.2063
G01 F60.00
G01 Z-0.1500
G01 F100.00
G01 X32.6723 Y19.6669
G01 X32.6778 Y19.6719
G01 X32.6837 Y19.6762
G01 X32.6900 Y19.6800
G01 X32.6967 Y19.6832
G01 X32.7036 Y19.6856
G01 X32.7107 Y19.6874
G01 X32.7180 Y19.6885
G01 X32.7254 Y19.6889
G01 X34.4149 Y19.6889
G01 X34.6464 Y19.7842
G01 X35.7991 Y20.9369
G01 X35.8045 Y20.9419
G01 X35.8104 Y20.9462
G01 X35.8167 Y20.9500
G01 X35.8234 Y20.9532
G01 X35.8303 Y20.9556
G01 X35.8375 Y20.9574
G01 X35.8447 Y20.9585
G01 X35.8521 Y20.9589
G01 X37.1246 Y20.9589
G01 X37.1320 Y20.9585
G01 X37.1393 Y20.9574
G01 X37.1464 Y20.9556
G01 X37.1533 Y20.9532
G01 X37.1600 Y20.9500
G01 X37.1663 Y20.9462
G01 X37.1722 Y20.9419
G01 X37.1777 Y20.9369
G01 X37.6383 Y20.4763
G01 X38.5617 Y20.4763
G01 X39.2137 Y21.1283
G01 X39.2137 Y22.0517
G01 X38.5617 Y22.7037
G01 X37.6383 Y22.7037
G01 X37.1777 Y22.2431
G01 X37.1722 Y22.2381
G01 X37.1663 Y22.2338
G01 X37.1600 Y22.2300
G01 X37.1533 Y22.2268
G01 X37.1464 Y22.2244
G01 X37.1393 Y22.2226
G01 X37.1320 Y22.2215
G01 X37.1246 Y22.2211
G01 X35.4351 Y22.2211
G01 X35.2036 Y22.1258
G01 X34.0509 Y20.9731
G01 X34.0455 Y20.9681
G01 X34.0396 Y20.9638
G01 X34.0333 Y20.9600
G01 X34.0266 Y20.9568
G01 X34.0197 Y20.9544
G01 X34.0125 Y20.9526
G01 X34.0053 Y20.9515
G01 X33.9979 Y20.9511
G01 X32.7254 Y20.9511
G01 X32.7180 Y20.9515
G01 X32.7107 Y20.9526
G01 X32.7036 Y20.9544
G01 X32.6967 Y20.9568
G01 X32.6900 Y20.9600
G01 X32.6837 Y20.9638
G01 X32.6778 Y20.9681
G01 X32.6723 Y20.9731
G01 X32.2117 Y21.4337
G01 X31.2883 Y21.4337
G01 X30.6363 Y20.7817
G01 X30.6363 Y19.8583
G01 X31.2883 Y19.2063
G01 X32.2117 Y19.2063
G00 Z2.0000
G00 X32.2117 Y21.7463
G01 F60.00
G01 Z-0.1500
G01 F100.00
G01 X32.6723 Y22.2069
G01 X32.6778 Y22.2119
G01 X32.6837 Y22.2162
G01 X32.6900 Y22.2200
G01 X32.6967 Y22.2232
G01 X32.7036 Y22.2256
G01 X32.7107 Y22.2274
G01 X32.7180 Y22.2285
G01 X32.7254 Y22.2289
G01 X34.4149 Y22.2289
G01 X34.6464 Y22.3242
G01 X35.7991 Y23.4769
G01 X35.8045 Y23.4819
G01 X35.8104 Y23.4862
G01 X35.8167 Y23.4900
G01 X35.8234 Y23.4932
G01 X35.8303 Y23.4956
G01 X35.8375 Y23.4974
G01 X35.8447 Y23.4985
G01 X35.8521 Y23.4989
G01 X37.1246 Y23.4989
G01 X37.1320 Y23.4985
G01 X37.1393 Y23.4974
G01 X37.1464 Y23.4956
G01 X37.1533 Y23.4932
G01 X37.1600 Y23.4900
G01 X37.1663 Y23.4862
G01 X37.1722 Y23.4819
G01 X37.1777 Y23.4769
G01 X37.6383 Y23.0163
G01 X38.5617 Y23.0163
G01 X39.2137 Y23.6683
G01 X39.2137 Y24.5917
G01 X38.5617 Y25.2437
G01 X37.6383 Y25.2437
G01 X37.1777 Y24.7831
G01 X37.1722 Y24.7781
G01 X37.1663 Y24.7738
G01 X37.1600 Y24.7700
G01 X37.1533 Y24.7668
G01 X37.1464 Y24.7644
G01 X37.1393 Y24.7626
G01 X37.1320 Y24.7615
G01 X37.1246 Y24.7611
G01 X35.4351 Y24.7611
G01 X35.2036 Y24.6658
G01 X34.0509 Y23.5131
G01 X34.0455 Y23.5081
G01 X34.0396 Y23.5038
G01 X34.0333 Y23.5000
G01 X34.0266 Y23.4968
G01 X34.0197 Y23.4944
G01 X34.0125 Y23.4926
G01 X34.0053 Y23.4915
G01 X33.9979 Y23.4911
G01 X32.7254 Y23.4911
G01 X32.7180 Y23.4915
G01 X32.7107 Y23.4926
G01 X32.7036 Y23.4944
G01 X32.6967 Y23.4968
G01 X32.6900 Y23.5000
G01 X32.6837 Y23.5038
G01 X32.6778 Y23.5081
G01 X32.6723 Y23.5131
G01 X32.2117 Y23.9737
G01 X31.2883 Y23.9737
G01 X30.6363 Y23.3217
G01 X30.6363 Y22.3983
G01 X31.2883 Y21.7463
G01 X32.2117 Y21.7463
G00 Z2.0000
G00 X32.2117 Y24.2863
G01 F60.00
G01 Z-0.1500
G01 F100.00
G01 X32.6723 Y24.7469
G01 X32.6778 Y24.7519
G01 X32.6837 Y24.7562
G01 X32.6900 Y24.7600
G01 X32.6967 Y24.7632
G01 X32.7036 Y24.7656
G01 X32.7107 Y24.7674
G01 X32.7180 Y24.7685
G01 X32.7254 Y24.7689
G01 X34.4149 Y24.7689
G01 X34.6464 Y24.8642
G01 X35.7991 Y26.0169
G01 X35.8045 Y26.0219
G01 X35.8104 Y26.0262
G01 X35.8167 Y26.0300
G01 X35.8234 Y26.0332
G01 X35.8303 Y26.0356
G01 X35.8375 Y26.0374
G01 X35.8447 Y26.0385
G01 X35.8521 Y26.0389
G01 X37.1246 Y26.0389
G01 X37.1320 Y26.0385
G01 X37.1393 Y26.0374
G01 X37.1464 Y26.0356
G01 X37.1533 Y26.0332
G01 X37.1600 Y26.0300
G01 X37.1663 Y26.0262
G01 X37.1722 Y26.0219
G01 X37.1777 Y26.0169
G01 X37.6383 Y25.5563
G01 X38.5617 Y25.5563
G01 X39.2137 Y26.2083
G01 X39.2137 Y27.1317
G01 X38.5617 Y27.7837
G01 X37.6383 Y27.7837
G01 X37.1777 Y27.3231
G01 X37.1722 Y27.3181
G01 X37.1663 Y27.3138
G01 X37.1600 Y27.3100
G01 X37.1533 Y27.3068
G01 X37.1464 Y27.3044
G01 X37.1393 Y27.3026
G01 X37.1320 Y27.3015
G01 X37.1246 Y27.3011
G01 X35.4351 Y27.3011
G01 X35.2036 Y27.2058
G01 X34.0509 Y26.0531
G01 X34.0455 Y26.0481
G01 X34.0396 Y26.0438
G01 X34.0333 Y26.0400
G01 X34.0266 Y26.0368
G01 X34.0197 Y26.0344
G01 X34.0125 Y26.0326
G01 X34.0053 Y26.0315
G01 X33.9979 Y26.0311
G01 X32.7254 Y26.0311
G01 X32.7180 Y26.0315
G01 X32.7107 Y26.0326
G01 X32.7036 Y26.0344
G01 X32.6967 Y26.0368
G01 X32.6900 Y26.0400
G01 X32.6837 Y26.0438
G01 X32.6778 Y26.0481
G01 X32.6723 Y26.0531
G01 X32.2117 Y26.5137
G01 X31.2883 Y26.5137
G01 X30.6363 Y25.8617
G01 X30.6363 Y24.9383
G01 X31.2883 Y24.2863
G01 X32.2117 Y24.2863
G00 Z2.0000
G00 X32.2117 Y26.8263
G01 F60.00
G01 Z-0.1500
G01 F100.00
G01 X32.6723 Y27.2869
G01 X32.6778 Y27.2919
G01 X32.6837 Y27.2962
G01 X32.6900 Y27.3000
G01 X32.6967 Y27.3032
G01 X32.7036 Y27.3056
G01 X32.7107 Y27.3074
G01 X32.7180 Y27.3085
G01 X32.7254 Y27.3089
G01 X34.4149 Y27.3089
G01 X34.6464 Y27.4042
G01 X35.7991 Y28.5569
G01 X35.8045 Y28.5619
G01 X35.8104 Y28.5662
G01 X35.8167 Y28.5700
G01 X35.8234 Y28.5732
G01 X35.8303 Y28.5756
G01 X35.8375 Y28.5774
G01 X35.8447 Y28.5785
G01 X35.8521 Y28.5789
G01 X37.1246 Y28.5789
G01 X37.1320 Y28.5785
G01 X37.1393 Y28.5774
G01 X37.1464 Y28.5756
G01 X37.1533 Y28.5732
G01 X37.1600 Y28.5700
G01 X37.1663 Y28.5662
G01 X37.1722 Y28.5619
G01 X37.1777 Y28.5569
G01 X37.6383 Y28.0963
G01 X38.5617 Y28.0963
G01 X39.2137 Y28.7483
G01 X39.2137 Y29.6717
G01 X38.5617 Y30.3237
G01 X37.6383 Y30.3237
G01 X37.1777 Y29.8631
G01 X37.1722 Y29.8581
G01 X37.1663 Y29.8538
G01 X37.1600 Y29.8500
G01 X37.1533 Y29.8468
G01 X37.1464 Y29.8444
G01 X37.1393 Y29.8426
G01 X37.1320 Y29.8415
G01 X37.1246 Y29.8411
G01 X35.4351 Y29.8411
G01 X35.2036 Y29.7458
G01 X34.0509 Y28.5931
G01 X34.0455 Y28.5881
G01 X34.0396 Y28.5838
G01 X34.0333 Y28.5800
G01 X34.0266 Y28.5768
G01 X34.0197 Y28.5744
G01 X34.0125 Y28.5726
G01 X34.0053 Y28.5715
G01 X33.9979 Y28.5711
G01 X32.7254 Y28.5711
G01 X32.7180 Y28.5715
G01 X32.7107 Y28.5726
G01 X32.7036 Y28.5744
G01 X32.6967 Y28.5768
G01 X32.6900 Y28.5800
G01 X32.6837 Y28.5838
G01 X32.6778 Y28.5881
G01 X32.6723 Y28.5931
G01 X32.2117 Y29.0537
G01 X31.2883 Y29.0537
G01 X30.6363 Y28.4017
G01 X30.6363 Y27.4783
G01 X31.2883 Y26.8263
G01 X32.2117 Y26.8263
G00 Z2.0000
G00 X32.2117 Y29.3663
G01 F60.00
G01 Z-0.1500
G01 F100.00
G01 X32.8637 Y30.0183
G01 X32.8637 Y30.9417
G01 X32.2117 Y31.5937
G01 X31.2883 Y31.5937
G01 X30.6363 Y30.9417
G01 X30.6363 Y30.0183
G01 X31.2883 Y29.3663
G01 X32.2117 Y29.3663
G00 Z2.0000
G00 X32.6920 Y30.0587
G01 F60.00
G01 Z-0.1500
G01 F100.00
G01 X32.6970 Y30.0642
G01 X32.7014 Y30.0701
G01 X32.7051 Y30.0764
G01 X32.7083 Y30.0831
G01 X32.7108 Y30.0900
G01 X32.7126 Y30.0971
G01 X32.7136 Y30.1044
G01 X32.7140 Y30.1118
G01 X32.7140 Y30.8482
G01 X32.7136 Y30.8556
G01 X32.7126 Y30.8629
G01 X32.7108 Y30.8700
G01 X32.7083 Y30.8769
G01 X32.7051 Y30.8836
G01 X32.7014 Y30.8899
G01 X32.6970 Y30.8958
G01 X32.6920 Y30.9013
G01 X32.1713 Y31.4220
G01 X32.1658 Y31.4270
G01 X32.1599 Y31.4314
G01 X32.1536 Y31.4351
G01 X32.1469 Y31.4383
G01 X32.1400 Y31.4408
G01 X32.1329 Y31.4426
G01 X32.1256 Y31.4436
G01 X32.1182 Y31.4440
G01 X31.3818 Y31.4440
G01 X31.3744 Y31.4436
G01 X31.3671 Y31.4426
G01 X31.3600 Y31.4408
G01 X31.3531 Y31.4383
G01 X31.3464 Y31.4351
G01 X31.3401 Y31.4314
G01 X31.3342 Y31.4270
G01 X31.3287 Y31.4220
G01 X30.8080 Y30.9013
G01 X30.8030 Y30.8958
G01 X30.7986 Y30.8899
G01 X30.7949 Y30.8836
G01 X30.7917 Y30.8769
G01 X30.7892 Y30.8700
G01 X30.7874 Y30.8629
G01 X30.7864 Y30.8556
G01 X30.7860 Y30.8482
G01 X30.7860 Y30.1118
G01 X30.7864 Y30.1044
G01 X30.7874 Y30.0971
G01 X30.7892 Y30.0900
G01 X30.7917 Y30.0831
G01 X30.7949 Y30.0764
G01 X30.7986 Y30.0701
G01 X30.8030 Y30.0642
G01 X30.8080 Y30.0587
G01 X31.3287 Y29.5380
G01 X31.3342 Y29.5330
G01 X31.3401 Y29.5286
G01 X31.3464 Y29.5249
G01 X31.3531 Y29.5217
G01 X31.3600 Y29.5192
G01 X31.3671 Y29.5174
G01 X31.3744 Y29.5164
G01 X31.3818 Y29.5160
G01 X32.1182 Y29.5160
G01 X32.1256 Y29.5164
G01 X32.1329 Y29.5174
G01 X32.1400 Y29.5192
G01 X32.1469 Y29.5217
G01 X32.1536 Y29.5249
G01 X32.1599 Y29.5286
G01 X32.1658 Y29.5330
G01 X32.1713 Y29.5380
G01 X32.6920 Y30.0587
G00 Z2.0000
G00 X32.2117 Y31.9063
G01 F60.00
G01 Z-0.1500
G01 F100.00
G01 X32.8637 Y32.5583
G01 X32.8637 Y33.4817
G01 X32.2117 Y34.1337
G01 X31.2883 Y34.1337
G01 X30.6363 Y33.4817
G01 X30.6363 Y32.5583
G01 X31.2883 Y31.9063
G01 X32.2117 Y31.9063
G00 Z2.0000
G00 X32.6920 Y32.5987
G01 F60.00
G01 Z-0.1500
G01 F100.00
G01 X32.6970 Y32.6042
G01 X32.7014 Y32.6101
G01 X32.7051 Y32.6164
G01 X32.7083 Y32.6231
G01 X32.7108 Y32.6300
G01 X32.7126 Y32.6371
G01 X32.7136 Y32.6444
G01 X32.7140 Y32.6518
G01 X32.7140 Y33.3882
G01 X32.7136 Y33.3956
G01 X32.7126 Y33.4029
G01 X32.7108 Y33.4100
G01 X32.7083 Y33.4169
G01 X32.7051 Y33.4236
G01 X32.7014 Y33.4299
G01 X32.6970 Y33.4358
G01 X32.6920 Y33.4413
G01 X32.1713 Y33.9620
G01 X32.1658 Y33.9670
G01 X32.1599 Y33.9714
G01 X32.1536 Y33.9751
G01 X32.1469 Y33.9783
G01 X32.1400 Y33.9808
G01 X32.1329 Y33.9826
G01 X32.1256 Y33.9836
G01 X32.1182 Y33.9840
G01 X31.3818 Y33.9840
G01 X31.3744 Y33.9836
G01 X31.3671 Y33.9826
G01 X31.3600 Y33.9808
G01 X31.3531 Y33.9783
G01 X31.3464 Y33.9751
G01 X31.3401 Y33.9714
G01 X31.3342 Y33.9670
G01 X31.3287 Y33.9620
G01 X30.8080 Y33.4413
G01 X30.8030 Y33.4358
G01 X30.7986 Y33.4299
G01 X30.7949 Y33.4236
G01 X30.7917 Y33.4169
G01 X30.7892 Y33.4100
G01 X30.7874 Y33.4029
G01 X30.7864 Y33.3956
G01 X30.7860 Y33.3882
G01 X30.7860 Y32.6518
G01 X30.7864 Y32.6444
G01 X30.7874 Y32.6371
G01 X30.7892 Y32.6300
G01 X30.7917 Y32.6231
G01 X30.7949 Y32.6164
G01 X30.7986 Y32.6101
G01 X30.8030 Y32.6042
G01 X30.8080 Y32.5987
G01 X31.3287 Y32.0780
G01 X31.3342 Y32.0730
G01 X31.3401 Y32.0686
G01 X31.3464 Y32.0649
G01 X31.3531 Y32.0617
G01 X31.3600 Y32.0592
G01 X31.3671 Y32.0574
G01 X31.3744 Y32.0564
G01 X31.3818 Y32.0560
G01 X32.1182 Y32.0560
G01 X32.1256 Y32.0564
G01 X32.1329 Y32.0574
G01 X32.1400 Y32.0592
G01 X32.1469 Y32.0617
G01 X32.1536 Y32.0649
G01 X32.1599 Y32.0686
G01 X32.1658 Y32.0730
G01 X32.1713 Y32.0780
G01 X32.6920 Y32.5987
G00 Z2.0000
G00 X66.5017 Y33.1763
G01 F60.00
G01 Z-0.1500
G01 F100.00
G01 X67.1537 Y33.8283
G01 X67.1537 Y34.7517
G01 X66.5017 Y35.4037
G01 X65.5783 Y35.4037
G01 X64.9263 Y34.7517
G01 X64.9263 Y33.8283
G01 X65.5783 Y33.1763
G01 X66.5017 Y33.1763
G00 Z2.0000
G00 X67.0040 Y34.6582
G01 F60.00
G01 Z-0.1500
G01 F100.00
G01 X67.0036 Y34.6656
G01 X67.0026 Y34.6729
G01 X67.0008 Y34.6800
G01 X66.9983 Y34.6869
G01 X66.9951 Y34.6936
G01 X66.9914 Y34.6999
G01 X66.9870 Y34.7058
G01 X66.9820 Y34.7113
G01 X66.4613 Y35.2320
G01 X66.4558 Y35.2370
G01 X66.4499 Y35.2414
G01 X66.4436 Y35.2451
G01 X66.4369 Y35.2483
G01 X66.4300 Y35.2508
G01 X66.4229 Y35.2526
G01 X66.4156 Y35.2536
G01 X66.4082 Y35.2540
G01 X65.6718 Y35.2540
G01 X65.6644 Y35.2536
G01 X65.6571 Y35.2526
G01 X65.6500 Y35.2508
G01 X65.6431 Y35.2483
G01 X65.6364 Y35.2451
G01 X65.6301 Y35.2414
G01 X65.6242 Y35.2370
G01 X65.6187 Y35.2320
G01 X65.0980 Y34.7113
G01 X65.0930 Y34.7058
G01 X65.0886 Y34.6999
G01 X65.0849 Y34.6936
G01 X65.0817 Y34.6869
G01 X65.0792 Y34.6800
G01 X65.0774 Y34.6729
G01 X65.0764 Y34.6656
G01 X65.0760 Y34.6582
G01 X65.0760 Y33.9218
G01 X65.0764 Y33.9144
G01 X65.0774 Y33.9071
G01 X65.0792 Y33.9000
G01 X65.0817 Y33.8931
G01 X65.0849 Y33.8864
G01 X65.0886 Y33.8801
G01 X65.0930 Y33.8742
G01 X65.0980 Y33.8687
G01 X65.6187 Y33.3480
G01 X65.6242 Y33.3430
G01 X65.6301 Y33.3386
G01 X65.6364 Y33.3349
G01 X65.6431 Y33.3317
G01 X65.6500 Y33.3292
G01 X65.6571 Y33.3274
G01 X65.6644 Y33.3264
G01 X65.6718 Y33.3260
G01 X66.4082 Y33.3260
G01 X66.4156 Y33.3264
G01 X66.4229 Y33.3274
G01 X66.4300 Y33.3292
G01 X66.4369 Y33.3317
G01 X66.4436 Y33.3349
G01 X66.4499 Y33.3386
G01 X66.4558 Y33.3430
G01 X66.4613 Y33.3480
G01 X66.9820 Y33.8687
G01 X66.9870 Y33.8742
G01 X66.9914 Y33.8801
G01 X66.9951 Y33.8864
G01 X66.9983 Y33.8931
G01 X67.0008 Y33.9000
G01 X67.0026 Y33.9071
G01 X67.0036 Y33.9144
G01 X67.0040 Y33.9218
G01 X67.0040 Y34.6582
G00 Z2.0000
G00 X66.5017 Y35.7163
G01 F60.00
G01 Z-0.1500
G01 F100.00
G01 X67.1537 Y36.3683
G01 X67.1537 Y37.2917
G01 X66.5017 Y37.9437
G01 X65.5783 Y37.9437
G01 X64.9263 Y37.2917
G01 X64.9263 Y36.3683
G01 X65.5783 Y35.7163
G01 X66.5017 Y35.7163
G00 Z2.0000
G00 X66.9820 Y36.4087
G01 F60.00
G01 Z-0.1500
G01 F100.00
G01 X66.9870 Y36.4142
G01 X66.9914 Y36.4201
G01 X66.9951 Y36.4264
G01 X66.9983 Y36.4331
G01 X67.0008 Y36.4400
G01 X67.0026 Y36.4471
G01 X67.0036 Y36.4544
G01 X67.0040 Y36.4618
G01 X67.0040 Y37.1982
G01 X67.0036 Y37.2056
G01 X67.0026 Y37.2129
G01 X67.0008 Y37.2200
G01 X66.9983 Y37.2269
G01 X66.9951 Y37.2336
G01 X66.9914 Y37.2399
G01 X66.9870 Y37.2458
G01 X66.9820 Y37.2513
G01 X66.4613 Y37.7720
G01 X66.4558 Y37.7770
G01 X66.4499 Y37.7814
G01 X66.4436 Y37.7851
G01 X66.4369 Y37.7883
G01 X66.4300 Y37.7908
G01 X66.4229 Y37.7926
G01 X66.4156 Y37.7936
G01 X66.4082 Y37.7940
G01 X65.6718 Y37.7940
G01 X65.6644 Y37.7936
G01 X65.6571 Y37.7926
G01 X65.6500 Y37.7908
G01 X65.6431 Y37.7883
G01 X65.6364 Y37.7851
G01 X65.6301 Y37.7814
G01 X65.6242 Y37.7770
G01 X65.6187 Y37.7720
G01 X65.0980 Y37.2513
G01 X65.0930 Y37.2458
G01 X65.0886 Y37.2399
G01 X65.0849 Y37.2336
G01 X65.0817 Y37.2269
G01 X65.0792 Y37.2200
G01 X65.0774 Y37.2129
G01 X65.0764 Y37.2056
G01 X65.0760 Y37.1982
G01 X65.0760 Y36.4618
G01 X65.0764 Y36.4544
G01 X65.0774 Y36.4471
G01 X65.0792 Y36.4400
G01 X65.0817 Y36.4331
G01 X65.0849 Y36.4264
G01 X65.0886 Y36.4201
G01 X65.0930 Y36.4142
G01 X65.0980 Y36.4087
G01 X65.6187 Y35.8880
G01 X65.6242 Y35.8830
G01 X65.6301 Y35.8786
G01 X65.6364 Y35.8749
G01 X65.6431 Y35.8717
G01 X65.6500 Y35.8692
G01 X65.6571 Y35.8674
G01 X65.6644 Y35.8664
G01 X65.6718 Y35.8660
G01 X66.4082 Y35.8660
G01 X66.4156 Y35.8664
G01 X66.4229 Y35.8674
G01 X66.4300 Y35.8692
G01 X66.4369 Y35.8717
G01 X66.4436 Y35.8749
G01 X66.4499 Y35.8786
G01 X66.4558 Y35.8830
G01 X66.4613 Y35.8880
G01 X66.9820 Y36.4087
G00 Z2.0000
G00 X66.5017 Y38.2563
G01 F60.00
G01 Z-0.1500
G01 F100.00
G01 X67.1537 Y38.9083
G01 X67.1537 Y39.8317
G01 X66.5017 Y40.4837
G01 X65.5783 Y40.4837
G01 X64.9263 Y39.8317
G01 X64.9263 Y38.9083
G01 X65.5783 Y38.2563
G01 X66.5017 Y38.2563
G00 Z2.0000
G00 X67.0040 Y39.7382
G01 F60.00
G01 Z-0.1500
G01 F100.00
G01 X67.0036 Y39.7456
G01 X67.0026 Y39.7529
G01 X67.0008 Y39.7600
G01 X66.9983 Y39.7669
G01 X66.9951 Y39.7736
G01 X66.9914 Y39.7799
G01 X66.9870 Y39.7858
G01 X66.9820 Y39.7913
G01 X66.4613 Y40.3120
G01 X66.4558 Y40.3170
G01 X66.4499 Y40.3214
G01 X66.4436 Y40.3251
G01 X66.4369 Y40.3283
G01 X66.4300 Y40.3308
G01 X66.4229 Y40.3326
G01 X66.4156 Y40.3336
G01 X66.4082 Y40.3340
G01 X65.6718 Y40.3340
G01 X65.6644 Y40.3336
G01 X65.6571 Y40.3326
G01 X65.6500 Y40.3308
G01 X65.6431 Y40.3283
G01 X65.6364 Y40.3251
G01 X65.6301 Y40.3214
G01 X65.6242 Y40.3170
G01 X65.6187 Y40.3120
G01 X65.0980 Y39.7913
G01 X65.0930 Y39.7858
G01 X65.0886 Y39.7799
G01 X65.0849 Y39.7736
G01 X65.0817 Y39.7669
G01 X65.0792 Y39.7600
G01 X65.0774 Y39.7529
G01 X65.0764 Y39.7456
G01 X65.0760 Y39.7382
G01 X65.0760 Y39.0018
G01 X65.0764 Y38.9944
G01 X65.0774 Y38.9871
G01 X65.0792 Y38.9800
G01 X65.0817 Y38.9731
G01 X65.0849 Y38.9664
G01 X65.0886 Y38.9601
G01 X65.0930 Y38.9542
G01 X65.0980 Y38.9487
G01 X65.6187 Y38.4280
G01 X65.6242 Y38.4230
G01 X65.6301 Y38.4186
G01 X65.6364 Y38.4149
G01 X65.6431 Y38.4117
G01 X65.6500 Y38.4092
G01 X65.6571 Y38.4074
G01 X65.6644 Y38.4064
G01 X65.6718 Y38.4060
G01 X66.4082 Y38.4060
G01 X66.4156 Y38.4064
G01 X66.4229 Y38.4074
G01 X66.4300 Y38.4092
G01 X66.4369 Y38.4117
G01 X66.4436 Y38.4149
G01 X66.4499 Y38.4186
G01 X66.4558 Y38.4230
G01 X66.4613 Y38.4280
G01 X66.9820 Y38.9487
G01 X66.9870 Y38.9542
G01 X66.9914 Y38.9601
G01 X66.9951 Y38.9664
G01 X66.9983 Y38.9731
G01 X67.0008 Y38.9800
G01 X67.0026 Y38.9871
G01 X67.0036 Y38.9944
G01 X67.0040 Y39.0018
G01 X67.0040 Y39.7382
G00 Z2.0000
G00 X66.5017 Y40.7963
G01 F60.00
G01 Z-0.1500
G01 F100.00
G01 X67.1537 Y41.4483
G01 X67.1537 Y42.3717
G01 X66.5017 Y43.0237
G01 X65.5783 Y43.0237
G01 X64.9263 Y42.3717
G01 X64.9263 Y41.4483
G01 X65.5783 Y40.7963
G01 X66.5017 Y40.7963
G00 Z2.0000
G00 X66.9820 Y41.4887
G01 F60.00
G01 Z-0.1500
G01 F100.00
G01 X66.9870 Y41.4942
G01 X66.9914 Y41.5001
G01 X66.9951 Y41.5064
G01 X66.9983 Y41.5131
G01 X67.0008 Y41.5200
G01 X67.0026 Y41.5271
G01 X67.0036 Y41.5344
G01 X67.0040 Y41.5418
G01 X67.0040 Y42.2782
G01 X67.0036 Y42.2856
G01 X67.0026 Y42.2929
G01 X67.0008 Y42.3000
G01 X66.9983 Y42.3069
G01 X66.9951 Y42.3136
G01 X66.9914 Y42.3199
G01 X66.9870 Y42.3258
G01 X66.9820 Y42.3313
G01 X66.4613 Y42.8520
G01 X66.4558 Y42.8570
G01 X66.4499 Y42.8614
G01 X66.4436 Y42.8651
G01 X66.4369 Y42.8683
G01 X66.4300 Y42.8708
G01 X66.4229 Y42.8726
G01 X66.4156 Y42.8736
G01 X66.4082 Y42.8740
G01 X65.6718 Y42.8740
G01 X65.6644 Y42.8736
G01 X65.6571 Y42.8726
G01 X65.6500 Y42.8708
G01 X65.6431 Y42.8683
G01 X65.6364 Y42.8651
G01 X65.6301 Y42.8614
G01 X65.6242 Y42.8570
G01 X65.6187 Y42.8520
G01 X65.0980 Y42.3313
G01 X65.0930 Y42.3258
G01 X65.0886 Y42.3199
G01 X65.0849 Y42.3136
G01 X65.0817 Y42.3069
G01 X65.0792 Y42.3000
G01 X65.0774 Y42.2929
G01 X65.0764 Y42.2856
G01 X65.0760 Y42.2782
G01 X65.0760 Y41.5418
G01 X65.0764 Y41.5344
G01 X65.0774 Y41.5271
G01 X65.0792 Y41.5200
G01 X65.0817 Y41.5131
G01 X65.0849 Y41.5064
G01 X65.0886 Y41.5001
G01 X65.0930 Y41.4942
G01 X65.0980 Y41.4887
G01 X65.6187 Y40.9680
G01 X65.6242 Y40.9630
G01 X65.6301 Y40.9586
G01 X65.6364 Y40.9549
G01 X65.6431 Y40.9517
G01 X65.6500 Y40.9492
G01 X65.6571 Y40.9474
G01 X65.6644 Y40.9464
G01 X65.6718 Y40.9460
G01 X66.4082 Y40.9460
G01 X66.4156 Y40.9464
G01 X66.4229 Y40.9474
G01 X66.4300 Y40.9492
G01 X66.4369 Y40.9517
G01 X66.4436 Y40.9549
G01 X66.4499 Y40.9586
G01 X66.4558 Y40.9630
G01 X66.4613 Y40.9680
G01 X66.9820 Y41.4887
G00 Z2.0000
G00 X66.5017 Y45.8763
G01 F60.00
G01 Z-0.1500
G01 F100.00
G01 X67.1537 Y46.5283
G01 X67.1537 Y47.4517
G01 X66.5017 Y48.1037
G01 X65.5783 Y48.1037
G01 X64.9263 Y47.4517
G01 X64.9263 Y46.5283
G01 X65.5783 Y45.8763
G01 X66.5017 Y45.8763
G00 Z2.0000
G00 X67.0040 Y47.3582
G01 F60.00
G01 Z-0.1500
G01 F100.00
G01 X67.0036 Y47.3656
G01 X67.0026 Y47.3729
G01 X67.0008 Y47.3800
G01 X66.9983 Y47.3869
G01 X66.9951 Y47.3936
G01 X66.9914 Y47.3999
G01 X66.9870 Y47.4058
G01 X66.9820 Y47.4113
G01 X66.4613 Y47.9320
G01 X66.4558 Y47.9370
G01 X66.4499 Y47.9414
G01 X66.4436 Y47.9451
G01 X66.4369 Y47.9483
G01 X66.4300 Y47.9508
G01 X66.4229 Y47.9526
G01 X66.4156 Y47.9536
G01 X66.4082 Y47.9540
G01 X65.6718 Y47.9540
G01 X65.6644 Y47.9536
G01 X65.6571 Y47.9526
G01 X65.6500 Y47.9508
G01 X65.6431 Y47.9483
G01 X65.6364 Y47.9451
G01 X65.6301 Y47.9414
G01 X65.6242 Y47.9370
G01 X65.6187 Y47.9320
G01 X65.0980 Y47.4113
G01 X65.0930 Y47.4058
G01 X65.0886 Y47.3999
G01 X65.0849 Y47.3936
G01 X65.0817 Y47.3869
G01 X65.0792 Y47.3800
G01 X65.0774 Y47.3729
G01 X65.0764 Y47.3656
G01 X65.0760 Y47.3582
G01 X65.0760 Y46.6218
G01 X65.0764 Y46.6144
G01 X65.0774 Y46.6071
G01 X65.0792 Y46.6000
G01 X65.0817 Y46.5931
G01 X65.0849 Y46.5864
G01 X65.0886 Y46.5801
G01 X65.0930 Y46.5742
G01 X65.0980 Y46.5687
G01 X65.6187 Y46.0480
G01 X65.6242 Y46.0430
G01 X65.6301 Y46.0386
G01 X65.6364 Y46.0349
G01 X65.6431 Y46.0317
G01 X65.6500 Y46.0292
G01 X65.6571 Y46.0274
G01 X65.6644 Y46.0264
G01 X65.6718 Y46.0260
G01 X66.4082 Y46.0260
G01 X66.4156 Y46.0264
G01 X66.4229 Y46.0274
G01 X66.4300 Y46.0292
G01 X66.4369 Y46.0317
G01 X66.4436 Y46.0349
G01 X66.4499 Y46.0386
G01 X66.4558 Y46.0430
G01 X66.4613 Y46.0480
G01 X66.9820 Y46.5687
G01 X66.9870 Y46.5742
G01 X66.9914 Y46.5801
G01 X66.9951 Y46.5864
G01 X66.9983 Y46.5931
G01 X67.0008 Y46.6000
G01 X67.0026 Y46.6071
G01 X67.0036 Y46.6144
G01 X67.0040 Y46.6218
G01 X67.0040 Y47.3582
G00 Z2.0000
G00 X72.0937 Y53.1737
G01 F60.00
G01 Z-0.1500
G01 F100.00
G01 X72.0956 Y53.1737
G01 X72.1083 Y53.1759
G01 X72.1297 Y53.1762
G01 X72.1407 Y53.1783
G01 X72.1487 Y53.1788
G01 X72.1704 Y53.1788
G01 X72.1813 Y53.1809
G01 X72.1893 Y53.1813
G01 X72.2034 Y53.1813
G01 X72.2143 Y53.1834
G01 X72.2224 Y53.1839
G01 X72.2364 Y53.1839
G01 X72.2474 Y53.1860
G01 X72.2554 Y53.1864
G01 X72.2683 Y53.1864
G01 X72.2810 Y53.1886
G01 X72.2884 Y53.1889
G01 X72.3076 Y53.1889
G01 X72.3229 Y53.1912
G01 X72.3355 Y53.1915
G01 X72.3464 Y53.1936
G01 X72.3544 Y53.1940
G01 X72.3673 Y53.1940
G01 X72.3801 Y53.1962
G01 X72.4015 Y53.1966
G01 X72.4125 Y53.1987
G01 X72.4205 Y53.1991
G01 X72.4345 Y53.1991
G01 X72.4455 Y53.2012
G01 X72.4535 Y53.2016
G01 X72.4752 Y53.2016
G01 X72.4861 Y53.2037
G01 X72.4941 Y53.2042
G01 X72.5082 Y53.2042
G01 X72.5191 Y53.2063
G01 X72.5272 Y53.2067
G01 X72.5412 Y53.2067
G01 X72.5522 Y53.2088
G01 X72.5602 Y53.2093
G01 X72.5794 Y53.2093
G01 X72.5946 Y53.2115
G01 X72.6073 Y53.2118
G01 X72.6182 Y53.2139
G01 X72.6262 Y53.2143
G01 X72.6391 Y53.2143
G01 X72.6518 Y53.2165
G01 X72.6592 Y53.2169
G01 X72.6784 Y53.2169
G01 X72.6937 Y53.2192
G01 X72.7061 Y53.2194
G01 X72.7115 Y53.2207
G01 X72.7183 Y53.2216
G01 X72.7392 Y53.2220
G01 X72.7445 Y53.2232
G01 X72.7514 Y53.2242
G01 X72.7800 Y53.2245
G01 X72.7909 Y53.2266
G01 X72.7989 Y53.2270
G01 X72.8130 Y53.2270
G01 X72.8239 Y53.2291
G01 X72.8320 Y53.2296
G01 X72.8460 Y53.2296
G01 X72.8570 Y53.2317
G01 X72.8650 Y53.2321
G01 X72.8790 Y53.2321
G01 X72.8900 Y53.2342
G01 X72.8980 Y53.2347
G01 X72.9109 Y53.2347
G01 X72.9236 Y53.2368
G01 X72.9310 Y53.2372
G01 X72.9502 Y53.2372
G01 X72.9655 Y53.2395
G01 X72.9779 Y53.2397
G01 X72.9832 Y53.2410
G01 X72.9901 Y53.2420
G01 X73.0109 Y53.2423
G01 X73.0163 Y53.2435
G01 X73.0231 Y53.2445
G01 X73.0440 Y53.2448
G01 X73.0493 Y53.2461
G01 X73.0562 Y53.2470
G01 X73.0848 Y53.2474
G01 X73.0957 Y53.2495
G01 X73.1037 Y53.2499
G01 X73.1178 Y53.2499
G01 X73.1287 Y53.2520
G01 X73.1368 Y53.2524
G01 X73.1508 Y53.2524
G01 X73.1618 Y53.2545
G01 X73.1698 Y53.2550
G01 X73.1827 Y53.2550
G01 X73.1954 Y53.2572
G01 X73.2028 Y53.2575
G01 X73.2233 Y53.2575
G01 X73.2360 Y53.2597
G01 X73.2497 Y53.2601
G01 X73.2550 Y53.2613
G01 X73.2619 Y53.2623
G01 X73.2800 Y53.2626
G01 X74.3841 Y53.6978
G01 X75.3138 Y54.4381
G01 X75.9818 Y55.4201
G01 X76.3333 Y56.5568
G01 X76.3333 Y57.7432
G01 X75.9818 Y58.8799
G01 X75.3138 Y59.8619
G01 X74.3841 Y60.6022
G01 X73.2774 Y61.0384
G01 X72.0909 Y61.1257
G01 X70.9343 Y60.8615
G01 X69.9049 Y60.2682
G01 X69.0948 Y59.3958
G01 X68.5788 Y58.3265
G01 X68.4018 Y57.1500
G01 X68.5788 Y55.9735
G01 X69.0948 Y54.9042
G01 X69.9049 Y54.0318
G01 X70.9343 Y53.4385
G01 X72.0937 Y53.1737
G00 Z2.0000
G00 X72.2209 Y55.0500
G01 F60.00
G01 Z-0.1500
G01 F100.00
G01 X72.2283 Y55.0487
G01 X72.2358 Y55.0481
G01 X72.2433 Y55.0483
G01 X72.8478 Y55.0940
G01 X72.8552 Y55.0949
G01 X72.8624 Y55.0966
G01 X72.8695 Y55.0990
G01 X73.4334 Y55.3200
G01 X73.4402 Y55.3230
G01 X73.4467 Y55.3268
G01 X73.4527 Y55.3311
G01 X73.9277 Y55.7096
G01 X73.9334 Y55.7146
G01 X73.9385 Y55.7201
G01 X73.9430 Y55.7261
G01 X74.2834 Y56.2264
G01 X74.2872 Y56.2328
G01 X74.2905 Y56.2396
G01 X74.2930 Y56.2466
G01 X74.4708 Y56.8257
G01 X74.4727 Y56.8329
G01 X74.4738 Y56.8403
G01 X74.4741 Y56.8477
G01 X74.4741 Y57.4523
G01 X74.4738 Y57.4597
G01 X74.4727 Y57.4671
G01 X74.4708 Y57.4743
G01 X74.2930 Y58.0534
G01 X74.2905 Y58.0604
G01 X74.2872 Y58.0672
G01 X74.2834 Y58.0736
G01 X73.9430 Y58.5739
G01 X73.9385 Y58.5799
G01 X73.9334 Y58.5854
G01 X73.9277 Y58.5904
G01 X73.4527 Y58.9689
G01 X73.4467 Y58.9732
G01 X73.4402 Y58.9770
G01 X73.4334 Y58.9800
G01 X72.8695 Y59.2010
G01 X72.8629 Y59.2033
G01 X72.8560 Y59.2049
G01 X72.8466 Y59.2060
G01 X72.8428 Y59.2070
G01 X72.8349 Y59.2083
G01 X72.8269 Y59.2087
G01 X72.8128 Y59.2087
G01 X72.8019 Y59.2108
G01 X72.7939 Y59.2113
G01 X72.7798 Y59.2113
G01 X72.7689 Y59.2134
G01 X72.7608 Y59.2138
G01 X72.7419 Y59.2138
G01 X72.7366 Y59.2151
G01 X72.7297 Y59.2160
G01 X72.7089 Y59.2164
G01 X72.7035 Y59.2176
G01 X72.6967 Y59.2186
G01 X72.6758 Y59.2189
G01 X72.6705 Y59.2202
G01 X72.6636 Y59.2211
G01 X72.6401 Y59.2214
G01 X72.6292 Y59.2235
G01 X72.6211 Y59.2240
G01 X72.6071 Y59.2240
G01 X72.5961 Y59.2261
G01 X72.5881 Y59.2265
G01 X72.5741 Y59.2265
G01 X72.5631 Y59.2286
G01 X72.5551 Y59.2291
G01 X72.5410 Y59.2291
G01 X72.5301 Y59.2312
G01 X72.5221 Y59.2316
G01 X72.5080 Y59.2316
G01 X72.4971 Y59.2337
G01 X72.4891 Y59.2341
G01 X72.4750 Y59.2341
G01 X72.4641 Y59.2362
G01 X72.4560 Y59.2367
G01 X72.4371 Y59.2367
G01 X72.4318 Y59.2379
G01 X72.4249 Y59.2389
G01 X72.4041 Y59.2392
G01 X72.3987 Y59.2405
G01 X72.3919 Y59.2414
G01 X72.3683 Y59.2418
G01 X72.3574 Y59.2439
G01 X72.3494 Y59.2443
G01 X72.3353 Y59.2443
G01 X72.3244 Y59.2464
G01 X72.3163 Y59.2468
G01 X72.3023 Y59.2468
G01 X72.2913 Y59.2489
G01 X72.2833 Y59.2494
G01 X72.2693 Y59.2494
G01 X72.2583 Y59.2515
G01 X72.2503 Y59.2519
G01 X72.2376 Y59.2519
G01 X72.2292 Y59.2514
G01 X72.2209 Y59.2500
G01 X71.6316 Y59.1154
G01 X71.6245 Y59.1134
G01 X71.6176 Y59.1107
G01 X71.6109 Y59.1073
G01 X71.0852 Y58.8051
G01 X71.0788 Y58.8010
G01 X71.0729 Y58.7963
G01 X71.0675 Y58.7910
G01 X70.6560 Y58.3465
G01 X70.6513 Y58.3408
G01 X70.6471 Y58.3347
G01 X70.6435 Y58.3282
G01 X70.3794 Y57.7821
G01 X70.3764 Y57.7751
G01 X70.3742 Y57.7679
G01 X70.3727 Y57.7604
G01 X70.2838 Y57.1610
