(G-CODE GENERATED BY FLATCAM v8.991 - www.flatcam.org - Version Date: 2019/12/27)

(Name: Gateway.txt_cnc_1.0)
(Type: G-code from Excellon)
(Units: MM)

(Created on Wednesday, 17 February 2021 at 17:37)

(Feedrate: 50.0 mm/min)
(Feedrate rapids 1500.0 mm/min)

(Z_Cut: -3.0 mm)
(Z_Move: 2.0 mm)
(Z Toolchange: 15.0 mm)
(X,Y Toolchange: 0.0000, 0.0000 mm)
(Z Start: None mm)
(Z End: 0.5 mm)
(Steps per circle: 64)
(Preprocessor Excellon: default)

(X range:    3.5814 ...   73.8886  mm)
(Y range:    3.5814 ...   58.6486  mm)

(Spindle Speed: None RPM)
G21
G90
G94




G01 F50.00
G00 Z2.0000

M03
G00 X66.0400 Y39.3700
G01 Z-3.0000
G01 Z0
G00 Z2.0000
G00 X66.0400 Y41.9100
G01 Z-3.0000
G01 Z0
G00 Z2.0000
G00 X66.0400 Y44.4500
G01 Z-3.0000
G01 Z0
G00 Z2.0000
G00 X66.0400 Y46.9900
G01 Z-3.0000
G01 Z0
G00 Z2.0000
G00 X38.1000 Y46.9900
G01 Z-3.0000
G01 Z0
G00 Z2.0000
G00 X38.1000 Y44.4500
G01 Z-3.0000
G01 Z0
G00 Z2.0000
G00 X38.1000 Y41.9100
G01 Z-3.0000
G01 Z0
G00 Z2.0000
G00 X38.1000 Y39.3700
G01 Z-3.0000
G01 Z0
G00 Z2.0000
G00 X6.3500 Y35.5600
G01 Z-3.0000
G01 Z0
G00 Z2.0000
G00 X6.3500 Y33.0200
G01 Z-3.0000
G01 Z0
G00 Z2.0000
G00 X6.3500 Y30.4800
G01 Z-3.0000
G01 Z0
G00 Z2.0000
G00 X6.3500 Y27.9400
G01 Z-3.0000
G01 Z0
G00 Z2.0000
G00 X6.3500 Y25.4000
G01 Z-3.0000
G01 Z0
G00 Z2.0000
G00 X6.3500 Y22.8600
G01 Z-3.0000
G01 Z0
G00 Z2.0000
G00 X6.3500 Y20.3200
G01 Z-3.0000
G01 Z0
G00 Z2.0000
G00 X6.3500 Y17.7800
G01 Z-3.0000
G01 Z0
G00 Z2.0000
G00 X31.7500 Y17.7800
G01 Z-3.0000
G01 Z0
G00 Z2.0000
G00 X31.7500 Y20.3200
G01 Z-3.0000
G01 Z0
G00 Z2.0000
G00 X31.7500 Y22.8600
G01 Z-3.0000
G01 Z0
G00 Z2.0000
G00 X31.7500 Y25.4000
G01 Z-3.0000
G01 Z0
G00 Z2.0000
G00 X31.7500 Y27.9400
G01 Z-3.0000
G01 Z0
G00 Z2.0000
G00 X31.7500 Y30.4800
G01 Z-3.0000
G01 Z0
G00 Z2.0000
G00 X31.7500 Y33.0200
G01 Z-3.0000
G01 Z0
G00 Z2.0000
G00 X31.7500 Y35.5600
G01 Z-3.0000
G01 Z0
G00 Z2.0000
G00 X38.1000 Y36.8300
G01 Z-3.0000
G01 Z0
G00 Z2.0000
G00 X38.1000 Y34.2900
G01 Z-3.0000
G01 Z0
G00 Z2.0000
G00 X38.1000 Y31.7500
G01 Z-3.0000
G01 Z0
G00 Z2.0000
G00 X38.1000 Y29.2100
G01 Z-3.0000
G01 Z0
G00 Z2.0000
G00 X38.1000 Y26.6700
G01 Z-3.0000
G01 Z0
G00 Z2.0000
G00 X38.1000 Y24.1300
G01 Z-3.0000
G01 Z0
G00 Z2.0000
G00 X38.1000 Y21.5900
G01 Z-3.0000
G01 Z0
G00 Z2.0000
G00 X38.1000 Y19.0500
G01 Z-3.0000
G01 Z0
G00 Z2.0000
G00 X38.1000 Y16.5100
G01 Z-3.0000
G01 Z0
G00 Z2.0000
G00 X38.1000 Y13.9700
G01 Z-3.0000
G01 Z0
G00 Z2.0000
G00 X38.1000 Y11.4300
G01 Z-3.0000
G01 Z0
G00 Z2.0000
G00 X66.0400 Y11.4300
G01 Z-3.0000
G01 Z0
G00 Z2.0000
G00 X66.0400 Y13.9700
G01 Z-3.0000
G01 Z0
G00 Z2.0000
G00 X66.0400 Y16.5100
G01 Z-3.0000
G01 Z0
G00 Z2.0000
G00 X66.0400 Y19.0500
G01 Z-3.0000
G01 Z0
G00 Z2.0000
G00 X66.0400 Y21.5900
G01 Z-3.0000
G01 Z0
G00 Z2.0000
G00 X66.0400 Y24.1300
G01 Z-3.0000
G01 Z0
G00 Z2.0000
G00 X66.0400 Y26.6700
G01 Z-3.0000
G01 Z0
G00 Z2.0000
G00 X66.0400 Y29.2100
G01 Z-3.0000
G01 Z0
G00 Z2.0000
G00 X66.0400 Y31.7500
G01 Z-3.0000
G01 Z0
G00 Z2.0000
G00 X66.0400 Y34.2900
G01 Z-3.0000
G01 Z0
G00 Z2.0000
G00 X66.0400 Y36.8300
G01 Z-3.0000
G01 Z0
G00 Z2.0000
M05
G00 Z0.50
G00 X0.0 Y0.0

