(G-CODE GENERATED BY FLATCAM v8.991 - www.flatcam.org - Version Date: 2019/12/27)

(Name: Gateway.txt_cnc_0.8)
(Type: G-code from Excellon)
(Units: MM)

(Created on Wednesday, 17 February 2021 at 17:37)

(Feedrate: 50.0 mm/min)
(Feedrate rapids 1500.0 mm/min)

(Z_Cut: -3.0 mm)
(Z_Move: 2.0 mm)
(Z Toolchange: 15.0 mm)
(X,Y Toolchange: 0.0000, 0.0000 mm)
(Z Start: None mm)
(Z End: 0.5 mm)
(Steps per circle: 64)
(Preprocessor Excellon: default)

(X range:    3.5814 ...   73.8886  mm)
(Y range:    3.5814 ...   58.6486  mm)

(Spindle Speed: None RPM)
G21
G90
G94




G01 F50.00
G00 Z2.0000

M03
G00 X27.9400 Y50.8000
G01 Z-3.0000
G01 Z0
G00 Z2.0000
G00 X30.4800 Y50.8000
G01 Z-3.0000
G01 Z0
G00 Z2.0000
G00 X34.2900 Y55.8800
G01 Z-3.0000
G01 Z0
G00 Z2.0000
G00 X24.1300 Y55.8800
G01 Z-3.0000
G01 Z0
G00 Z2.0000
M05
G00 Z0.50
G00 X0.0 Y0.0

