(G-CODE GENERATED BY FLATCAM v8.991 - www.flatcam.org - Version Date: 2019/12/27)

(Name: Air Quality - NCC)
(Type: G-code from Geometry)
(Units: MM)

(Created on Monday, 22 March 2021 at 13:57)

(TOOL DIAMETER: 1.5 mm)
(Feedrate: 40.0 mm/min)
(Feedrate_Z: 10.0 mm/min)
(Feedrate rapids 1500.0 mm/min)

(Z_Cut: -0.15 mm)
(Z_Move: 2.0 mm)
(Z Toolchange: 15.0 mm)
(X,Y Toolchange: 0.0000, 0.0000 mm)
(Z Start: None mm)
(Z End: 15.0 mm)
(Steps per circle: 64)
(Preprocessor Geometry: default)

(X range:   54.2500 ...   68.8500  mm)
(Y range:    1.8500 ...   44.2593  mm)

(Spindle Speed: None RPM)
G21
G90
G94




G01 F40.00
G00 Z2.0000

M03
G00 X54.2500 Y1.8500
G01 F10.00
G01 Z-0.1500
G01 F40.00
G01 X54.2500 Y3.3109
G01 X54.4415 Y3.3902
G01 X54.7785 Y3.3902
G01 X55.0920 Y3.2604
G01 X55.3282 Y3.0243
G01 X55.4602 Y2.7073
G01 X55.4602 Y2.3715
G01 X55.3304 Y2.0580
G01 X55.1225 Y1.8500
G01 X54.2500 Y1.8500
G00 Z2.0000
G00 X56.6300 Y4.0520
G01 F10.00
G01 Z-0.1500
G01 F40.00
G01 X56.6300 Y12.4580
G01 X68.5800 Y12.4580
G01 X68.6201 Y12.4591
G01 X68.6861 Y12.4655
G01 X68.7761 Y12.4841
G01 X68.8210 Y12.4978
G01 X68.8500 Y12.5096
G01 X68.8500 Y3.9999
G01 X68.8153 Y4.0141
G01 X68.7831 Y4.0240
G01 X68.6861 Y4.0445
G01 X68.6168 Y4.0511
G01 X68.5800 Y4.0520
G01 X56.6300 Y4.0520
G01 X57.5300 Y4.9520
G01 X57.5300 Y11.5580
G01 X67.9500 Y11.5580
G01 X67.9500 Y4.9520
G01 X57.5300 Y4.9520
G01 X58.4300 Y5.8520
G01 X58.4300 Y10.6580
G01 X67.0500 Y10.6580
G01 X67.0500 Y5.8520
G01 X58.4300 Y5.8520
G01 X59.3300 Y6.7520
G01 X59.3300 Y9.7580
G01 X66.1500 Y9.7580
G01 X66.1500 Y6.7520
G01 X59.3300 Y6.7520
G01 X60.2300 Y7.6520
G01 X60.2300 Y8.8580
G01 X65.2500 Y8.8580
G01 X65.2500 Y7.6520
G01 X60.2300 Y7.6520
G00 Z2.0000
G00 X68.8500 Y31.9413
G01 F10.00
G01 Z-0.1500
G01 F40.00
G01 X68.8095 Y31.9560
G01 X68.7900 Y31.9620
G01 X68.6861 Y31.9845
G01 X68.6068 Y31.9915
G01 X68.5800 Y31.9920
G01 X59.6780 Y31.9920
G01 X59.6780 Y44.2080
G01 X68.5800 Y44.2080
G01 X68.6334 Y44.2099
G01 X68.6861 Y44.2155
G01 X68.7619 Y44.2304
G01 X68.8322 Y44.2517
G01 X68.8500 Y44.2593
G01 X68.8500 Y31.9413
G01 X67.9500 Y32.8920
G01 X60.5780 Y32.8920
G01 X60.5780 Y43.3080
G01 X67.9500 Y43.3080
G01 X67.9500 Y32.8920
G01 X67.0500 Y33.7920
G01 X61.4780 Y33.7920
G01 X61.4780 Y42.4080
G01 X67.0500 Y42.4080
G01 X67.0500 Y33.7920
G01 X66.1500 Y34.6920
G01 X62.3780 Y34.6920
G01 X62.3780 Y41.5080
G01 X66.1500 Y41.5080
G01 X66.1500 Y34.6920
G01 X65.2500 Y35.5920
G01 X63.2780 Y35.5920
G01 X63.2780 Y40.6080
G01 X65.2500 Y40.6080
G01 X65.2500 Y35.5920
G01 X64.3500 Y36.4920
G01 X64.1780 Y36.4920
G01 X64.1780 Y39.7080
G01 X64.3500 Y39.7080
G01 X64.3500 Y36.4920
G00 Z2.0000
M05
G00 Z2.0000
G00 Z15.00
G00 X0.0 Y0.0

