(G-CODE GENERATED BY FLATCAM v8.991 - www.flatcam.org - Version Date: 2019/12/27)

(Name: Air Quality - Cutout)
(Type: G-code from Geometry)
(Units: MM)

(Created on Monday, 22 March 2021 at 14:46)

(TOOL DIAMETER: 0.8 mm)
(Feedrate: 40.0 mm/min)
(Feedrate_Z: 10.0 mm/min)
(Feedrate rapids 1500.0 mm/min)

(Z_Cut: -2.0 mm)
(Z_Move: 2.0 mm)
(Z Toolchange: 15.0 mm)
(X,Y Toolchange: 0.0000, 0.0000 mm)
(Z Start: None mm)
(Z End: 15.0 mm)
(Steps per circle: 64)
(Preprocessor Geometry: default)

(X range:   -0.4271 ...   69.0071  mm)
(Y range:   -0.4271 ...   53.7671  mm)

(Spindle Speed: None RPM)
G21
G90
G94




G01 F40.00
G00 Z2.0000

M03
G00 X69.0071 Y53.3400
G01 F10.00
G01 Z-2.0000
G01 F40.00
G01 X69.0061 Y53.3672
G01 X69.0032 Y53.3965
G01 X69.0014 Y53.4088
G01 X68.9956 Y53.4377
G01 X68.9926 Y53.4498
G01 X68.9841 Y53.4780
G01 X68.9799 Y53.4897
G01 X68.9686 Y53.5169
G01 X68.9633 Y53.5282
G01 X68.9494 Y53.5541
G01 X68.9430 Y53.5648
G01 X68.9266 Y53.5893
G01 X68.9192 Y53.5993
G01 X68.9005 Y53.6221
G01 X68.8921 Y53.6313
G01 X68.8713 Y53.6521
G01 X68.8621 Y53.6605
G01 X68.8393 Y53.6792
G01 X68.8293 Y53.6866
G01 X68.8048 Y53.7030
G01 X68.7941 Y53.7094
G01 X68.7682 Y53.7233
G01 X68.7569 Y53.7286
G01 X68.7297 Y53.7399
G01 X68.7180 Y53.7441
G01 X68.6898 Y53.7526
G01 X68.6777 Y53.7556
G01 X68.6488 Y53.7614
G01 X68.6365 Y53.7632
G01 X68.6072 Y53.7661
G01 X68.5800 Y53.7671
G01 X4.0640 Y53.7671
G01 X4.0368 Y53.7661
G01 X4.0075 Y53.7632
G01 X3.9952 Y53.7614
G01 X3.9663 Y53.7556
G01 X3.9542 Y53.7526
G01 X3.9260 Y53.7441
G01 X3.9143 Y53.7399
G01 X3.8871 Y53.7286
G01 X3.8758 Y53.7233
G01 X3.8499 Y53.7094
G01 X3.8392 Y53.7030
G01 X3.8147 Y53.6866
G01 X3.8047 Y53.6792
G01 X3.7819 Y53.6605
G01 X3.7620 Y53.6420
G01 X2.2380 Y52.1180
G01 X2.2279 Y52.1073
G01 X2.2195 Y52.0981
G01 X2.2008 Y52.0753
G01 X2.1934 Y52.0653
G01 X2.1770 Y52.0408
G01 X2.1706 Y52.0301
G01 X2.1567 Y52.0042
G01 X2.1514 Y51.9929
G01 X2.1401 Y51.9657
G01 X2.1359 Y51.9540
G01 X2.1274 Y51.9258
G01 X2.1244 Y51.9137
G01 X2.1186 Y51.8848
G01 X2.1168 Y51.8725
G01 X2.1139 Y51.8432
G01 X2.1129 Y51.8160
G01 X2.1129 Y40.5629
G01 X-0.3020 Y38.1480
G01 X-0.3121 Y38.1373
G01 X-0.3205 Y38.1281
G01 X-0.3392 Y38.1053
G01 X-0.3466 Y38.0953
G01 X-0.3630 Y38.0708
G01 X-0.3694 Y38.0601
G01 X-0.3833 Y38.0342
G01 X-0.3886 Y38.0229
G01 X-0.3999 Y37.9957
G01 X-0.4041 Y37.9840
G01 X-0.4126 Y37.9558
G01 X-0.4156 Y37.9437
G01 X-0.4214 Y37.9148
G01 X-0.4232 Y37.9025
G01 X-0.4261 Y37.8732
G01 X-0.4267 Y37.8607
G01 X-0.4271 Y37.8460
G01 X-0.4271 Y5.0800
G01 X-0.4261 Y5.0528
G01 X-0.4232 Y5.0235
G01 X-0.4214 Y5.0112
G01 X-0.4156 Y4.9823
G01 X-0.4126 Y4.9702
G01 X-0.4041 Y4.9420
G01 X-0.3999 Y4.9303
G01 X-0.3886 Y4.9031
G01 X-0.3833 Y4.8918
G01 X-0.3694 Y4.8659
G01 X-0.3630 Y4.8552
G01 X-0.3466 Y4.8307
G01 X-0.3392 Y4.8207
G01 X-0.3205 Y4.7979
G01 X-0.3121 Y4.7887
G01 X-0.3020 Y4.7780
G01 X2.1129 Y2.3631
G01 X2.1129 Y-0.0000
G01 X2.1133 Y-0.0147
G01 X2.1139 Y-0.0272
G01 X2.1168 Y-0.0565
G01 X2.1186 Y-0.0688
G01 X2.1244 Y-0.0977
G01 X2.1274 Y-0.1098
G01 X2.1359 Y-0.1380
G01 X2.1401 Y-0.1497
G01 X2.1514 Y-0.1769
G01 X2.1567 Y-0.1882
G01 X2.1706 Y-0.2141
G01 X2.1770 Y-0.2248
G01 X2.1934 Y-0.2493
G01 X2.2008 Y-0.2593
G01 X2.2195 Y-0.2821
G01 X2.2279 Y-0.2913
G01 X2.2487 Y-0.3121
G01 X2.2579 Y-0.3205
G01 X2.2807 Y-0.3392
G01 X2.2907 Y-0.3466
G01 X2.3152 Y-0.3630
G01 X2.3259 Y-0.3694
G01 X2.3518 Y-0.3833
G01 X2.3631 Y-0.3886
G01 X2.3903 Y-0.3999
G01 X2.4020 Y-0.4041
G01 X2.4302 Y-0.4126
G01 X2.4423 Y-0.4156
G01 X2.4712 Y-0.4214
G01 X2.4835 Y-0.4232
G01 X2.5128 Y-0.4261
G01 X2.5400 Y-0.4271
G01 X68.5800 Y-0.4271
G01 X68.6072 Y-0.4261
G01 X68.6365 Y-0.4232
G01 X68.6488 Y-0.4214
G01 X68.6832 Y-0.4143
G01 X68.6898 Y-0.4126
G01 X68.7180 Y-0.4041
G01 X68.7297 Y-0.3999
G01 X68.7569 Y-0.3886
G01 X68.7682 Y-0.3833
G01 X68.7941 Y-0.3694
G01 X68.8048 Y-0.3630
G01 X68.8293 Y-0.3466
G01 X68.8393 Y-0.3392
G01 X68.8621 Y-0.3205
G01 X68.8713 Y-0.3121
G01 X68.8921 Y-0.2913
G01 X68.9005 Y-0.2821
G01 X68.9215 Y-0.2562
G01 X68.9266 Y-0.2493
G01 X68.9430 Y-0.2248
G01 X68.9494 Y-0.2141
G01 X68.9633 Y-0.1882
G01 X68.9686 Y-0.1769
G01 X68.9812 Y-0.1459
G01 X68.9841 Y-0.1380
G01 X68.9926 Y-0.1098
G01 X68.9956 Y-0.0977
G01 X69.0014 Y-0.0688
G01 X69.0032 Y-0.0565
G01 X69.0061 Y-0.0272
G01 X69.0071 Y0.0000
G01 X69.0071 Y53.3400
G00 Z2.0000
M05
G00 Z2.0000
G00 Z15.00
G00 X0.0 Y0.0

