(G-CODE GENERATED BY FLATCAM v8.991 - www.flatcam.org - Version Date: 2019/12/27)

(Name: Air Quality - iso)
(Type: G-code from Geometry)
(Units: MM)

(Created on Monday, 22 March 2021 at 12:36)

(TOOL DIAMETER: 0.28 mm)
(Feedrate: 100.0 mm/min)
(Feedrate_Z: 60.0 mm/min)
(Feedrate rapids 1500.0 mm/min)

(Z_Cut: -0.15 mm)
(Z_Move: 2.0 mm)
(Z Toolchange: 15.0 mm)
(X,Y Toolchange: 0.0000, 0.0000 mm)
(Z Start: None mm)
(Z End: 15.0 mm)
(Steps per circle: 64)
(Preprocessor Geometry: default)

(X range:   -0.1400 ...   68.7200  mm)
(Y range:   -0.1400 ...   53.4800  mm)

(Spindle Speed: None RPM)
G21
G90
G94




G01 F100.00
G00 Z2.0000

M03
G00 X2.4000 Y0.0000
G01 F60.00
G01 Z-0.1500
G01 F100.00
G01 X2.4007 Y-0.0137
G01 X2.4027 Y-0.0273
G01 X2.4060 Y-0.0406
G01 X2.4107 Y-0.0536
G01 X2.4165 Y-0.0660
G01 X2.4236 Y-0.0778
G01 X2.4318 Y-0.0888
G01 X2.4410 Y-0.0990
G01 X2.4512 Y-0.1082
G01 X2.4622 Y-0.1164
G01 X2.4740 Y-0.1235
G01 X2.4864 Y-0.1293
G01 X2.4994 Y-0.1340
G01 X2.5127 Y-0.1373
G01 X2.5263 Y-0.1393
G01 X2.5400 Y-0.1400
G01 X68.5800 Y-0.1400
G01 X68.5937 Y-0.1393
G01 X68.6073 Y-0.1373
G01 X68.6206 Y-0.1340
G01 X68.6336 Y-0.1293
G01 X68.6460 Y-0.1235
G01 X68.6578 Y-0.1164
G01 X68.6688 Y-0.1082
G01 X68.6790 Y-0.0990
G01 X68.6882 Y-0.0888
G01 X68.6964 Y-0.0778
G01 X68.7035 Y-0.0660
G01 X68.7093 Y-0.0536
G01 X68.7140 Y-0.0406
G01 X68.7173 Y-0.0273
G01 X68.7193 Y-0.0137
G01 X68.7200 Y0.0000
G01 X68.7200 Y3.3020
G01 X68.7193 Y3.3157
G01 X68.7173 Y3.3293
G01 X68.7140 Y3.3426
G01 X68.7093 Y3.3556
G01 X68.7035 Y3.3680
G01 X68.6964 Y3.3798
G01 X68.6882 Y3.3908
G01 X68.6790 Y3.4010
G01 X68.6688 Y3.4102
G01 X68.6578 Y3.4184
G01 X68.6460 Y3.4255
G01 X68.6336 Y3.4313
G01 X68.6206 Y3.4360
G01 X68.6073 Y3.4393
G01 X68.5937 Y3.4413
G01 X68.5800 Y3.4420
G01 X56.0248 Y3.4420
G01 X56.0110 Y3.4413
G01 X55.9974 Y3.4393
G01 X55.9841 Y3.4360
G01 X55.9789 Y3.4341
G01 X55.9882 Y3.4443
G01 X55.9964 Y3.4554
G01 X56.0035 Y3.4672
G01 X56.0093 Y3.4796
G01 X56.0140 Y3.4925
G01 X56.0173 Y3.5058
G01 X56.0193 Y3.5194
G01 X56.0200 Y3.5331
G01 X56.0200 Y13.0680
G01 X68.5800 Y13.0680
G01 X68.5937 Y13.0687
G01 X68.6073 Y13.0707
G01 X68.6206 Y13.0740
G01 X68.6336 Y13.0787
G01 X68.6460 Y13.0845
G01 X68.6578 Y13.0916
G01 X68.6688 Y13.0998
G01 X68.6790 Y13.1090
G01 X68.6882 Y13.1192
G01 X68.6964 Y13.1302
G01 X68.7035 Y13.1420
G01 X68.7093 Y13.1544
G01 X68.7140 Y13.1674
G01 X68.7173 Y13.1807
G01 X68.7193 Y13.1943
G01 X68.7200 Y13.2080
G01 X68.7200 Y31.2420
G01 X68.7193 Y31.2557
G01 X68.7173 Y31.2693
G01 X68.7140 Y31.2826
G01 X68.7093 Y31.2956
G01 X68.7035 Y31.3080
G01 X68.6964 Y31.3198
G01 X68.6882 Y31.3308
G01 X68.6790 Y31.3410
G01 X68.6688 Y31.3502
G01 X68.6578 Y31.3584
G01 X68.6460 Y31.3655
G01 X68.6336 Y31.3713
G01 X68.6206 Y31.3760
G01 X68.6073 Y31.3793
G01 X68.5937 Y31.3813
G01 X68.5800 Y31.3820
G01 X59.0680 Y31.3820
G01 X59.0680 Y44.8180
G01 X68.5800 Y44.8180
G01 X68.5937 Y44.8187
G01 X68.6073 Y44.8207
G01 X68.6206 Y44.8240
G01 X68.6336 Y44.8287
G01 X68.6460 Y44.8345
G01 X68.6578 Y44.8416
G01 X68.6688 Y44.8498
G01 X68.6790 Y44.8590
G01 X68.6882 Y44.8692
G01 X68.6964 Y44.8802
G01 X68.7035 Y44.8920
G01 X68.7093 Y44.9044
G01 X68.7140 Y44.9174
G01 X68.7173 Y44.9307
G01 X68.7193 Y44.9443
G01 X68.7200 Y44.9580
G01 X68.7200 Y53.3400
G01 X68.7193 Y53.3537
G01 X68.7173 Y53.3673
G01 X68.7140 Y53.3806
G01 X68.7093 Y53.3936
G01 X68.7035 Y53.4060
G01 X68.6964 Y53.4178
G01 X68.6882 Y53.4288
G01 X68.6790 Y53.4390
G01 X68.6688 Y53.4482
G01 X68.6578 Y53.4564
G01 X68.6460 Y53.4635
G01 X68.6336 Y53.4693
G01 X68.6206 Y53.4740
G01 X68.6073 Y53.4773
G01 X68.5937 Y53.4793
G01 X68.5800 Y53.4800
G01 X4.0640 Y53.4800
G01 X4.0503 Y53.4793
G01 X4.0367 Y53.4773
G01 X4.0234 Y53.4740
G01 X4.0104 Y53.4693
G01 X3.9980 Y53.4635
G01 X3.9862 Y53.4564
G01 X3.9752 Y53.4482
G01 X3.9650 Y53.4390
G01 X2.4410 Y51.9150
G01 X2.4318 Y51.9048
G01 X2.4236 Y51.8938
G01 X2.4165 Y51.8820
G01 X2.4107 Y51.8696
G01 X2.4060 Y51.8566
G01 X2.4027 Y51.8433
G01 X2.4007 Y51.8297
G01 X2.4000 Y51.8160
G01 X2.4000 Y40.4440
G01 X-0.0990 Y37.9450
G01 X-0.1082 Y37.9348
G01 X-0.1164 Y37.9238
G01 X-0.1235 Y37.9120
G01 X-0.1293 Y37.8996
G01 X-0.1340 Y37.8866
G01 X-0.1373 Y37.8733
G01 X-0.1393 Y37.8597
G01 X-0.1400 Y37.8460
G01 X-0.1400 Y5.0800
G01 X-0.1393 Y5.0663
G01 X-0.1373 Y5.0527
G01 X-0.1340 Y5.0394
G01 X-0.1293 Y5.0264
G01 X-0.1235 Y5.0140
G01 X-0.1164 Y5.0022
G01 X-0.1082 Y4.9912
G01 X-0.0990 Y4.9810
G01 X2.4000 Y2.4820
G01 X2.4000 Y0.0000
G00 Z2.0000
G00 X5.4945 Y1.5421
G01 F60.00
G01 Z-0.1500
G01 F100.00
G01 X6.0779 Y2.1255
G01 X6.0779 Y2.9545
G01 X5.4945 Y3.5379
G01 X4.6655 Y3.5379
G01 X4.0821 Y2.9545
G01 X4.0821 Y2.1255
G01 X4.6655 Y1.5421
G01 X5.4945 Y1.5421
G00 Z2.0000
G00 X6.0582 Y2.8872
G01 F60.00
G01 Z-0.1500
G01 F100.00
G01 X6.0575 Y2.9009
G01 X6.0555 Y2.9145
G01 X6.0522 Y2.9278
G01 X6.0475 Y2.9408
G01 X6.0417 Y2.9532
G01 X6.0346 Y2.9650
G01 X6.0264 Y2.9760
G01 X6.0172 Y2.9862
G01 X5.5262 Y3.4772
G01 X5.5160 Y3.4864
G01 X5.5050 Y3.4946
G01 X5.4932 Y3.5017
G01 X5.4808 Y3.5075
G01 X5.4678 Y3.5122
G01 X5.4545 Y3.5155
G01 X5.4409 Y3.5175
G01 X5.4272 Y3.5182
G01 X4.7328 Y3.5182
G01 X4.7191 Y3.5175
G01 X4.7055 Y3.5155
G01 X4.6922 Y3.5122
G01 X4.6792 Y3.5075
G01 X4.6668 Y3.5017
G01 X4.6550 Y3.4946
G01 X4.6440 Y3.4864
G01 X4.6338 Y3.4772
G01 X4.1428 Y2.9862
G01 X4.1336 Y2.9760
G01 X4.1254 Y2.9650
G01 X4.1183 Y2.9532
G01 X4.1125 Y2.9408
G01 X4.1078 Y2.9278
G01 X4.1045 Y2.9145
G01 X4.1025 Y2.9009
G01 X4.1018 Y2.8872
G01 X4.1018 Y2.1928
G01 X4.1025 Y2.1791
G01 X4.1045 Y2.1655
G01 X4.1078 Y2.1522
G01 X4.1125 Y2.1392
G01 X4.1183 Y2.1268
G01 X4.1254 Y2.1150
G01 X4.1336 Y2.1040
G01 X4.1428 Y2.0938
G01 X4.6338 Y1.6028
G01 X4.6440 Y1.5936
G01 X4.6550 Y1.5854
G01 X4.6668 Y1.5783
G01 X4.6792 Y1.5725
G01 X4.6922 Y1.5678
G01 X4.7055 Y1.5645
G01 X4.7191 Y1.5625
G01 X4.7328 Y1.5618
G01 X5.4272 Y1.5618
G01 X5.4409 Y1.5625
G01 X5.4545 Y1.5645
G01 X5.4678 Y1.5678
G01 X5.4808 Y1.5725
G01 X5.4932 Y1.5783
G01 X5.5050 Y1.5854
G01 X5.5160 Y1.5936
G01 X5.5262 Y1.6028
G01 X6.0172 Y2.0938
G01 X6.0264 Y2.1040
G01 X6.0346 Y2.1150
G01 X6.0417 Y2.1268
G01 X6.0475 Y2.1392
G01 X6.0522 Y2.1522
G01 X6.0555 Y2.1655
G01 X6.0575 Y2.1791
G01 X6.0582 Y2.1928
G01 X6.0582 Y2.8872
G00 Z2.0000
G00 X8.0345 Y1.5421
G01 F60.00
G01 Z-0.1500
G01 F100.00
G01 X8.6179 Y2.1255
G01 X8.6179 Y2.9545
G01 X8.0345 Y3.5379
G01 X7.2055 Y3.5379
G01 X6.6221 Y2.9545
G01 X6.6221 Y2.1255
G01 X7.2055 Y1.5421
G01 X8.0345 Y1.5421
G00 Z2.0000
G00 X8.5982 Y2.8872
G01 F60.00
G01 Z-0.1500
G01 F100.00
G01 X8.5975 Y2.9009
G01 X8.5955 Y2.9145
G01 X8.5922 Y2.9278
G01 X8.5875 Y2.9408
G01 X8.5817 Y2.9532
G01 X8.5746 Y2.9650
G01 X8.5664 Y2.9760
G01 X8.5572 Y2.9862
G01 X8.0662 Y3.4772
G01 X8.0560 Y3.4864
G01 X8.0450 Y3.4946
G01 X8.0332 Y3.5017
G01 X8.0208 Y3.5075
G01 X8.0078 Y3.5122
G01 X7.9945 Y3.5155
G01 X7.9809 Y3.5175
G01 X7.9672 Y3.5182
G01 X7.2728 Y3.5182
G01 X7.2591 Y3.5175
G01 X7.2455 Y3.5155
G01 X7.2322 Y3.5122
G01 X7.2192 Y3.5075
G01 X7.2068 Y3.5017
G01 X7.1950 Y3.4946
G01 X7.1840 Y3.4864
G01 X7.1738 Y3.4772
G01 X6.6828 Y2.9862
G01 X6.6736 Y2.9760
G01 X6.6654 Y2.9650
G01 X6.6583 Y2.9532
G01 X6.6525 Y2.9408
G01 X6.6478 Y2.9278
G01 X6.6445 Y2.9145
G01 X6.6425 Y2.9009
G01 X6.6418 Y2.8872
G01 X6.6418 Y2.1928
G01 X6.6425 Y2.1791
G01 X6.6445 Y2.1655
G01 X6.6478 Y2.1522
G01 X6.6525 Y2.1392
G01 X6.6583 Y2.1268
G01 X6.6654 Y2.1150
G01 X6.6736 Y2.1040
G01 X6.6828 Y2.0938
G01 X7.1738 Y1.6028
G01 X7.1840 Y1.5936
G01 X7.1950 Y1.5854
G01 X7.2068 Y1.5783
G01 X7.2192 Y1.5725
G01 X7.2322 Y1.5678
G01 X7.2455 Y1.5645
G01 X7.2591 Y1.5625
G01 X7.2728 Y1.5618
G01 X7.9672 Y1.5618
G01 X7.9809 Y1.5625
G01 X7.9945 Y1.5645
G01 X8.0078 Y1.5678
G01 X8.0208 Y1.5725
G01 X8.0332 Y1.5783
G01 X8.0450 Y1.5854
G01 X8.0560 Y1.5936
G01 X8.0662 Y1.6028
G01 X8.5572 Y2.0938
G01 X8.5664 Y2.1040
G01 X8.5746 Y2.1150
G01 X8.5817 Y2.1268
G01 X8.5875 Y2.1392
G01 X8.5922 Y2.1522
G01 X8.5955 Y2.1655
G01 X8.5975 Y2.1791
G01 X8.5982 Y2.1928
G01 X8.5982 Y2.8872
G00 Z2.0000
G00 X10.5745 Y1.5421
G01 F60.00
G01 Z-0.1500
G01 F100.00
G01 X11.1579 Y2.1255
G01 X11.1579 Y2.9545
G01 X10.5745 Y3.5379
G01 X9.7455 Y3.5379
G01 X9.1621 Y2.9545
G01 X9.1621 Y2.1255
G01 X9.7455 Y1.5421
G01 X10.5745 Y1.5421
G00 Z2.0000
G00 X11.0972 Y2.0938
G01 F60.00
G01 Z-0.1500
G01 F100.00
G01 X11.1064 Y2.1040
G01 X11.1146 Y2.1150
G01 X11.1217 Y2.1268
G01 X11.1275 Y2.1392
G01 X11.1322 Y2.1522
G01 X11.1355 Y2.1655
G01 X11.1375 Y2.1791
G01 X11.1382 Y2.1928
G01 X11.1382 Y2.8872
G01 X11.1375 Y2.9009
G01 X11.1355 Y2.9145
G01 X11.1322 Y2.9278
G01 X11.1275 Y2.9408
G01 X11.1217 Y2.9532
G01 X11.1146 Y2.9650
G01 X11.1064 Y2.9760
G01 X11.0972 Y2.9862
G01 X10.6062 Y3.4772
G01 X10.5960 Y3.4864
G01 X10.5850 Y3.4946
G01 X10.5732 Y3.5017
G01 X10.5608 Y3.5075
G01 X10.5478 Y3.5122
G01 X10.5345 Y3.5155
G01 X10.5209 Y3.5175
G01 X10.5072 Y3.5182
G01 X9.8128 Y3.5182
G01 X9.7991 Y3.5175
G01 X9.7855 Y3.5155
G01 X9.7722 Y3.5122
G01 X9.7592 Y3.5075
G01 X9.7468 Y3.5017
G01 X9.7350 Y3.4946
G01 X9.7240 Y3.4864
G01 X9.7138 Y3.4772
G01 X9.2228 Y2.9862
G01 X9.2136 Y2.9760
G01 X9.2054 Y2.9650
G01 X9.1983 Y2.9532
G01 X9.1925 Y2.9408
G01 X9.1878 Y2.9278
G01 X9.1845 Y2.9145
G01 X9.1825 Y2.9009
G01 X9.1818 Y2.8872
G01 X9.1818 Y2.1928
G01 X9.1825 Y2.1791
G01 X9.1845 Y2.1655
G01 X9.1878 Y2.1522
G01 X9.1925 Y2.1392
G01 X9.1983 Y2.1268
G01 X9.2054 Y2.1150
G01 X9.2136 Y2.1040
G01 X9.2228 Y2.0938
G01 X9.7138 Y1.6028
G01 X9.7240 Y1.5936
G01 X9.7350 Y1.5854
G01 X9.7468 Y1.5783
G01 X9.7592 Y1.5725
G01 X9.7722 Y1.5678
G01 X9.7855 Y1.5645
G01 X9.7991 Y1.5625
G01 X9.8128 Y1.5618
G01 X10.5072 Y1.5618
G01 X10.5209 Y1.5625
G01 X10.5345 Y1.5645
G01 X10.5478 Y1.5678
G01 X10.5608 Y1.5725
G01 X10.5732 Y1.5783
G01 X10.5850 Y1.5854
G01 X10.5960 Y1.5936
G01 X10.6062 Y1.6028
G01 X11.0972 Y2.0938
G00 Z2.0000
G00 X13.1145 Y1.5421
G01 F60.00
G01 Z-0.1500
G01 F100.00
G01 X13.6979 Y2.1255
G01 X13.6979 Y2.9545
G01 X13.1145 Y3.5379
G01 X12.2855 Y3.5379
G01 X11.7021 Y2.9545
G01 X11.7021 Y2.1255
G01 X12.2855 Y1.5421
G01 X13.1145 Y1.5421
G00 Z2.0000
G00 X13.6372 Y2.0938
G01 F60.00
G01 Z-0.1500
G01 F100.00
G01 X13.6464 Y2.1040
G01 X13.6546 Y2.1150
G01 X13.6617 Y2.1268
G01 X13.6675 Y2.1392
G01 X13.6722 Y2.1522
G01 X13.6755 Y2.1655
G01 X13.6775 Y2.1791
G01 X13.6782 Y2.1928
G01 X13.6782 Y2.8872
G01 X13.6775 Y2.9009
G01 X13.6755 Y2.9145
G01 X13.6722 Y2.9278
G01 X13.6675 Y2.9408
G01 X13.6617 Y2.9532
G01 X13.6546 Y2.9650
G01 X13.6464 Y2.9760
G01 X13.6372 Y2.9862
G01 X13.1462 Y3.4772
G01 X13.1360 Y3.4864
G01 X13.1250 Y3.4946
G01 X13.1132 Y3.5017
G01 X13.1008 Y3.5075
G01 X13.0878 Y3.5122
G01 X13.0745 Y3.5155
G01 X13.0609 Y3.5175
G01 X13.0472 Y3.5182
G01 X12.3528 Y3.5182
G01 X12.3391 Y3.5175
G01 X12.3255 Y3.5155
G01 X12.3122 Y3.5122
G01 X12.2992 Y3.5075
G01 X12.2868 Y3.5017
G01 X12.2750 Y3.4946
G01 X12.2640 Y3.4864
G01 X12.2538 Y3.4772
G01 X11.7628 Y2.9862
G01 X11.7536 Y2.9760
G01 X11.7454 Y2.9650
G01 X11.7383 Y2.9532
G01 X11.7325 Y2.9408
G01 X11.7278 Y2.9278
G01 X11.7245 Y2.9145
G01 X11.7225 Y2.9009
G01 X11.7218 Y2.8872
G01 X11.7218 Y2.1928
G01 X11.7225 Y2.1791
G01 X11.7245 Y2.1655
G01 X11.7278 Y2.1522
G01 X11.7325 Y2.1392
G01 X11.7383 Y2.1268
G01 X11.7454 Y2.1150
G01 X11.7536 Y2.1040
G01 X11.7628 Y2.0938
G01 X12.2538 Y1.6028
G01 X12.2640 Y1.5936
G01 X12.2750 Y1.5854
G01 X12.2868 Y1.5783
G01 X12.2992 Y1.5725
G01 X12.3122 Y1.5678
G01 X12.3255 Y1.5645
G01 X12.3391 Y1.5625
G01 X12.3528 Y1.5618
G01 X13.0472 Y1.5618
G01 X13.0609 Y1.5625
G01 X13.0745 Y1.5645
G01 X13.0878 Y1.5678
G01 X13.1008 Y1.5725
G01 X13.1132 Y1.5783
G01 X13.1250 Y1.5854
G01 X13.1360 Y1.5936
G01 X13.1462 Y1.6028
G01 X13.6372 Y2.0938
G00 Z2.0000
G00 X15.6545 Y1.5421
G01 F60.00
G01 Z-0.1500
G01 F100.00
G01 X16.2379 Y2.1255
G01 X16.2379 Y2.9545
G01 X15.6545 Y3.5379
G01 X14.8255 Y3.5379
G01 X14.2421 Y2.9545
G01 X14.2421 Y2.1255
G01 X14.8255 Y1.5421
G01 X15.6545 Y1.5421
G00 Z2.0000
G00 X16.1772 Y2.0938
G01 F60.00
G01 Z-0.1500
G01 F100.00
G01 X16.1864 Y2.1040
G01 X16.1946 Y2.1150
G01 X16.2017 Y2.1268
G01 X16.2075 Y2.1392
G01 X16.2122 Y2.1522
G01 X16.2155 Y2.1655
G01 X16.2175 Y2.1791
G01 X16.2182 Y2.1928
G01 X16.2182 Y2.8872
G01 X16.2175 Y2.9009
G01 X16.2155 Y2.9145
G01 X16.2122 Y2.9278
G01 X16.2075 Y2.9408
G01 X16.2017 Y2.9532
G01 X16.1946 Y2.9650
G01 X16.1864 Y2.9760
G01 X16.1772 Y2.9862
G01 X15.6862 Y3.4772
G01 X15.6760 Y3.4864
G01 X15.6650 Y3.4946
G01 X15.6532 Y3.5017
G01 X15.6408 Y3.5075
G01 X15.6278 Y3.5122
G01 X15.6145 Y3.5155
G01 X15.6009 Y3.5175
G01 X15.5872 Y3.5182
G01 X14.8928 Y3.5182
G01 X14.8791 Y3.5175
G01 X14.8655 Y3.5155
G01 X14.8522 Y3.5122
G01 X14.8392 Y3.5075
G01 X14.8268 Y3.5017
G01 X14.8150 Y3.4946
G01 X14.8040 Y3.4864
G01 X14.7938 Y3.4772
G01 X14.3028 Y2.9862
G01 X14.2936 Y2.9760
G01 X14.2854 Y2.9650
G01 X14.2783 Y2.9532
G01 X14.2725 Y2.9408
G01 X14.2678 Y2.9278
G01 X14.2645 Y2.9145
G01 X14.2625 Y2.9009
G01 X14.2618 Y2.8872
G01 X14.2618 Y2.1928
G01 X14.2625 Y2.1791
G01 X14.2645 Y2.1655
G01 X14.2678 Y2.1522
G01 X14.2725 Y2.1392
G01 X14.2783 Y2.1268
G01 X14.2854 Y2.1150
G01 X14.2936 Y2.1040
G01 X14.3028 Y2.0938
G01 X14.7938 Y1.6028
G01 X14.8040 Y1.5936
G01 X14.8150 Y1.5854
G01 X14.8268 Y1.5783
G01 X14.8392 Y1.5725
G01 X14.8522 Y1.5678
G01 X14.8655 Y1.5645
G01 X14.8791 Y1.5625
G01 X14.8928 Y1.5618
G01 X15.5872 Y1.5618
G01 X15.6009 Y1.5625
G01 X15.6145 Y1.5645
G01 X15.6278 Y1.5678
G01 X15.6408 Y1.5725
G01 X15.6532 Y1.5783
G01 X15.6650 Y1.5854
G01 X15.6760 Y1.5936
G01 X15.6862 Y1.6028
G01 X16.1772 Y2.0938
G00 Z2.0000
G00 X18.1945 Y1.5421
G01 F60.00
G01 Z-0.1500
G01 F100.00
G01 X18.7779 Y2.1255
G01 X18.7779 Y2.9545
G01 X18.1945 Y3.5379
G01 X17.3655 Y3.5379
G01 X16.7821 Y2.9545
G01 X16.7821 Y2.1255
G01 X17.3655 Y1.5421
G01 X18.1945 Y1.5421
G00 Z2.0000
G00 X18.7172 Y2.0938
G01 F60.00
G01 Z-0.1500
G01 F100.00
G01 X18.7264 Y2.1040
G01 X18.7346 Y2.1150
G01 X18.7417 Y2.1268
G01 X18.7475 Y2.1392
G01 X18.7522 Y2.1522
G01 X18.7555 Y2.1655
G01 X18.7575 Y2.1791
G01 X18.7582 Y2.1928
G01 X18.7582 Y2.8872
G01 X18.7575 Y2.9009
G01 X18.7555 Y2.9145
G01 X18.7522 Y2.9278
G01 X18.7475 Y2.9408
G01 X18.7417 Y2.9532
G01 X18.7346 Y2.9650
G01 X18.7264 Y2.9760
G01 X18.7172 Y2.9862
G01 X18.2262 Y3.4772
G01 X18.2160 Y3.4864
G01 X18.2050 Y3.4946
G01 X18.1932 Y3.5017
G01 X18.1808 Y3.5075
G01 X18.1678 Y3.5122
G01 X18.1545 Y3.5155
G01 X18.1409 Y3.5175
G01 X18.1272 Y3.5182
G01 X17.4328 Y3.5182
G01 X17.4191 Y3.5175
G01 X17.4055 Y3.5155
G01 X17.3922 Y3.5122
G01 X17.3792 Y3.5075
G01 X17.3668 Y3.5017
G01 X17.3550 Y3.4946
G01 X17.3440 Y3.4864
G01 X17.3338 Y3.4772
G01 X16.8428 Y2.9862
G01 X16.8336 Y2.9760
G01 X16.8254 Y2.9650
G01 X16.8183 Y2.9532
G01 X16.8125 Y2.9408
G01 X16.8078 Y2.9278
G01 X16.8045 Y2.9145
G01 X16.8025 Y2.9009
G01 X16.8018 Y2.8872
G01 X16.8018 Y2.1928
G01 X16.8025 Y2.1791
G01 X16.8045 Y2.1655
G01 X16.8078 Y2.1522
G01 X16.8125 Y2.1392
G01 X16.8183 Y2.1268
G01 X16.8254 Y2.1150
G01 X16.8336 Y2.1040
G01 X16.8428 Y2.0938
G01 X17.3338 Y1.6028
G01 X17.3440 Y1.5936
G01 X17.3550 Y1.5854
G01 X17.3668 Y1.5783
G01 X17.3792 Y1.5725
G01 X17.3922 Y1.5678
G01 X17.4055 Y1.5645
G01 X17.4191 Y1.5625
G01 X17.4328 Y1.5618
G01 X18.1272 Y1.5618
G01 X18.1409 Y1.5625
G01 X18.1545 Y1.5645
G01 X18.1678 Y1.5678
G01 X18.1808 Y1.5725
G01 X18.1932 Y1.5783
G01 X18.2050 Y1.5854
G01 X18.2160 Y1.5936
G01 X18.2262 Y1.6028
G01 X18.7172 Y2.0938
G00 Z2.0000
G00 X23.2745 Y1.5421
G01 F60.00
G01 Z-0.1500
G01 F100.00
G01 X23.8579 Y2.1255
G01 X23.8579 Y2.9545
G01 X23.2745 Y3.5379
G01 X22.4455 Y3.5379
G01 X21.8621 Y2.9545
G01 X21.8621 Y2.1255
G01 X22.4455 Y1.5421
G01 X23.2745 Y1.5421
G00 Z2.0000
G00 X23.7972 Y2.0938
G01 F60.00
G01 Z-0.1500
G01 F100.00
G01 X23.8064 Y2.1040
G01 X23.8146 Y2.1150
G01 X23.8217 Y2.1268
G01 X23.8275 Y2.1392
G01 X23.8322 Y2.1522
G01 X23.8355 Y2.1655
G01 X23.8375 Y2.1791
G01 X23.8382 Y2.1928
G01 X23.8382 Y2.8872
G01 X23.8375 Y2.9009
G01 X23.8355 Y2.9145
G01 X23.8322 Y2.9278
G01 X23.8275 Y2.9408
G01 X23.8217 Y2.9532
G01 X23.8146 Y2.9650
G01 X23.8064 Y2.9760
G01 X23.7972 Y2.9862
G01 X23.3062 Y3.4772
G01 X23.2960 Y3.4864
G01 X23.2850 Y3.4946
G01 X23.2732 Y3.5017
G01 X23.2608 Y3.5075
G01 X23.2478 Y3.5122
G01 X23.2345 Y3.5155
G01 X23.2209 Y3.5175
G01 X23.2072 Y3.5182
G01 X22.5128 Y3.5182
G01 X22.4991 Y3.5175
G01 X22.4855 Y3.5155
G01 X22.4722 Y3.5122
G01 X22.4592 Y3.5075
G01 X22.4468 Y3.5017
G01 X22.4350 Y3.4946
G01 X22.4240 Y3.4864
G01 X22.4138 Y3.4772
G01 X21.9228 Y2.9862
G01 X21.9136 Y2.9760
G01 X21.9054 Y2.9650
G01 X21.8983 Y2.9532
G01 X21.8925 Y2.9408
G01 X21.8878 Y2.9278
G01 X21.8845 Y2.9145
G01 X21.8825 Y2.9009
G01 X21.8818 Y2.8872
G01 X21.8818 Y2.1928
G01 X21.8825 Y2.1791
G01 X21.8845 Y2.1655
G01 X21.8878 Y2.1522
G01 X21.8925 Y2.1392
G01 X21.8983 Y2.1268
G01 X21.9054 Y2.1150
G01 X21.9136 Y2.1040
G01 X21.9228 Y2.0938
G01 X22.4138 Y1.6028
G01 X22.4240 Y1.5936
G01 X22.4350 Y1.5854
G01 X22.4468 Y1.5783
G01 X22.4592 Y1.5725
G01 X22.4722 Y1.5678
G01 X22.4855 Y1.5645
G01 X22.4991 Y1.5625
G01 X22.5128 Y1.5618
G01 X23.2072 Y1.5618
G01 X23.2209 Y1.5625
G01 X23.2345 Y1.5645
G01 X23.2478 Y1.5678
G01 X23.2608 Y1.5725
G01 X23.2732 Y1.5783
G01 X23.2850 Y1.5854
G01 X23.2960 Y1.5936
G01 X23.3062 Y1.6028
G01 X23.7972 Y2.0938
G00 Z2.0000
G00 X24.7248 Y7.5619
G01 F60.00
G01 Z-0.1500
G01 F100.00
G01 X25.2041 Y8.0412
G01 X25.2041 Y8.7228
G01 X24.7248 Y9.2021
G01 X24.0432 Y9.2021
G01 X23.5639 Y8.7228
G01 X23.5639 Y8.0412
G01 X24.0432 Y7.5619
G01 X24.7248 Y7.5619
G00 Z2.0000
G00 X25.1434 Y8.0095
G01 F60.00
G01 Z-0.1500
G01 F100.00
G01 X25.1526 Y8.0196
G01 X25.1608 Y8.0307
G01 X25.1679 Y8.0425
G01 X25.1737 Y8.0549
G01 X25.1784 Y8.0678
G01 X25.1817 Y8.0811
G01 X25.1837 Y8.0947
G01 X25.1844 Y8.1085
G01 X25.1844 Y8.6555
G01 X25.1837 Y8.6693
G01 X25.1817 Y8.6829
G01 X25.1784 Y8.6962
G01 X25.1737 Y8.7091
G01 X25.1679 Y8.7215
G01 X25.1608 Y8.7333
G01 X25.1526 Y8.7444
G01 X25.1434 Y8.7545
G01 X24.7565 Y9.1414
G01 X24.7464 Y9.1506
G01 X24.7353 Y9.1588
G01 X24.7235 Y9.1659
G01 X24.7111 Y9.1717
G01 X24.6982 Y9.1764
G01 X24.6849 Y9.1797
G01 X24.6713 Y9.1817
G01 X24.6575 Y9.1824
G01 X24.1105 Y9.1824
G01 X24.0967 Y9.1817
G01 X24.0831 Y9.1797
G01 X24.0698 Y9.1764
G01 X24.0569 Y9.1717
G01 X24.0445 Y9.1659
G01 X24.0327 Y9.1588
G01 X24.0216 Y9.1506
G01 X24.0115 Y9.1414
G01 X23.6246 Y8.7545
G01 X23.6154 Y8.7444
G01 X23.6072 Y8.7333
G01 X23.6001 Y8.7215
G01 X23.5943 Y8.7091
G01 X23.5896 Y8.6962
G01 X23.5863 Y8.6829
G01 X23.5843 Y8.6693
G01 X23.5836 Y8.6555
G01 X23.5836 Y8.1085
G01 X23.5843 Y8.0947
G01 X23.5863 Y8.0811
G01 X23.5896 Y8.0678
G01 X23.5943 Y8.0549
G01 X23.6001 Y8.0425
G01 X23.6072 Y8.0307
G01 X23.6154 Y8.0196
G01 X23.6246 Y8.0095
G01 X24.0115 Y7.6226
G01 X24.0216 Y7.6134
G01 X24.0327 Y7.6052
G01 X24.0445 Y7.5981
G01 X24.0569 Y7.5923
G01 X24.0698 Y7.5876
G01 X24.0831 Y7.5843
G01 X24.0967 Y7.5823
G01 X24.1105 Y7.5816
G01 X24.6575 Y7.5816
G01 X24.6713 Y7.5823
G01 X24.6849 Y7.5843
G01 X24.6982 Y7.5876
G01 X24.7111 Y7.5923
G01 X24.7235 Y7.5981
G01 X24.7353 Y7.6052
G01 X24.7464 Y7.6134
G01 X24.7565 Y7.6226
G01 X25.1434 Y8.0095
G00 Z2.0000
G00 X28.1027 Y12.1415
G01 F60.00
G01 Z-0.1500
G01 F100.00
G01 X28.4018 Y12.2650
G01 X28.6290 Y12.4922
G01 X28.7525 Y12.7913
G01 X28.7525 Y13.1167
G01 X28.6183 Y13.4416
G01 X28.6137 Y13.4545
G01 X28.6104 Y13.4678
G01 X28.6084 Y13.4813
G01 X28.6077 Y13.4950
G01 X28.6077 Y14.6507
G01 X28.6084 Y14.6644
G01 X28.6104 Y14.6780
G01 X28.6138 Y14.6914
G01 X28.6184 Y14.7043
G01 X28.6243 Y14.7167
G01 X28.6313 Y14.7285
G01 X28.6395 Y14.7395
G01 X28.6487 Y14.7497
G01 X31.7323 Y17.8333
G01 X31.7425 Y17.8425
G01 X31.7535 Y17.8507
G01 X31.7653 Y17.8577
G01 X31.7777 Y17.8636
G01 X31.7906 Y17.8682
G01 X31.8040 Y17.8716
G01 X31.8176 Y17.8736
G01 X31.8313 Y17.8743
G01 X62.8066 Y17.8743
G01 X62.8203 Y17.8736
G01 X62.8339 Y17.8716
G01 X62.8472 Y17.8682
G01 X62.8602 Y17.8636
G01 X62.8726 Y17.8577
G01 X62.8844 Y17.8507
G01 X62.8954 Y17.8425
G01 X62.9056 Y17.8333
G01 X62.9774 Y17.7615
G01 X63.3171 Y17.6203
G01 X65.2069 Y17.6203
G01 X65.5466 Y17.7615
G01 X65.8045 Y18.0194
G01 X65.9457 Y18.3591
G01 X65.9457 Y18.7249
G01 X65.8045 Y19.0646
G01 X65.5466 Y19.3225
G01 X65.2069 Y19.4637
G01 X63.3171 Y19.4637
G01 X62.9774 Y19.3225
G01 X62.9056 Y19.2507
G01 X62.8954 Y19.2415
G01 X62.8844 Y19.2333
G01 X62.8726 Y19.2263
G01 X62.8602 Y19.2204
G01 X62.8472 Y19.2158
G01 X62.8339 Y19.2124
G01 X62.8203 Y19.2104
G01 X62.8066 Y19.2097
G01 X31.3636 Y19.2097
G01 X31.1179 Y19.1089
G01 X27.3731 Y15.3641
G01 X27.2723 Y15.1184
G01 X27.2723 Y13.4950
G01 X27.2716 Y13.4813
G01 X27.2696 Y13.4678
G01 X27.2663 Y13.4545
G01 X27.2617 Y13.4416
G01 X27.1275 Y13.1167
G01 X27.1275 Y12.7913
G01 X27.2510 Y12.4922
G01 X27.4782 Y12.2650
G01 X27.7773 Y12.1415
G01 X28.1027 Y12.1415
G00 Z2.0000
G00 X22.8320 Y13.5028
G01 F60.00
G01 Z-0.1500
G01 F100.00
G01 X22.8412 Y13.5130
G01 X22.8494 Y13.5240
G01 X22.8565 Y13.5358
G01 X22.8623 Y13.5482
G01 X22.8670 Y13.5611
G01 X22.8703 Y13.5745
G01 X22.8723 Y13.5880
G01 X22.8730 Y13.6018
G01 X22.8730 Y14.3382
G01 X22.8723 Y14.3520
G01 X22.8703 Y14.3655
G01 X22.8670 Y14.3789
G01 X22.8623 Y14.3918
G01 X22.8565 Y14.4042
G01 X22.8494 Y14.4160
G01 X22.8412 Y14.4270
G01 X22.8320 Y14.4372
G01 X22.3112 Y14.9580
G01 X22.3010 Y14.9672
G01 X22.2900 Y14.9754
G01 X22.2782 Y14.9825
G01 X22.2658 Y14.9883
G01 X22.2529 Y14.9930
G01 X22.2395 Y14.9963
G01 X22.2260 Y14.9983
G01 X22.2122 Y14.9990
G01 X21.4758 Y14.9990
G01 X21.4620 Y14.9983
G01 X21.4485 Y14.9963
G01 X21.4351 Y14.9930
G01 X21.4222 Y14.9883
G01 X21.4098 Y14.9825
G01 X21.3980 Y14.9754
G01 X21.3870 Y14.9672
G01 X21.3768 Y14.9580
G01 X20.8560 Y14.4372
G01 X20.8468 Y14.4270
G01 X20.8386 Y14.4160
G01 X20.8315 Y14.4042
G01 X20.8257 Y14.3918
G01 X20.8210 Y14.3789
G01 X20.8177 Y14.3655
G01 X20.8157 Y14.3520
G01 X20.8150 Y14.3382
G01 X20.8150 Y13.6018
G01 X20.8157 Y13.5880
G01 X20.8177 Y13.5745
G01 X20.8210 Y13.5611
G01 X20.8257 Y13.5482
G01 X20.8315 Y13.5358
G01 X20.8386 Y13.5240
G01 X20.8468 Y13.5130
G01 X20.8560 Y13.5028
G01 X21.3768 Y12.9820
G01 X21.3870 Y12.9728
G01 X21.3980 Y12.9646
G01 X21.4098 Y12.9575
G01 X21.4222 Y12.9517
G01 X21.4351 Y12.9470
G01 X21.4485 Y12.9437
G01 X21.4620 Y12.9417
G01 X21.4758 Y12.9410
G01 X22.2122 Y12.9410
G01 X22.2260 Y12.9417
G01 X22.2395 Y12.9437
G01 X22.2529 Y12.9470
G01 X22.2658 Y12.9517
G01 X22.2782 Y12.9575
G01 X22.2900 Y12.9646
G01 X22.3010 Y12.9728
G01 X22.3112 Y12.9820
G01 X22.8320 Y13.5028
G00 Z2.0000
G00 X22.2788 Y12.9213
G01 F60.00
G01 Z-0.1500
G01 F100.00
G01 X22.8927 Y13.5352
G01 X22.8927 Y14.4048
G01 X22.2788 Y15.0187
G01 X21.4092 Y15.0187
G01 X20.7953 Y14.4048
G01 X20.7953 Y13.5352
G01 X21.4092 Y12.9213
G01 X22.2788 Y12.9213
G00 Z2.0000
G00 X20.3330 Y14.3382
G01 F60.00
G01 Z-0.1500
G01 F100.00
G01 X20.3323 Y14.3520
G01 X20.3303 Y14.3655
G01 X20.3270 Y14.3789
G01 X20.3223 Y14.3918
G01 X20.3165 Y14.4042
G01 X20.3094 Y14.4160
G01 X20.3012 Y14.4270
G01 X20.2920 Y14.4372
G01 X19.7712 Y14.9580
G01 X19.7610 Y14.9672
G01 X19.7500 Y14.9754
G01 X19.7382 Y14.9825
G01 X19.7258 Y14.9883
G01 X19.7129 Y14.9930
G01 X19.6995 Y14.9963
G01 X19.6860 Y14.9983
G01 X19.6722 Y14.9990
G01 X18.9358 Y14.9990
G01 X18.9220 Y14.9983
G01 X18.9085 Y14.9963
G01 X18.8951 Y14.9930
G01 X18.8822 Y14.9883
G01 X18.8698 Y14.9825
G01 X18.8580 Y14.9754
G01 X18.8470 Y14.9672
G01 X18.8368 Y14.9580
G01 X18.3160 Y14.4372
G01 X18.3068 Y14.4270
G01 X18.2986 Y14.4160
G01 X18.2915 Y14.4042
G01 X18.2857 Y14.3918
G01 X18.2810 Y14.3789
G01 X18.2777 Y14.3655
G01 X18.2757 Y14.3520
G01 X18.2750 Y14.3382
G01 X18.2750 Y13.6018
G01 X18.2757 Y13.5880
G01 X18.2777 Y13.5745
G01 X18.2810 Y13.5611
G01 X18.2857 Y13.5482
G01 X18.2915 Y13.5358
G01 X18.2986 Y13.5240
G01 X18.3068 Y13.5130
G01 X18.3160 Y13.5028
G01 X18.8368 Y12.9820
G01 X18.8470 Y12.9728
G01 X18.8580 Y12.9646
G01 X18.8698 Y12.9575
G01 X18.8822 Y12.9517
G01 X18.8951 Y12.9470
G01 X18.9085 Y12.9437
G01 X18.9220 Y12.9417
G01 X18.9358 Y12.9410
G01 X19.6722 Y12.9410
G01 X19.6860 Y12.9417
G01 X19.6995 Y12.9437
G01 X19.7129 Y12.9470
G01 X19.7258 Y12.9517
G01 X19.7382 Y12.9575
G01 X19.7500 Y12.9646
G01 X19.7610 Y12.9728
G01 X19.7712 Y12.9820
G01 X20.2920 Y13.5028
G01 X20.3012 Y13.5130
G01 X20.3094 Y13.5240
G01 X20.3165 Y13.5358
G01 X20.3223 Y13.5482
G01 X20.3270 Y13.5611
G01 X20.3303 Y13.5745
G01 X20.3323 Y13.5880
G01 X20.3330 Y13.6018
G01 X20.3330 Y14.3382
G00 Z2.0000
G00 X19.7388 Y12.9213
G01 F60.00
G01 Z-0.1500
G01 F100.00
G01 X20.3527 Y13.5352
G01 X20.3527 Y14.4048
G01 X19.7388 Y15.0187
G01 X18.8692 Y15.0187
G01 X18.2553 Y14.4048
G01 X18.2553 Y13.5352
G01 X18.8692 Y12.9213
G01 X19.7388 Y12.9213
G00 Z2.0000
G00 X17.1988 Y12.9213
G01 F60.00
G01 Z-0.1500
G01 F100.00
G01 X17.8127 Y13.5352
G01 X17.8127 Y14.4048
G01 X17.4727 Y14.7448
G01 X17.4635 Y14.7549
G01 X17.4553 Y14.7660
G01 X17.4483 Y14.7778
G01 X17.4424 Y14.7902
G01 X17.4378 Y14.8031
G01 X17.4344 Y14.8164
G01 X17.4324 Y14.8300
G01 X17.4317 Y14.8438
G01 X17.4317 Y25.5727
G01 X17.4324 Y25.5864
G01 X17.4344 Y25.6000
G01 X17.4378 Y25.6134
G01 X17.4424 Y25.6263
G01 X17.4483 Y25.6387
G01 X17.4553 Y25.6505
G01 X17.4635 Y25.6615
G01 X17.4727 Y25.6717
G01 X19.2863 Y27.4853
G01 X19.2965 Y27.4945
G01 X19.3075 Y27.5027
G01 X19.3193 Y27.5097
G01 X19.3317 Y27.5156
G01 X19.3446 Y27.5202
G01 X19.3580 Y27.5236
G01 X19.3716 Y27.5256
G01 X19.3853 Y27.5263
G01 X29.0884 Y27.5263
G01 X29.3341 Y27.6271
G01 X40.1909 Y38.4839
G01 X40.2917 Y38.7296
G01 X40.2917 Y45.9410
G01 X40.2924 Y45.9547
G01 X40.2944 Y45.9682
G01 X40.2977 Y45.9815
G01 X40.3023 Y45.9944
G01 X40.4365 Y46.3193
G01 X40.4365 Y46.6447
G01 X40.3130 Y46.9438
G01 X40.0858 Y47.1710
G01 X39.7867 Y47.2945
G01 X39.4613 Y47.2945
G01 X39.1622 Y47.1710
G01 X38.9350 Y46.9438
G01 X38.8115 Y46.6447
G01 X38.8115 Y46.3193
G01 X38.9457 Y45.9944
G01 X38.9503 Y45.9815
G01 X38.9536 Y45.9682
G01 X38.9556 Y45.9547
G01 X38.9563 Y45.9410
G01 X38.9563 Y39.1973
G01 X38.9556 Y39.1836
G01 X38.9536 Y39.1700
G01 X38.9502 Y39.1566
G01 X38.9456 Y39.1437
G01 X38.9397 Y39.1313
G01 X38.9327 Y39.1195
G01 X38.9245 Y39.1085
G01 X38.9153 Y39.0983
G01 X28.7197 Y28.9027
G01 X28.7095 Y28.8935
G01 X28.6985 Y28.8853
G01 X28.6867 Y28.8783
G01 X28.6743 Y28.8724
G01 X28.6614 Y28.8678
G01 X28.6480 Y28.8644
G01 X28.6344 Y28.8624
G01 X28.6207 Y28.8617
G01 X18.9176 Y28.8617
G01 X18.6719 Y28.7609
G01 X16.1971 Y26.2861
G01 X16.0963 Y26.0404
G01 X16.0963 Y14.8438
G01 X16.0956 Y14.8300
G01 X16.0936 Y14.8164
G01 X16.0902 Y14.8031
G01 X16.0856 Y14.7902
G01 X16.0797 Y14.7778
G01 X16.0727 Y14.7660
G01 X16.0645 Y14.7549
G01 X16.0553 Y14.7448
G01 X15.7153 Y14.4048
G01 X15.7153 Y13.5352
G01 X16.3292 Y12.9213
G01 X17.1988 Y12.9213
G00 Z2.0000
G00 X14.6588 Y12.9213
G01 F60.00
G01 Z-0.1500
G01 F100.00
G01 X15.2727 Y13.5352
G01 X15.2727 Y14.4048
G01 X14.9327 Y14.7448
G01 X14.9235 Y14.7549
G01 X14.9153 Y14.7660
G01 X14.9083 Y14.7778
G01 X14.9024 Y14.7902
G01 X14.8978 Y14.8031
G01 X14.8944 Y14.8164
G01 X14.8924 Y14.8300
G01 X14.8917 Y14.8438
G01 X14.8917 Y26.5887
G01 X14.8924 Y26.6024
G01 X14.8944 Y26.6160
G01 X14.8978 Y26.6294
G01 X14.9024 Y26.6423
G01 X14.9083 Y26.6547
G01 X14.9153 Y26.6665
G01 X14.9235 Y26.6775
G01 X14.9327 Y26.6877
G01 X18.2703 Y30.0253
G01 X18.2805 Y30.0345
G01 X18.2915 Y30.0427
G01 X18.3033 Y30.0497
G01 X18.3157 Y30.0556
G01 X18.3286 Y30.0602
G01 X18.3420 Y30.0636
G01 X18.3556 Y30.0656
G01 X18.3693 Y30.0663
G01 X28.0724 Y30.0663
G01 X28.3181 Y30.1671
G01 X37.6509 Y39.4999
G01 X37.7517 Y39.7456
G01 X37.7517 Y45.9410
G01 X37.7524 Y45.9547
G01 X37.7544 Y45.9682
G01 X37.7577 Y45.9815
G01 X37.7623 Y45.9944
G01 X37.8965 Y46.3193
G01 X37.8965 Y46.6447
G01 X37.7730 Y46.9438
G01 X37.5458 Y47.1710
G01 X37.2467 Y47.2945
G01 X36.9213 Y47.2945
G01 X36.6222 Y47.1710
G01 X36.3950 Y46.9438
G01 X36.2715 Y46.6447
G01 X36.2715 Y46.3193
G01 X36.4057 Y45.9944
G01 X36.4103 Y45.9815
G01 X36.4136 Y45.9682
G01 X36.4156 Y45.9547
G01 X36.4163 Y45.9410
G01 X36.4163 Y40.2133
G01 X36.4156 Y40.1996
G01 X36.4136 Y40.1860
G01 X36.4102 Y40.1726
G01 X36.4056 Y40.1597
G01 X36.3997 Y40.1473
G01 X36.3927 Y40.1355
G01 X36.3845 Y40.1245
G01 X36.3753 Y40.1143
G01 X27.7037 Y31.4427
G01 X27.6935 Y31.4335
G01 X27.6825 Y31.4253
G01 X27.6707 Y31.4183
G01 X27.6583 Y31.4124
G01 X27.6454 Y31.4078
G01 X27.6320 Y31.4044
G01 X27.6184 Y31.4024
G01 X27.6047 Y31.4017
G01 X17.9016 Y31.4017
G01 X17.6559 Y31.3009
G01 X13.6571 Y27.3021
G01 X13.5563 Y27.0564
G01 X13.5563 Y14.8438
G01 X13.5556 Y14.8300
G01 X13.5536 Y14.8164
G01 X13.5502 Y14.8031
G01 X13.5456 Y14.7902
G01 X13.5397 Y14.7778
G01 X13.5327 Y14.7660
G01 X13.5245 Y14.7549
G01 X13.5153 Y14.7448
G01 X13.1753 Y14.4048
G01 X13.1753 Y13.5352
G01 X13.7892 Y12.9213
G01 X14.6588 Y12.9213
G00 Z2.0000
G00 X12.1188 Y12.9213
G01 F60.00
G01 Z-0.1500
G01 F100.00
G01 X12.7327 Y13.5352
G01 X12.7327 Y14.4048
G01 X12.3927 Y14.7448
G01 X12.3835 Y14.7549
G01 X12.3753 Y14.7660
G01 X12.3683 Y14.7778
G01 X12.3624 Y14.7902
G01 X12.3578 Y14.8031
G01 X12.3544 Y14.8164
G01 X12.3524 Y14.8300
G01 X12.3517 Y14.8438
G01 X12.3517 Y27.6047
G01 X12.3524 Y27.6184
G01 X12.3544 Y27.6320
G01 X12.3578 Y27.6454
G01 X12.3624 Y27.6583
G01 X12.3683 Y27.6707
G01 X12.3753 Y27.6825
G01 X12.3835 Y27.6935
G01 X12.3927 Y27.7037
G01 X17.2543 Y32.5653
G01 X17.2645 Y32.5745
G01 X17.2755 Y32.5827
G01 X17.2873 Y32.5897
G01 X17.2997 Y32.5956
G01 X17.3126 Y32.6002
G01 X17.3260 Y32.6036
G01 X17.3396 Y32.6056
G01 X17.3533 Y32.6063
G01 X27.0564 Y32.6063
G01 X27.3021 Y32.7071
G01 X35.1109 Y40.5159
G01 X35.2117 Y40.7616
G01 X35.2117 Y45.9410
G01 X35.2124 Y45.9547
G01 X35.2144 Y45.9682
G01 X35.2177 Y45.9815
G01 X35.2223 Y45.9944
G01 X35.3565 Y46.3193
G01 X35.3565 Y46.6447
G01 X35.2330 Y46.9438
G01 X35.0058 Y47.1710
G01 X34.7067 Y47.2945
G01 X34.3813 Y47.2945
G01 X34.0822 Y47.1710
G01 X33.8550 Y46.9438
G01 X33.7315 Y46.6447
G01 X33.7315 Y46.3193
G01 X33.8657 Y45.9944
G01 X33.8703 Y45.9815
G01 X33.8736 Y45.9682
G01 X33.8756 Y45.9547
G01 X33.8763 Y45.9410
G01 X33.8763 Y41.2293
G01 X33.8756 Y41.2156
G01 X33.8736 Y41.2020
G01 X33.8702 Y41.1886
G01 X33.8656 Y41.1757
G01 X33.8597 Y41.1633
G01 X33.8527 Y41.1515
G01 X33.8445 Y41.1405
G01 X33.8353 Y41.1303
G01 X26.6877 Y33.9827
G01 X26.6775 Y33.9735
G01 X26.6665 Y33.9653
G01 X26.6547 Y33.9583
G01 X26.6423 Y33.9524
G01 X26.6294 Y33.9478
G01 X26.6160 Y33.9444
G01 X26.6024 Y33.9424
G01 X26.5887 Y33.9417
G01 X16.8856 Y33.9417
G01 X16.6399 Y33.8409
G01 X11.1171 Y28.3181
G01 X11.0163 Y28.0724
G01 X11.0163 Y14.8438
G01 X11.0156 Y14.8300
G01 X11.0136 Y14.8164
G01 X11.0102 Y14.8031
G01 X11.0056 Y14.7902
G01 X10.9997 Y14.7778
G01 X10.9927 Y14.7660
G01 X10.9845 Y14.7549
G01 X10.9753 Y14.7448
G01 X10.6353 Y14.4048
G01 X10.6353 Y13.5352
G01 X11.2492 Y12.9213
G01 X12.1188 Y12.9213
G00 Z2.0000
G00 X9.5788 Y12.9213
G01 F60.00
G01 Z-0.1500
G01 F100.00
G01 X10.1927 Y13.5352
G01 X10.1927 Y14.4048
G01 X9.8527 Y14.7448
G01 X9.8435 Y14.7549
G01 X9.8353 Y14.7660
G01 X9.8283 Y14.7778
G01 X9.8224 Y14.7902
G01 X9.8178 Y14.8031
G01 X9.8144 Y14.8164
G01 X9.8124 Y14.8300
G01 X9.8117 Y14.8438
G01 X9.8117 Y28.6207
G01 X9.8124 Y28.6344
G01 X9.8144 Y28.6480
G01 X9.8178 Y28.6614
G01 X9.8224 Y28.6743
G01 X9.8283 Y28.6867
G01 X9.8353 Y28.6985
G01 X9.8435 Y28.7095
G01 X9.8527 Y28.7197
G01 X16.2383 Y35.1053
G01 X16.2485 Y35.1145
G01 X16.2595 Y35.1227
G01 X16.2713 Y35.1297
G01 X16.2837 Y35.1356
G01 X16.2966 Y35.1402
G01 X16.3100 Y35.1436
G01 X16.3236 Y35.1456
G01 X16.3373 Y35.1463
G01 X26.0404 Y35.1463
G01 X26.2861 Y35.2471
G01 X32.5709 Y41.5319
G01 X32.6717 Y41.7776
G01 X32.6717 Y45.9410
G01 X32.6724 Y45.9547
G01 X32.6744 Y45.9682
G01 X32.6777 Y45.9815
G01 X32.6823 Y45.9944
G01 X32.8165 Y46.3193
G01 X32.8165 Y46.6447
G01 X32.6930 Y46.9438
G01 X32.4658 Y47.1710
G01 X32.1667 Y47.2945
G01 X31.8413 Y47.2945
G01 X31.5422 Y47.1710
G01 X31.3150 Y46.9438
G01 X31.1915 Y46.6447
G01 X31.1915 Y46.3193
G01 X31.3257 Y45.9944
G01 X31.3303 Y45.9815
G01 X31.3336 Y45.9682
G01 X31.3356 Y45.9547
G01 X31.3363 Y45.9410
G01 X31.3363 Y42.2453
G01 X31.3356 Y42.2316
G01 X31.3336 Y42.2180
G01 X31.3302 Y42.2046
G01 X31.3256 Y42.1917
G01 X31.3197 Y42.1793
G01 X31.3127 Y42.1675
G01 X31.3045 Y42.1565
G01 X31.2953 Y42.1463
G01 X25.6717 Y36.5227
G01 X25.6615 Y36.5135
G01 X25.6505 Y36.5053
G01 X25.6387 Y36.4983
G01 X25.6263 Y36.4924
G01 X25.6134 Y36.4878
G01 X25.6000 Y36.4844
G01 X25.5864 Y36.4824
G01 X25.5727 Y36.4817
G01 X15.8696 Y36.4817
G01 X15.6239 Y36.3809
G01 X8.5771 Y29.3341
G01 X8.4763 Y29.0884
G01 X8.4763 Y14.8438
G01 X8.4756 Y14.8300
G01 X8.4736 Y14.8164
G01 X8.4702 Y14.8031
G01 X8.4656 Y14.7902
G01 X8.4597 Y14.7778
G01 X8.4527 Y14.7660
G01 X8.4445 Y14.7549
G01 X8.4353 Y14.7448
G01 X8.0953 Y14.4048
G01 X8.0953 Y13.5352
G01 X8.7092 Y12.9213
G01 X9.5788 Y12.9213
G00 Z2.0000
G00 X2.8297 Y34.0998
G01 F60.00
G01 Z-0.1500
G01 F100.00
G01 X3.3675 Y34.3223
G01 X3.7777 Y34.7325
G01 X4.0002 Y35.2703
G01 X4.0002 Y35.8497
G01 X3.7777 Y36.3875
G01 X3.3675 Y36.7977
G01 X2.8297 Y37.0202
G01 X2.2503 Y37.0202
G01 X1.7125 Y36.7977
G01 X1.3023 Y36.3875
G01 X1.0798 Y35.8497
G01 X1.0798 Y35.2703
G01 X1.3023 Y34.7325
G01 X1.7125 Y34.3223
G01 X2.2503 Y34.0998
G01 X2.8297 Y34.0998
G00 Z2.0000
G00 X14.6588 Y38.3213
G01 F60.00
G01 Z-0.1500
G01 F100.00
G01 X15.2727 Y38.9352
G01 X15.2727 Y39.8048
G01 X14.9327 Y40.1448
G01 X14.9235 Y40.1549
G01 X14.9153 Y40.1660
G01 X14.9083 Y40.1778
G01 X14.9024 Y40.1902
G01 X14.8978 Y40.2031
G01 X14.8944 Y40.2164
G01 X14.8924 Y40.2300
G01 X14.8917 Y40.2438
G01 X14.8917 Y43.8607
G01 X14.8924 Y43.8744
G01 X14.8944 Y43.8880
G01 X14.8978 Y43.9014
G01 X14.9024 Y43.9143
G01 X14.9083 Y43.9267
G01 X14.9153 Y43.9385
G01 X14.9235 Y43.9495
G01 X14.9327 Y43.9597
G01 X15.7303 Y44.7573
G01 X15.7405 Y44.7665
G01 X15.7515 Y44.7747
G01 X15.7633 Y44.7817
G01 X15.7757 Y44.7876
G01 X15.7886 Y44.7922
G01 X15.8020 Y44.7956
G01 X15.8156 Y44.7976
G01 X15.8293 Y44.7983
G01 X28.5804 Y44.7983
G01 X28.8260 Y44.8990
G01 X29.5528 Y45.6283
G01 X29.5630 Y45.6376
G01 X29.5740 Y45.6458
G01 X29.5858 Y45.6529
G01 X29.5983 Y45.6588
G01 X29.6134 Y45.6640
G01 X29.9258 Y45.7930
G01 X30.1530 Y46.0202
G01 X30.2765 Y46.3193
G01 X30.2765 Y46.6447
G01 X30.1530 Y46.9438
G01 X29.9258 Y47.1710
G01 X29.6267 Y47.2945
G01 X29.3013 Y47.2945
G01 X29.0022 Y47.1710
G01 X28.7750 Y46.9438
G01 X28.6460 Y46.6313
G01 X28.6408 Y46.6162
G01 X28.6348 Y46.6037
G01 X28.6277 Y46.5919
G01 X28.6195 Y46.5808
G01 X28.6102 Y46.5707
G01 X28.2114 Y46.1744
G01 X28.2012 Y46.1653
G01 X28.1902 Y46.1571
G01 X28.1785 Y46.1501
G01 X28.1661 Y46.1443
G01 X28.1532 Y46.1397
G01 X28.1399 Y46.1364
G01 X28.1264 Y46.1344
G01 X28.1127 Y46.1337
G01 X15.3616 Y46.1337
G01 X15.1159 Y46.0329
G01 X13.6571 Y44.5741
G01 X13.5563 Y44.3284
G01 X13.5563 Y40.2438
G01 X13.5556 Y40.2300
G01 X13.5536 Y40.2164
G01 X13.5502 Y40.2031
G01 X13.5456 Y40.1902
G01 X13.5397 Y40.1778
G01 X13.5327 Y40.1660
G01 X13.5245 Y40.1549
G01 X13.5153 Y40.1448
G01 X13.1753 Y39.8048
G01 X13.1753 Y38.9352
G01 X13.7892 Y38.3213
G01 X14.6588 Y38.3213
G00 Z2.0000
G00 X17.1988 Y38.3213
G01 F60.00
G01 Z-0.1500
G01 F100.00
G01 X17.8127 Y38.9352
G01 X17.8127 Y39.8048
G01 X17.4727 Y40.1448
G01 X17.4635 Y40.1549
G01 X17.4553 Y40.1660
G01 X17.4483 Y40.1778
G01 X17.4424 Y40.1902
G01 X17.4378 Y40.2031
G01 X17.4344 Y40.2164
G01 X17.4324 Y40.2300
G01 X17.4317 Y40.2438
G01 X17.4317 Y42.1310
G01 X17.4324 Y42.1447
G01 X17.4344 Y42.1582
G01 X17.4377 Y42.1715
G01 X17.4423 Y42.1844
G01 X17.5765 Y42.5093
G01 X17.5765 Y42.8347
G01 X17.4530 Y43.1338
G01 X17.2258 Y43.3610
G01 X16.9267 Y43.4845
G01 X16.6013 Y43.4845
G01 X16.3022 Y43.3610
G01 X16.0750 Y43.1338
G01 X15.9515 Y42.8347
G01 X15.9515 Y42.5093
G01 X16.0857 Y42.1844
G01 X16.0903 Y42.1715
G01 X16.0936 Y42.1582
G01 X16.0956 Y42.1447
G01 X16.0963 Y42.1310
G01 X16.0963 Y40.2438
G01 X16.0956 Y40.2300
G01 X16.0936 Y40.2164
G01 X16.0902 Y40.2031
G01 X16.0856 Y40.1902
G01 X16.0797 Y40.1778
G01 X16.0727 Y40.1660
G01 X16.0645 Y40.1549
G01 X16.0553 Y40.1448
G01 X15.7153 Y39.8048
G01 X15.7153 Y38.9352
G01 X16.3292 Y38.3213
G01 X17.1988 Y38.3213
G00 Z2.0000
G00 X17.7520 Y38.9028
G01 F60.00
G01 Z-0.1500
G01 F100.00
G01 X17.7612 Y38.9130
G01 X17.7694 Y38.9240
G01 X17.7765 Y38.9358
G01 X17.7823 Y38.9482
G01 X17.7870 Y38.9611
G01 X17.7903 Y38.9745
G01 X17.7923 Y38.9880
G01 X17.7930 Y39.0018
G01 X17.7930 Y39.7382
G01 X17.7923 Y39.7520
G01 X17.7903 Y39.7655
G01 X17.7870 Y39.7789
G01 X17.7823 Y39.7918
G01 X17.7765 Y39.8042
G01 X17.7694 Y39.8160
G01 X17.7612 Y39.8270
G01 X17.7520 Y39.8372
G01 X17.4123 Y40.1770
G01 X17.4123 Y42.2145
G01 X17.4202 Y42.2253
G01 X17.4279 Y42.2367
G01 X17.4609 Y42.2917
G01 X17.4673 Y42.3039
G01 X17.4948 Y42.3619
G01 X17.5000 Y42.3746
G01 X17.5217 Y42.4350
G01 X17.5256 Y42.4481
G01 X17.5412 Y42.5104
G01 X17.5439 Y42.5239
G01 X17.5533 Y42.5874
G01 X17.5547 Y42.6010
G01 X17.5578 Y42.6651
G01 X17.5578 Y42.6789
G01 X17.5547 Y42.7430
G01 X17.5533 Y42.7566
G01 X17.5439 Y42.8201
G01 X17.5412 Y42.8336
G01 X17.5256 Y42.8959
G01 X17.5217 Y42.9090
G01 X17.5000 Y42.9694
G01 X17.4948 Y42.9821
G01 X17.4673 Y43.0401
G01 X17.4609 Y43.0523
G01 X17.4279 Y43.1073
G01 X17.4202 Y43.1187
G01 X17.3820 Y43.1703
G01 X17.3733 Y43.1809
G01 X17.3302 Y43.2285
G01 X17.3205 Y43.2382
G01 X17.2729 Y43.2813
G01 X17.2623 Y43.2900
G01 X17.2107 Y43.3282
G01 X17.1993 Y43.3359
G01 X17.1443 Y43.3689
G01 X17.1321 Y43.3753
G01 X17.0741 Y43.4028
G01 X17.0614 Y43.4080
G01 X17.0010 Y43.4297
G01 X16.9879 Y43.4336
G01 X16.9256 Y43.4492
G01 X16.9121 Y43.4519
G01 X16.8486 Y43.4613
G01 X16.8350 Y43.4627
G01 X16.7709 Y43.4658
G01 X16.7571 Y43.4658
G01 X16.6930 Y43.4627
G01 X16.6794 Y43.4613
G01 X16.6159 Y43.4519
G01 X16.6024 Y43.4492
G01 X16.5401 Y43.4336
G01 X16.5270 Y43.4297
G01 X16.4666 Y43.4080
G01 X16.4539 Y43.4028
G01 X16.3959 Y43.3753
G01 X16.3837 Y43.3689
G01 X16.3287 Y43.3359
G01 X16.3173 Y43.3282
G01 X16.2657 Y43.2900
G01 X16.2551 Y43.2813
G01 X16.2075 Y43.2382
G01 X16.1978 Y43.2285
G01 X16.1547 Y43.1809
G01 X16.1460 Y43.1703
G01 X16.1078 Y43.1187
G01 X16.1001 Y43.1073
G01 X16.0671 Y43.0523
G01 X16.0607 Y43.0401
G01 X16.0332 Y42.9821
G01 X16.0280 Y42.9694
G01 X16.0063 Y42.9090
G01 X16.0024 Y42.8959
G01 X15.9868 Y42.8336
G01 X15.9841 Y42.8201
G01 X15.9747 Y42.7566
G01 X15.9733 Y42.7430
G01 X15.9702 Y42.6789
G01 X15.9702 Y42.6651
G01 X15.9733 Y42.6010
G01 X15.9747 Y42.5874
G01 X15.9841 Y42.5239
G01 X15.9868 Y42.5104
G01 X16.0024 Y42.4481
G01 X16.0063 Y42.4350
G01 X16.0280 Y42.3746
G01 X16.0332 Y42.3619
G01 X16.0607 Y42.3039
G01 X16.0671 Y42.2917
G01 X16.1001 Y42.2367
G01 X16.1078 Y42.2253
G01 X16.1157 Y42.2145
G01 X16.1157 Y40.1770
G01 X15.7760 Y39.8372
G01 X15.7668 Y39.8270
G01 X15.7586 Y39.8160
G01 X15.7515 Y39.8042
G01 X15.7457 Y39.7918
G01 X15.7410 Y39.7789
G01 X15.7377 Y39.7655
G01 X15.7357 Y39.7520
G01 X15.7350 Y39.7382
G01 X15.7350 Y39.0018
G01 X15.7357 Y38.9880
G01 X15.7377 Y38.9745
G01 X15.7410 Y38.9611
G01 X15.7457 Y38.9482
G01 X15.7515 Y38.9358
G01 X15.7586 Y38.9240
G01 X15.7668 Y38.9130
G01 X15.7760 Y38.9028
G01 X16.2968 Y38.3820
G01 X16.3070 Y38.3728
G01 X16.3180 Y38.3646
G01 X16.3298 Y38.3575
G01 X16.3422 Y38.3517
G01 X16.3551 Y38.3470
G01 X16.3685 Y38.3437
G01 X16.3820 Y38.3417
G01 X16.3958 Y38.3410
G01 X17.1322 Y38.3410
G01 X17.1460 Y38.3417
G01 X17.1595 Y38.3437
G01 X17.1729 Y38.3470
G01 X17.1858 Y38.3517
G01 X17.1982 Y38.3575
G01 X17.2100 Y38.3646
G01 X17.2210 Y38.3728
G01 X17.2312 Y38.3820
G01 X17.7520 Y38.9028
G00 Z2.0000
G00 X19.7388 Y38.3213
G01 F60.00
G01 Z-0.1500
G01 F100.00
G01 X20.3527 Y38.9352
G01 X20.3527 Y39.8048
G01 X19.7388 Y40.4187
G01 X18.8692 Y40.4187
G01 X18.2553 Y39.8048
G01 X18.2553 Y38.9352
G01 X18.8692 Y38.3213
G01 X19.7388 Y38.3213
G00 Z2.0000
G00 X20.2920 Y38.9028
G01 F60.00
G01 Z-0.1500
G01 F100.00
G01 X20.3012 Y38.9130
G01 X20.3094 Y38.9240
G01 X20.3165 Y38.9358
G01 X20.3223 Y38.9482
G01 X20.3270 Y38.9611
G01 X20.3303 Y38.9745
G01 X20.3323 Y38.9880
G01 X20.3330 Y39.0018
G01 X20.3330 Y39.7382
G01 X20.3323 Y39.7520
G01 X20.3303 Y39.7655
G01 X20.3270 Y39.7789
G01 X20.3223 Y39.7918
G01 X20.3165 Y39.8042
G01 X20.3094 Y39.8160
G01 X20.3012 Y39.8270
G01 X20.2920 Y39.8372
G01 X19.7712 Y40.3580
G01 X19.7610 Y40.3672
G01 X19.7500 Y40.3754
G01 X19.7382 Y40.3825
G01 X19.7258 Y40.3883
G01 X19.7129 Y40.3930
G01 X19.6995 Y40.3963
G01 X19.6860 Y40.3983
G01 X19.6722 Y40.3990
G01 X18.9358 Y40.3990
G01 X18.9220 Y40.3983
G01 X18.9085 Y40.3963
G01 X18.8951 Y40.3930
G01 X18.8822 Y40.3883
G01 X18.8698 Y40.3825
G01 X18.8580 Y40.3754
G01 X18.8470 Y40.3672
G01 X18.8368 Y40.3580
G01 X18.3160 Y39.8372
G01 X18.3068 Y39.8270
G01 X18.2986 Y39.8160
G01 X18.2915 Y39.8042
G01 X18.2857 Y39.7918
G01 X18.2810 Y39.7789
G01 X18.2777 Y39.7655
G01 X18.2757 Y39.7520
G01 X18.2750 Y39.7382
G01 X18.2750 Y39.0018
G01 X18.2757 Y38.9880
G01 X18.2777 Y38.9745
G01 X18.2810 Y38.9611
G01 X18.2857 Y38.9482
G01 X18.2915 Y38.9358
G01 X18.2986 Y38.9240
G01 X18.3068 Y38.9130
G01 X18.3160 Y38.9028
G01 X18.8368 Y38.3820
G01 X18.8470 Y38.3728
G01 X18.8580 Y38.3646
G01 X18.8698 Y38.3575
G01 X18.8822 Y38.3517
G01 X18.8951 Y38.3470
G01 X18.9085 Y38.3437
G01 X18.9220 Y38.3417
G01 X18.9358 Y38.3410
G01 X19.6722 Y38.3410
G01 X19.6860 Y38.3417
G01 X19.6995 Y38.3437
G01 X19.7129 Y38.3470
G01 X19.7258 Y38.3517
G01 X19.7382 Y38.3575
G01 X19.7500 Y38.3646
G01 X19.7610 Y38.3728
G01 X19.7712 Y38.3820
G01 X20.2920 Y38.9028
G00 Z2.0000
G00 X22.2788 Y38.3213
G01 F60.00
G01 Z-0.1500
G01 F100.00
G01 X22.8927 Y38.9352
G01 X22.8927 Y39.8048
G01 X22.2788 Y40.4187
G01 X21.4092 Y40.4187
G01 X20.7953 Y39.8048
G01 X20.7953 Y38.9352
G01 X21.4092 Y38.3213
G01 X22.2788 Y38.3213
G00 Z2.0000
G00 X22.8320 Y38.9028
G01 F60.00
G01 Z-0.1500
G01 F100.00
G01 X22.8412 Y38.9130
G01 X22.8494 Y38.9240
G01 X22.8565 Y38.9358
G01 X22.8623 Y38.9482
G01 X22.8670 Y38.9611
G01 X22.8703 Y38.9745
G01 X22.8723 Y38.9880
G01 X22.8730 Y39.0018
G01 X22.8730 Y39.7382
G01 X22.8723 Y39.7520
G01 X22.8703 Y39.7655
G01 X22.8670 Y39.7789
G01 X22.8623 Y39.7918
G01 X22.8565 Y39.8042
G01 X22.8494 Y39.8160
G01 X22.8412 Y39.8270
G01 X22.8320 Y39.8372
G01 X22.3112 Y40.3580
G01 X22.3010 Y40.3672
G01 X22.2900 Y40.3754
G01 X22.2782 Y40.3825
G01 X22.2658 Y40.3883
G01 X22.2529 Y40.3930
G01 X22.2395 Y40.3963
G01 X22.2260 Y40.3983
G01 X22.2122 Y40.3990
G01 X21.4758 Y40.3990
G01 X21.4620 Y40.3983
G01 X21.4485 Y40.3963
G01 X21.4351 Y40.3930
G01 X21.4222 Y40.3883
G01 X21.4098 Y40.3825
G01 X21.3980 Y40.3754
G01 X21.3870 Y40.3672
G01 X21.3768 Y40.3580
G01 X20.8560 Y39.8372
G01 X20.8468 Y39.8270
G01 X20.8386 Y39.8160
G01 X20.8315 Y39.8042
G01 X20.8257 Y39.7918
G01 X20.8210 Y39.7789
G01 X20.8177 Y39.7655
G01 X20.8157 Y39.7520
G01 X20.8150 Y39.7382
G01 X20.8150 Y39.0018
G01 X20.8157 Y38.9880
G01 X20.8177 Y38.9745
G01 X20.8210 Y38.9611
G01 X20.8257 Y38.9482
G01 X20.8315 Y38.9358
G01 X20.8386 Y38.9240
G01 X20.8468 Y38.9130
G01 X20.8560 Y38.9028
G01 X21.3768 Y38.3820
G01 X21.3870 Y38.3728
G01 X21.3980 Y38.3646
G01 X21.4098 Y38.3575
G01 X21.4222 Y38.3517
G01 X21.4351 Y38.3470
G01 X21.4485 Y38.3437
G01 X21.4620 Y38.3417
G01 X21.4758 Y38.3410
G01 X22.2122 Y38.3410
G01 X22.2260 Y38.3417
G01 X22.2395 Y38.3437
G01 X22.2529 Y38.3470
G01 X22.2658 Y38.3517
G01 X22.2782 Y38.3575
G01 X22.2900 Y38.3646
G01 X22.3010 Y38.3728
G01 X22.3112 Y38.3820
G01 X22.8320 Y38.9028
G00 Z2.0000
G00 X24.8188 Y38.3213
G01 F60.00
G01 Z-0.1500
G01 F100.00
G01 X25.4327 Y38.9352
G01 X25.4327 Y39.8048
G01 X24.8188 Y40.4187
G01 X23.9492 Y40.4187
G01 X23.3353 Y39.8048
G01 X23.3353 Y38.9352
G01 X23.9492 Y38.3213
G01 X24.8188 Y38.3213
G00 Z2.0000
G00 X25.3720 Y38.9028
G01 F60.00
G01 Z-0.1500
G01 F100.00
G01 X25.3812 Y38.9130
G01 X25.3894 Y38.9240
G01 X25.3965 Y38.9358
G01 X25.4023 Y38.9482
G01 X25.4070 Y38.9611
G01 X25.4103 Y38.9745
G01 X25.4123 Y38.9880
G01 X25.4130 Y39.0018
G01 X25.4130 Y39.7382
G01 X25.4123 Y39.7520
G01 X25.4103 Y39.7655
G01 X25.4070 Y39.7789
G01 X25.4023 Y39.7918
G01 X25.3965 Y39.8042
G01 X25.3894 Y39.8160
G01 X25.3812 Y39.8270
G01 X25.3720 Y39.8372
G01 X24.8512 Y40.3580
G01 X24.8410 Y40.3672
G01 X24.8300 Y40.3754
G01 X24.8182 Y40.3825
G01 X24.8058 Y40.3883
G01 X24.7929 Y40.3930
G01 X24.7795 Y40.3963
G01 X24.7660 Y40.3983
G01 X24.7522 Y40.3990
G01 X24.0158 Y40.3990
G01 X24.0020 Y40.3983
G01 X23.9885 Y40.3963
G01 X23.9751 Y40.3930
G01 X23.9622 Y40.3883
G01 X23.9498 Y40.3825
G01 X23.9380 Y40.3754
G01 X23.9270 Y40.3672
G01 X23.9168 Y40.3580
G01 X23.3960 Y39.8372
G01 X23.3868 Y39.8270
G01 X23.3786 Y39.8160
G01 X23.3715 Y39.8042
G01 X23.3657 Y39.7918
G01 X23.3610 Y39.7789
G01 X23.3577 Y39.7655
G01 X23.3557 Y39.7520
G01 X23.3550 Y39.7382
G01 X23.3550 Y39.0018
G01 X23.3557 Y38.9880
G01 X23.3577 Y38.9745
G01 X23.3610 Y38.9611
G01 X23.3657 Y38.9482
G01 X23.3715 Y38.9358
G01 X23.3786 Y38.9240
G01 X23.3868 Y38.9130
G01 X23.3960 Y38.9028
G01 X23.9168 Y38.3820
G01 X23.9270 Y38.3728
G01 X23.9380 Y38.3646
G01 X23.9498 Y38.3575
G01 X23.9622 Y38.3517
G01 X23.9751 Y38.3470
G01 X23.9885 Y38.3437
G01 X24.0020 Y38.3417
G01 X24.0158 Y38.3410
G01 X24.7522 Y38.3410
G01 X24.7660 Y38.3417
G01 X24.7795 Y38.3437
G01 X24.7929 Y38.3470
G01 X24.8058 Y38.3517
G01 X24.8182 Y38.3575
G01 X24.8300 Y38.3646
G01 X24.8410 Y38.3728
G01 X24.8512 Y38.3820
G01 X25.3720 Y38.9028
G00 Z2.0000
G00 X29.5989 Y45.7001
G01 F60.00
G01 Z-0.1500
G01 F100.00
G01 X29.6121 Y45.7021
G01 X29.6256 Y45.7048
G01 X29.6879 Y45.7204
G01 X29.7010 Y45.7243
G01 X29.7614 Y45.7460
G01 X29.7741 Y45.7512
G01 X29.8321 Y45.7787
G01 X29.8443 Y45.7851
G01 X29.8993 Y45.8181
G01 X29.9107 Y45.8258
G01 X29.9623 Y45.8640
G01 X29.9729 Y45.8727
G01 X30.0205 Y45.9158
G01 X30.0302 Y45.9255
G01 X30.0733 Y45.9731
G01 X30.0820 Y45.9837
G01 X30.1202 Y46.0353
G01 X30.1279 Y46.0467
G01 X30.1609 Y46.1017
G01 X30.1673 Y46.1139
G01 X30.1948 Y46.1719
G01 X30.2000 Y46.1846
G01 X30.2217 Y46.2450
G01 X30.2256 Y46.2581
G01 X30.2412 Y46.3204
G01 X30.2439 Y46.3339
G01 X30.2533 Y46.3974
G01 X30.2547 Y46.4110
G01 X30.2578 Y46.4751
G01 X30.2578 Y46.4889
G01 X30.2547 Y46.5530
G01 X30.2533 Y46.5666
G01 X30.2439 Y46.6301
G01 X30.2412 Y46.6436
G01 X30.2256 Y46.7059
G01 X30.2217 Y46.7190
G01 X30.2000 Y46.7794
G01 X30.1948 Y46.7921
G01 X30.1673 Y46.8501
G01 X30.1609 Y46.8623
G01 X30.1279 Y46.9173
G01 X30.1202 Y46.9287
G01 X30.0820 Y46.9803
G01 X30.0733 Y46.9909
G01 X30.0302 Y47.0385
G01 X30.0205 Y47.0482
G01 X29.9729 Y47.0913
G01 X29.9623 Y47.1000
G01 X29.9107 Y47.1382
G01 X29.8993 Y47.1459
G01 X29.8443 Y47.1789
G01 X29.8321 Y47.1853
G01 X29.7741 Y47.2128
G01 X29.7614 Y47.2180
G01 X29.7010 Y47.2397
G01 X29.6879 Y47.2436
G01 X29.6256 Y47.2592
G01 X29.6121 Y47.2619
G01 X29.5486 Y47.2713
G01 X29.5350 Y47.2727
G01 X29.4709 Y47.2758
G01 X29.4571 Y47.2758
G01 X29.3930 Y47.2727
G01 X29.3794 Y47.2713
G01 X29.3159 Y47.2619
G01 X29.3024 Y47.2592
G01 X29.2401 Y47.2436
G01 X29.2270 Y47.2397
G01 X29.1666 Y47.2180
G01 X29.1539 Y47.2128
G01 X29.0959 Y47.1853
G01 X29.0837 Y47.1789
G01 X29.0287 Y47.1459
G01 X29.0173 Y47.1382
G01 X28.9657 Y47.1000
G01 X28.9551 Y47.0913
G01 X28.9075 Y47.0482
G01 X28.8978 Y47.0385
G01 X28.8547 Y46.9909
G01 X28.8460 Y46.9803
G01 X28.8078 Y46.9287
G01 X28.8001 Y46.9173
G01 X28.7671 Y46.8623
G01 X28.7607 Y46.8501
G01 X28.7332 Y46.7921
G01 X28.7280 Y46.7794
G01 X28.7063 Y46.7190
G01 X28.7024 Y46.7059
G01 X28.6868 Y46.6436
G01 X28.6841 Y46.6301
G01 X28.6821 Y46.6169
G01 X28.1795 Y46.1143
G01 X15.4940 Y46.1143
G01 X15.4373 Y46.1116
G01 X15.4236 Y46.1103
G01 X15.3743 Y46.1030
G01 X15.3608 Y46.1003
G01 X15.3124 Y46.0882
G01 X15.2993 Y46.0842
G01 X15.2523 Y46.0674
G01 X15.2396 Y46.0621
G01 X15.1946 Y46.0408
G01 X15.1824 Y46.0343
G01 X15.1397 Y46.0087
G01 X15.1282 Y46.0010
G01 X15.0882 Y45.9713
G01 X15.0776 Y45.9626
G01 X15.0406 Y45.9291
G01 X13.7656 Y44.6544
G01 X13.7274 Y44.6124
G01 X13.7187 Y44.6018
G01 X13.6890 Y44.5618
G01 X13.6813 Y44.5503
G01 X13.6557 Y44.5076
G01 X13.6492 Y44.4954
G01 X13.6279 Y44.4504
G01 X13.6226 Y44.4377
G01 X13.6058 Y44.3907
G01 X13.6018 Y44.3776
G01 X13.5897 Y44.3292
G01 X13.5870 Y44.3157
G01 X13.5797 Y44.2664
G01 X13.5784 Y44.2527
G01 X13.5757 Y44.1960
G01 X13.5757 Y40.1770
G01 X13.2360 Y39.8372
G01 X13.2268 Y39.8270
G01 X13.2186 Y39.8160
G01 X13.2115 Y39.8042
G01 X13.2057 Y39.7918
G01 X13.2010 Y39.7789
G01 X13.1977 Y39.7655
G01 X13.1957 Y39.7520
G01 X13.1950 Y39.7382
G01 X13.1950 Y39.0018
G01 X13.1957 Y38.9880
G01 X13.1977 Y38.9745
G01 X13.2010 Y38.9611
G01 X13.2057 Y38.9482
G01 X13.2115 Y38.9358
G01 X13.2186 Y38.9240
G01 X13.2268 Y38.9130
G01 X13.2360 Y38.9028
G01 X13.7568 Y38.3820
G01 X13.7670 Y38.3728
G01 X13.7780 Y38.3646
G01 X13.7898 Y38.3575
G01 X13.8022 Y38.3517
G01 X13.8151 Y38.3470
G01 X13.8285 Y38.3437
G01 X13.8420 Y38.3417
G01 X13.8558 Y38.3410
G01 X14.5922 Y38.3410
G01 X14.6060 Y38.3417
G01 X14.6195 Y38.3437
G01 X14.6329 Y38.3470
G01 X14.6458 Y38.3517
G01 X14.6582 Y38.3575
G01 X14.6700 Y38.3646
G01 X14.6810 Y38.3728
G01 X14.6912 Y38.3820
G01 X15.2120 Y38.9028
G01 X15.2212 Y38.9130
G01 X15.2294 Y38.9240
G01 X15.2365 Y38.9358
G01 X15.2423 Y38.9482
G01 X15.2470 Y38.9611
G01 X15.2503 Y38.9745
G01 X15.2523 Y38.9880
G01 X15.2530 Y39.0018
G01 X15.2530 Y39.7382
G01 X15.2523 Y39.7520
G01 X15.2503 Y39.7655
G01 X15.2470 Y39.7789
G01 X15.2423 Y39.7918
G01 X15.2365 Y39.8042
G01 X15.2294 Y39.8160
G01 X15.2212 Y39.8270
G01 X15.2120 Y39.8372
G01 X14.8723 Y40.1770
G01 X14.8723 Y43.9275
G01 X15.7625 Y44.8177
G01 X28.4480 Y44.8177
G01 X28.5047 Y44.8204
G01 X28.5184 Y44.8217
G01 X28.5677 Y44.8290
G01 X28.5812 Y44.8317
G01 X28.6296 Y44.8438
G01 X28.6427 Y44.8478
G01 X28.6897 Y44.8646
G01 X28.7024 Y44.8699
G01 X28.7330 Y44.8844
G01 X28.7474 Y44.8912
G01 X28.7596 Y44.8977
G01 X28.8023 Y44.9233
G01 X28.8138 Y44.9310
G01 X28.8538 Y44.9607
G01 X28.8644 Y44.9694
G01 X28.9064 Y45.0076
G01 X29.5989 Y45.7001
G00 Z2.0000
G00 X32.6523 Y46.0245
G01 F60.00
G01 Z-0.1500
G01 F100.00
G01 X32.6602 Y46.0353
G01 X32.6679 Y46.0467
G01 X32.7009 Y46.1017
G01 X32.7073 Y46.1139
G01 X32.7348 Y46.1719
G01 X32.7400 Y46.1846
G01 X32.7617 Y46.2450
G01 X32.7656 Y46.2581
G01 X32.7812 Y46.3204
G01 X32.7839 Y46.3339
G01 X32.7933 Y46.3974
G01 X32.7947 Y46.4110
G01 X32.7978 Y46.4751
G01 X32.7978 Y46.4889
G01 X32.7947 Y46.5530
G01 X32.7933 Y46.5666
G01 X32.7839 Y46.6301
G01 X32.7812 Y46.6436
G01 X32.7656 Y46.7059
G01 X32.7617 Y46.7190
G01 X32.7400 Y46.7794
G01 X32.7348 Y46.7921
G01 X32.7073 Y46.8501
G01 X32.7009 Y46.8623
G01 X32.6679 Y46.9173
G01 X32.6602 Y46.9287
G01 X32.6220 Y46.9803
G01 X32.6133 Y46.9909
G01 X32.5702 Y47.0385
G01 X32.5605 Y47.0482
G01 X32.5129 Y47.0913
G01 X32.5023 Y47.1000
G01 X32.4507 Y47.1382
G01 X32.4393 Y47.1459
G01 X32.3843 Y47.1789
G01 X32.3721 Y47.1853
G01 X32.3141 Y47.2128
G01 X32.3014 Y47.2180
G01 X32.2410 Y47.2397
G01 X32.2279 Y47.2436
G01 X32.1656 Y47.2592
G01 X32.1521 Y47.2619
G01 X32.0886 Y47.2713
G01 X32.0750 Y47.2727
G01 X32.0109 Y47.2758
G01 X31.9971 Y47.2758
G01 X31.9330 Y47.2727
G01 X31.9194 Y47.2713
G01 X31.8559 Y47.2619
G01 X31.8424 Y47.2592
G01 X31.7801 Y47.2436
G01 X31.7670 Y47.2397
G01 X31.7066 Y47.2180
G01 X31.6939 Y47.2128
G01 X31.6359 Y47.1853
G01 X31.6237 Y47.1789
G01 X31.5687 Y47.1459
G01 X31.5573 Y47.1382
G01 X31.5057 Y47.1000
G01 X31.4951 Y47.0913
G01 X31.4475 Y47.0482
G01 X31.4378 Y47.0385
G01 X31.3947 Y46.9909
G01 X31.3860 Y46.9803
G01 X31.3478 Y46.9287
G01 X31.3401 Y46.9173
G01 X31.3071 Y46.8623
G01 X31.3007 Y46.8501
G01 X31.2732 Y46.7921
G01 X31.2680 Y46.7794
G01 X31.2463 Y46.7190
G01 X31.2424 Y46.7059
G01 X31.2268 Y46.6436
G01 X31.2241 Y46.6301
G01 X31.2147 Y46.5666
G01 X31.2133 Y46.5530
G01 X31.2102 Y46.4889
G01 X31.2102 Y46.4751
G01 X31.2133 Y46.4110
G01 X31.2147 Y46.3974
G01 X31.2241 Y46.3339
G01 X31.2268 Y46.3204
G01 X31.2424 Y46.2581
G01 X31.2463 Y46.2450
G01 X31.2680 Y46.1846
G01 X31.2732 Y46.1719
G01 X31.3007 Y46.1139
G01 X31.3071 Y46.1017
G01 X31.3401 Y46.0467
G01 X31.3478 Y46.0353
G01 X31.3557 Y46.0245
G01 X31.3557 Y42.1785
G01 X25.6395 Y36.4623
G01 X16.0020 Y36.4623
G01 X15.9453 Y36.4596
G01 X15.9316 Y36.4583
G01 X15.8823 Y36.4510
G01 X15.8688 Y36.4483
G01 X15.8204 Y36.4362
G01 X15.8073 Y36.4322
G01 X15.7603 Y36.4154
G01 X15.7476 Y36.4101
G01 X15.7026 Y36.3888
G01 X15.6904 Y36.3823
G01 X15.6477 Y36.3567
G01 X15.6362 Y36.3490
G01 X15.5962 Y36.3193
G01 X15.5856 Y36.3106
G01 X15.5436 Y36.2724
G01 X8.6856 Y29.4144
G01 X8.6474 Y29.3724
G01 X8.6387 Y29.3618
G01 X8.6090 Y29.3218
G01 X8.6013 Y29.3103
G01 X8.5757 Y29.2676
G01 X8.5692 Y29.2554
G01 X8.5479 Y29.2104
G01 X8.5426 Y29.1977
G01 X8.5258 Y29.1507
G01 X8.5218 Y29.1376
G01 X8.5097 Y29.0892
G01 X8.5070 Y29.0757
G01 X8.4997 Y29.0264
G01 X8.4984 Y29.0127
G01 X8.4957 Y28.9560
G01 X8.4957 Y14.7770
G01 X8.1560 Y14.4372
G01 X8.1468 Y14.4270
G01 X8.1386 Y14.4160
G01 X8.1315 Y14.4042
G01 X8.1257 Y14.3918
G01 X8.1210 Y14.3789
G01 X8.1177 Y14.3655
G01 X8.1157 Y14.3520
G01 X8.1150 Y14.3382
G01 X8.1150 Y13.6018
G01 X8.1157 Y13.5880
G01 X8.1177 Y13.5745
G01 X8.1210 Y13.5611
G01 X8.1257 Y13.5482
G01 X8.1315 Y13.5358
G01 X8.1386 Y13.5240
G01 X8.1468 Y13.5130
G01 X8.1560 Y13.5028
G01 X8.6768 Y12.9820
G01 X8.6870 Y12.9728
G01 X8.6980 Y12.9646
G01 X8.7098 Y12.9575
G01 X8.7222 Y12.9517
G01 X8.7351 Y12.9470
G01 X8.7485 Y12.9437
G01 X8.7620 Y12.9417
G01 X8.7758 Y12.9410
G01 X9.5122 Y12.9410
G01 X9.5260 Y12.9417
G01 X9.5395 Y12.9437
G01 X9.5529 Y12.9470
G01 X9.5658 Y12.9517
G01 X9.5782 Y12.9575
G01 X9.5900 Y12.9646
G01 X9.6010 Y12.9728
G01 X9.6112 Y12.9820
G01 X10.1320 Y13.5028
G01 X10.1412 Y13.5130
G01 X10.1494 Y13.5240
G01 X10.1565 Y13.5358
G01 X10.1623 Y13.5482
G01 X10.1670 Y13.5611
G01 X10.1703 Y13.5745
G01 X10.1723 Y13.5880
G01 X10.1730 Y13.6018
G01 X10.1730 Y14.3382
G01 X10.1723 Y14.3520
G01 X10.1703 Y14.3655
G01 X10.1670 Y14.3789
G01 X10.1623 Y14.3918
G01 X10.1565 Y14.4042
G01 X10.1494 Y14.4160
G01 X10.1412 Y14.4270
G01 X10.1320 Y14.4372
G01 X9.7923 Y14.7770
G01 X9.7923 Y28.6875
G01 X16.2705 Y35.1657
G01 X25.9080 Y35.1657
G01 X25.9647 Y35.1684
G01 X25.9784 Y35.1697
G01 X26.0277 Y35.1770
G01 X26.0412 Y35.1797
G01 X26.0896 Y35.1918
G01 X26.1027 Y35.1958
G01 X26.1497 Y35.2126
G01 X26.1624 Y35.2179
G01 X26.2074 Y35.2392
G01 X26.2196 Y35.2457
G01 X26.2623 Y35.2713
G01 X26.2738 Y35.2790
G01 X26.3138 Y35.3087
G01 X26.3244 Y35.3174
G01 X26.3664 Y35.3556
G01 X32.4624 Y41.4516
G01 X32.5006 Y41.4936
G01 X32.5093 Y41.5042
G01 X32.5390 Y41.5442
G01 X32.5467 Y41.5557
G01 X32.5723 Y41.5984
G01 X32.5788 Y41.6106
G01 X32.6001 Y41.6556
G01 X32.6054 Y41.6683
G01 X32.6222 Y41.7153
G01 X32.6262 Y41.7284
G01 X32.6383 Y41.7768
G01 X32.6410 Y41.7903
G01 X32.6483 Y41.8396
G01 X32.6496 Y41.8533
G01 X32.6523 Y41.9100
G01 X32.6523 Y46.0245
G00 Z2.0000
G00 X35.1923 Y46.0245
G01 F60.00
G01 Z-0.1500
G01 F100.00
G01 X35.2002 Y46.0353
G01 X35.2079 Y46.0467
G01 X35.2409 Y46.1017
G01 X35.2473 Y46.1139
G01 X35.2748 Y46.1719
G01 X35.2800 Y46.1846
G01 X35.3017 Y46.2450
G01 X35.3056 Y46.2581
G01 X35.3212 Y46.3204
G01 X35.3239 Y46.3339
G01 X35.3333 Y46.3974
G01 X35.3347 Y46.4110
G01 X35.3378 Y46.4751
G01 X35.3378 Y46.4889
G01 X35.3347 Y46.5530
G01 X35.3333 Y46.5666
G01 X35.3239 Y46.6301
G01 X35.3212 Y46.6436
G01 X35.3056 Y46.7059
G01 X35.3017 Y46.7190
G01 X35.2800 Y46.7794
G01 X35.2748 Y46.7921
G01 X35.2473 Y46.8501
G01 X35.2409 Y46.8623
G01 X35.2079 Y46.9173
G01 X35.2002 Y46.9287
G01 X35.1620 Y46.9803
G01 X35.1533 Y46.9909
G01 X35.1102 Y47.0385
G01 X35.1005 Y47.0482
G01 X35.0529 Y47.0913
G01 X35.0423 Y47.1000
G01 X34.9907 Y47.1382
G01 X34.9793 Y47.1459
G01 X34.9243 Y47.1789
G01 X34.9121 Y47.1853
G01 X34.8541 Y47.2128
G01 X34.8414 Y47.2180
G01 X34.7810 Y47.2397
G01 X34.7679 Y47.2436
G01 X34.7056 Y47.2592
G01 X34.6921 Y47.2619
G01 X34.6286 Y47.2713
G01 X34.6150 Y47.2727
G01 X34.5509 Y47.2758
G01 X34.5371 Y47.2758
G01 X34.4730 Y47.2727
G01 X34.4594 Y47.2713
G01 X34.3959 Y47.2619
G01 X34.3824 Y47.2592
G01 X34.3201 Y47.2436
G01 X34.3070 Y47.2397
G01 X34.2466 Y47.2180
G01 X34.2339 Y47.2128
G01 X34.1759 Y47.1853
G01 X34.1637 Y47.1789
G01 X34.1087 Y47.1459
G01 X34.0973 Y47.1382
G01 X34.0457 Y47.1000
G01 X34.0351 Y47.0913
G01 X33.9875 Y47.0482
G01 X33.9778 Y47.0385
G01 X33.9347 Y46.9909
G01 X33.9260 Y46.9803
G01 X33.8878 Y46.9287
G01 X33.8801 Y46.9173
G01 X33.8471 Y46.8623
G01 X33.8407 Y46.8501
G01 X33.8132 Y46.7921
G01 X33.8080 Y46.7794
G01 X33.7863 Y46.7190
G01 X33.7824 Y46.7059
G01 X33.7668 Y46.6436
G01 X33.7641 Y46.6301
G01 X33.7547 Y46.5666
G01 X33.7533 Y46.5530
G01 X33.7502 Y46.4889
G01 X33.7502 Y46.4751
G01 X33.7533 Y46.4110
G01 X33.7547 Y46.3974
G01 X33.7641 Y46.3339
G01 X33.7668 Y46.3204
G01 X33.7824 Y46.2581
G01 X33.7863 Y46.2450
G01 X33.8080 Y46.1846
G01 X33.8132 Y46.1719
G01 X33.8407 Y46.1139
G01 X33.8471 Y46.1017
G01 X33.8801 Y46.0467
G01 X33.8878 Y46.0353
G01 X33.8957 Y46.0245
G01 X33.8957 Y41.1625
G01 X26.6555 Y33.9223
G01 X17.0180 Y33.9223
G01 X16.9613 Y33.9196
G01 X16.9476 Y33.9183
G01 X16.8983 Y33.9110
G01 X16.8848 Y33.9083
G01 X16.8364 Y33.8962
G01 X16.8233 Y33.8922
G01 X16.7763 Y33.8754
G01 X16.7636 Y33.8701
G01 X16.7186 Y33.8488
G01 X16.7064 Y33.8423
G01 X16.6637 Y33.8167
G01 X16.6522 Y33.8090
G01 X16.6122 Y33.7793
G01 X16.6016 Y33.7706
G01 X16.5596 Y33.7324
G01 X11.2256 Y28.3984
G01 X11.1874 Y28.3564
G01 X11.1787 Y28.3458
G01 X11.1490 Y28.3058
G01 X11.1413 Y28.2943
G01 X11.1157 Y28.2516
G01 X11.1092 Y28.2394
G01 X11.0879 Y28.1944
G01 X11.0826 Y28.1817
G01 X11.0658 Y28.1347
G01 X11.0618 Y28.1216
G01 X11.0497 Y28.0732
G01 X11.0470 Y28.0597
G01 X11.0397 Y28.0104
G01 X11.0384 Y27.9967
G01 X11.0357 Y27.9400
G01 X11.0357 Y14.7770
G01 X10.6960 Y14.4372
G01 X10.6868 Y14.4270
G01 X10.6786 Y14.4160
G01 X10.6715 Y14.4042
G01 X10.6657 Y14.3918
G01 X10.6610 Y14.3789
G01 X10.6577 Y14.3655
G01 X10.6557 Y14.3520
G01 X10.6550 Y14.3382
G01 X10.6550 Y13.6018
G01 X10.6557 Y13.5880
G01 X10.6577 Y13.5745
G01 X10.6610 Y13.5611
G01 X10.6657 Y13.5482
G01 X10.6715 Y13.5358
G01 X10.6786 Y13.5240
G01 X10.6868 Y13.5130
G01 X10.6960 Y13.5028
G01 X11.2168 Y12.9820
G01 X11.2270 Y12.9728
G01 X11.2380 Y12.9646
G01 X11.2498 Y12.9575
G01 X11.2622 Y12.9517
G01 X11.2751 Y12.9470
G01 X11.2885 Y12.9437
G01 X11.3020 Y12.9417
G01 X11.3158 Y12.9410
G01 X12.0522 Y12.9410
G01 X12.0660 Y12.9417
G01 X12.0795 Y12.9437
G01 X12.0929 Y12.9470
G01 X12.1058 Y12.9517
G01 X12.1182 Y12.9575
G01 X12.1300 Y12.9646
G01 X12.1410 Y12.9728
G01 X12.1512 Y12.9820
G01 X12.6720 Y13.5028
G01 X12.6812 Y13.5130
G01 X12.6894 Y13.5240
G01 X12.6965 Y13.5358
G01 X12.7023 Y13.5482
G01 X12.7070 Y13.5611
G01 X12.7103 Y13.5745
G01 X12.7123 Y13.5880
G01 X12.7130 Y13.6018
G01 X12.7130 Y14.3382
G01 X12.7123 Y14.3520
G01 X12.7103 Y14.3655
G01 X12.7070 Y14.3789
G01 X12.7023 Y14.3918
G01 X12.6965 Y14.4042
G01 X12.6894 Y14.4160
G01 X12.6812 Y14.4270
G01 X12.6720 Y14.4372
G01 X12.3323 Y14.7770
G01 X12.3323 Y27.6715
G01 X17.2865 Y32.6257
G01 X26.9240 Y32.6257
G01 X26.9807 Y32.6284
G01 X26.9944 Y32.6297
G01 X27.0437 Y32.6370
G01 X27.0572 Y32.6397
G01 X27.1056 Y32.6518
G01 X27.1187 Y32.6558
G01 X27.1657 Y32.6726
G01 X27.1784 Y32.6779
G01 X27.2234 Y32.6992
G01 X27.2356 Y32.7057
G01 X27.2783 Y32.7313
G01 X27.2898 Y32.7390
G01 X27.3298 Y32.7687
G01 X27.3404 Y32.7774
G01 X27.3824 Y32.8156
G01 X35.0024 Y40.4356
G01 X35.0406 Y40.4776
G01 X35.0493 Y40.4882
G01 X35.0790 Y40.5282
G01 X35.0867 Y40.5397
G01 X35.1123 Y40.5824
G01 X35.1188 Y40.5946
G01 X35.1401 Y40.6396
G01 X35.1454 Y40.6523
G01 X35.1622 Y40.6993
G01 X35.1662 Y40.7124
G01 X35.1783 Y40.7608
G01 X35.1810 Y40.7743
G01 X35.1883 Y40.8236
G01 X35.1896 Y40.8373
G01 X35.1923 Y40.8940
G01 X35.1923 Y46.0245
G00 Z2.0000
G00 X37.7323 Y46.0245
G01 F60.00
G01 Z-0.1500
G01 F100.00
G01 X37.7402 Y46.0353
G01 X37.7479 Y46.0467
G01 X37.7809 Y46.1017
G01 X37.7873 Y46.1139
G01 X37.8148 Y46.1719
G01 X37.8200 Y46.1846
G01 X37.8417 Y46.2450
G01 X37.8456 Y46.2581
G01 X37.8612 Y46.3204
G01 X37.8639 Y46.3339
G01 X37.8733 Y46.3974
G01 X37.8747 Y46.4110
G01 X37.8778 Y46.4751
G01 X37.8778 Y46.4889
G01 X37.8747 Y46.5530
G01 X37.8733 Y46.5666
G01 X37.8639 Y46.6301
G01 X37.8612 Y46.6436
G01 X37.8456 Y46.7059
G01 X37.8417 Y46.7190
G01 X37.8200 Y46.7794
G01 X37.8148 Y46.7921
G01 X37.7873 Y46.8501
G01 X37.7809 Y46.8623
G01 X37.7479 Y46.9173
G01 X37.7402 Y46.9287
G01 X37.7020 Y46.9803
G01 X37.6933 Y46.9909
G01 X37.6502 Y47.0385
G01 X37.6405 Y47.0482
G01 X37.5929 Y47.0913
G01 X37.5823 Y47.1000
G01 X37.5307 Y47.1382
G01 X37.5193 Y47.1459
G01 X37.4643 Y47.1789
G01 X37.4521 Y47.1853
G01 X37.3941 Y47.2128
G01 X37.3814 Y47.2180
G01 X37.3210 Y47.2397
G01 X37.3079 Y47.2436
G01 X37.2456 Y47.2592
G01 X37.2321 Y47.2619
G01 X37.1686 Y47.2713
G01 X37.1550 Y47.2727
G01 X37.0909 Y47.2758
G01 X37.0771 Y47.2758
G01 X37.0130 Y47.2727
G01 X36.9994 Y47.2713
G01 X36.9359 Y47.2619
G01 X36.9224 Y47.2592
G01 X36.8601 Y47.2436
G01 X36.8470 Y47.2397
G01 X36.7866 Y47.2180
G01 X36.7739 Y47.2128
G01 X36.7159 Y47.1853
G01 X36.7037 Y47.1789
G01 X36.6487 Y47.1459
G01 X36.6373 Y47.1382
G01 X36.5857 Y47.1000
G01 X36.5751 Y47.0913
G01 X36.5275 Y47.0482
G01 X36.5178 Y47.0385
G01 X36.4747 Y46.9909
G01 X36.4660 Y46.9803
G01 X36.4278 Y46.9287
G01 X36.4201 Y46.9173
G01 X36.3871 Y46.8623
G01 X36.3807 Y46.8501
G01 X36.3532 Y46.7921
G01 X36.3480 Y46.7794
G01 X36.3263 Y46.7190
G01 X36.3224 Y46.7059
G01 X36.3068 Y46.6436
G01 X36.3041 Y46.6301
G01 X36.2947 Y46.5666
G01 X36.2933 Y46.5530
G01 X36.2902 Y46.4889
G01 X36.2902 Y46.4751
G01 X36.2933 Y46.4110
G01 X36.2947 Y46.3974
G01 X36.3041 Y46.3339
G01 X36.3068 Y46.3204
G01 X36.3224 Y46.2581
G01 X36.3263 Y46.2450
G01 X36.3480 Y46.1846
G01 X36.3532 Y46.1719
G01 X36.3807 Y46.1139
G01 X36.3871 Y46.1017
G01 X36.4201 Y46.0467
G01 X36.4278 Y46.0353
G01 X36.4357 Y46.0245
G01 X36.4357 Y40.1465
G01 X27.6715 Y31.3823
G01 X18.0340 Y31.3823
G01 X17.9773 Y31.3796
G01 X17.9636 Y31.3783
G01 X17.9143 Y31.3710
G01 X17.9008 Y31.3683
G01 X17.8524 Y31.3562
G01 X17.8393 Y31.3522
G01 X17.7923 Y31.3354
G01 X17.7796 Y31.3301
G01 X17.7346 Y31.3088
G01 X17.7224 Y31.3023
G01 X17.6797 Y31.2767
G01 X17.6682 Y31.2690
G01 X17.6282 Y31.2393
G01 X17.6176 Y31.2306
G01 X17.5756 Y31.1924
G01 X13.7656 Y27.3824
G01 X13.7274 Y27.3404
G01 X13.7187 Y27.3298
G01 X13.6890 Y27.2898
G01 X13.6813 Y27.2783
G01 X13.6557 Y27.2356
G01 X13.6492 Y27.2234
G01 X13.6279 Y27.1784
G01 X13.6226 Y27.1657
G01 X13.6058 Y27.1187
G01 X13.6018 Y27.1056
G01 X13.5897 Y27.0572
G01 X13.5870 Y27.0437
G01 X13.5797 Y26.9944
G01 X13.5784 Y26.9807
G01 X13.5757 Y26.9240
G01 X13.5757 Y14.7770
G01 X13.2360 Y14.4372
G01 X13.2268 Y14.4270
G01 X13.2186 Y14.4160
G01 X13.2115 Y14.4042
G01 X13.2057 Y14.3918
G01 X13.2010 Y14.3789
G01 X13.1977 Y14.3655
G01 X13.1957 Y14.3520
G01 X13.1950 Y14.3382
G01 X13.1950 Y13.6018
G01 X13.1957 Y13.5880
G01 X13.1977 Y13.5745
G01 X13.2010 Y13.5611
G01 X13.2057 Y13.5482
G01 X13.2115 Y13.5358
G01 X13.2186 Y13.5240
G01 X13.2268 Y13.5130
G01 X13.2360 Y13.5028
G01 X13.7568 Y12.9820
G01 X13.7670 Y12.9728
G01 X13.7780 Y12.9646
G01 X13.7898 Y12.9575
G01 X13.8022 Y12.9517
G01 X13.8151 Y12.9470
G01 X13.8285 Y12.9437
G01 X13.8420 Y12.9417
G01 X13.8558 Y12.9410
G01 X14.5922 Y12.9410
G01 X14.6060 Y12.9417
G01 X14.6195 Y12.9437
G01 X14.6329 Y12.9470
G01 X14.6458 Y12.9517
G01 X14.6582 Y12.9575
G01 X14.6700 Y12.9646
G01 X14.6810 Y12.9728
G01 X14.6912 Y12.9820
G01 X15.2120 Y13.5028
G01 X15.2212 Y13.5130
G01 X15.2294 Y13.5240
G01 X15.2365 Y13.5358
G01 X15.2423 Y13.5482
G01 X15.2470 Y13.5611
G01 X15.2503 Y13.5745
G01 X15.2523 Y13.5880
G01 X15.2530 Y13.6018
G01 X15.2530 Y14.3382
G01 X15.2523 Y14.3520
G01 X15.2503 Y14.3655
G01 X15.2470 Y14.3789
G01 X15.2423 Y14.3918
G01 X15.2365 Y14.4042
G01 X15.2294 Y14.4160
G01 X15.2212 Y14.4270
G01 X15.2120 Y14.4372
G01 X14.8723 Y14.7770
G01 X14.8723 Y26.6555
G01 X18.3025 Y30.0857
G01 X27.9400 Y30.0857
G01 X27.9967 Y30.0884
G01 X28.0104 Y30.0897
G01 X28.0597 Y30.0970
G01 X28.0732 Y30.0997
G01 X28.1216 Y30.1118
G01 X28.1347 Y30.1158
G01 X28.1817 Y30.1326
G01 X28.1944 Y30.1379
G01 X28.2394 Y30.1592
G01 X28.2516 Y30.1657
G01 X28.2676 Y30.1753
G01 X28.2943 Y30.1913
G01 X28.3058 Y30.1990
G01 X28.3458 Y30.2287
G01 X28.3564 Y30.2374
G01 X28.3984 Y30.2756
G01 X37.5424 Y39.4196
G01 X37.5806 Y39.4616
G01 X37.5893 Y39.4722
G01 X37.6190 Y39.5122
G01 X37.6267 Y39.5237
G01 X37.6523 Y39.5664
G01 X37.6588 Y39.5786
G01 X37.6801 Y39.6236
G01 X37.6854 Y39.6363
G01 X37.7022 Y39.6833
G01 X37.7062 Y39.6964
G01 X37.7183 Y39.7448
G01 X37.7210 Y39.7583
G01 X37.7283 Y39.8076
G01 X37.7296 Y39.8213
G01 X37.7323 Y39.8780
G01 X37.7323 Y46.0245
G00 Z2.0000
G00 X40.2723 Y46.0245
G01 F60.00
G01 Z-0.1500
G01 F100.00
G01 X40.2802 Y46.0353
G01 X40.2879 Y46.0467
G01 X40.3209 Y46.1017
G01 X40.3273 Y46.1139
G01 X40.3548 Y46.1719
G01 X40.3600 Y46.1846
G01 X40.3817 Y46.2450
G01 X40.3856 Y46.2581
G01 X40.4012 Y46.3204
G01 X40.4039 Y46.3339
G01 X40.4133 Y46.3974
G01 X40.4147 Y46.4110
G01 X40.4178 Y46.4751
G01 X40.4178 Y46.4889
G01 X40.4147 Y46.5530
G01 X40.4133 Y46.5666
G01 X40.4039 Y46.6301
G01 X40.4012 Y46.6436
G01 X40.3856 Y46.7059
G01 X40.3817 Y46.7190
G01 X40.3600 Y46.7794
G01 X40.3548 Y46.7921
G01 X40.3273 Y46.8501
G01 X40.3209 Y46.8623
G01 X40.2879 Y46.9173
G01 X40.2802 Y46.9287
G01 X40.2420 Y46.9803
G01 X40.2333 Y46.9909
G01 X40.1902 Y47.0385
G01 X40.1805 Y47.0482
G01 X40.1329 Y47.0913
G01 X40.1223 Y47.1000
G01 X40.0707 Y47.1382
G01 X40.0593 Y47.1459
G01 X40.0043 Y47.1789
G01 X39.9921 Y47.1853
G01 X39.9341 Y47.2128
G01 X39.9214 Y47.2180
G01 X39.8610 Y47.2397
G01 X39.8479 Y47.2436
G01 X39.7856 Y47.2592
G01 X39.7721 Y47.2619
G01 X39.7086 Y47.2713
G01 X39.6950 Y47.2727
G01 X39.6309 Y47.2758
G01 X39.6171 Y47.2758
G01 X39.5530 Y47.2727
G01 X39.5394 Y47.2713
G01 X39.4759 Y47.2619
G01 X39.4624 Y47.2592
G01 X39.4001 Y47.2436
G01 X39.3870 Y47.2397
G01 X39.3266 Y47.2180
G01 X39.3139 Y47.2128
G01 X39.2559 Y47.1853
G01 X39.2437 Y47.1789
G01 X39.1887 Y47.1459
G01 X39.1773 Y47.1382
G01 X39.1257 Y47.1000
G01 X39.1151 Y47.0913
G01 X39.0675 Y47.0482
G01 X39.0578 Y47.0385
G01 X39.0147 Y46.9909
G01 X39.0060 Y46.9803
G01 X38.9678 Y46.9287
G01 X38.9601 Y46.9173
G01 X38.9271 Y46.8623
G01 X38.9207 Y46.8501
G01 X38.8932 Y46.7921
G01 X38.8880 Y46.7794
G01 X38.8663 Y46.7190
G01 X38.8624 Y46.7059
G01 X38.8468 Y46.6436
G01 X38.8441 Y46.6301
G01 X38.8347 Y46.5666
G01 X38.8333 Y46.5530
G01 X38.8302 Y46.4889
G01 X38.8302 Y46.4751
G01 X38.8333 Y46.4110
G01 X38.8347 Y46.3974
G01 X38.8441 Y46.3339
G01 X38.8468 Y46.3204
G01 X38.8624 Y46.2581
G01 X38.8663 Y46.2450
G01 X38.8880 Y46.1846
G01 X38.8932 Y46.1719
G01 X38.9207 Y46.1139
G01 X38.9271 Y46.1017
G01 X38.9601 Y46.0467
G01 X38.9678 Y46.0353
G01 X38.9757 Y46.0245
G01 X38.9757 Y39.1305
G01 X28.6875 Y28.8423
G01 X19.0500 Y28.8423
G01 X18.9933 Y28.8396
G01 X18.9796 Y28.8383
G01 X18.9303 Y28.8310
G01 X18.9168 Y28.8283
G01 X18.8684 Y28.8162
G01 X18.8553 Y28.8122
G01 X18.8083 Y28.7954
G01 X18.7956 Y28.7901
G01 X18.7506 Y28.7688
G01 X18.7384 Y28.7623
G01 X18.6957 Y28.7367
G01 X18.6842 Y28.7290
G01 X18.6442 Y28.6993
G01 X18.6336 Y28.6906
G01 X18.5966 Y28.6571
G01 X16.3056 Y26.3664
G01 X16.2674 Y26.3244
G01 X16.2587 Y26.3138
G01 X16.2290 Y26.2738
G01 X16.2213 Y26.2623
G01 X16.1957 Y26.2196
G01 X16.1892 Y26.2074
G01 X16.1679 Y26.1624
G01 X16.1626 Y26.1497
G01 X16.1458 Y26.1027
G01 X16.1418 Y26.0896
G01 X16.1297 Y26.0412
G01 X16.1270 Y26.0277
G01 X16.1197 Y25.9784
G01 X16.1184 Y25.9647
G01 X16.1157 Y25.9080
G01 X16.1157 Y14.7770
G01 X15.7760 Y14.4372
G01 X15.7668 Y14.4270
G01 X15.7586 Y14.4160
G01 X15.7515 Y14.4042
G01 X15.7457 Y14.3918
G01 X15.7410 Y14.3789
G01 X15.7377 Y14.3655
G01 X15.7357 Y14.3520
G01 X15.7350 Y14.3382
G01 X15.7350 Y13.6018
G01 X15.7357 Y13.5880
G01 X15.7377 Y13.5745
G01 X15.7410 Y13.5611
G01 X15.7457 Y13.5482
G01 X15.7515 Y13.5358
G01 X15.7586 Y13.5240
G01 X15.7668 Y13.5130
G01 X15.7760 Y13.5028
G01 X16.2968 Y12.9820
G01 X16.3070 Y12.9728
G01 X16.3180 Y12.9646
G01 X16.3298 Y12.9575
G01 X16.3422 Y12.9517
G01 X16.3551 Y12.9470
G01 X16.3685 Y12.9437
G01 X16.3820 Y12.9417
G01 X16.3958 Y12.9410
G01 X17.1322 Y12.9410
G01 X17.1460 Y12.9417
G01 X17.1595 Y12.9437
G01 X17.1729 Y12.9470
G01 X17.1858 Y12.9517
G01 X17.1982 Y12.9575
G01 X17.2100 Y12.9646
G01 X17.2210 Y12.9728
G01 X17.2312 Y12.9820
G01 X17.7520 Y13.5028
G01 X17.7612 Y13.5130
G01 X17.7694 Y13.5240
G01 X17.7765 Y13.5358
G01 X17.7823 Y13.5482
G01 X17.7870 Y13.5611
G01 X17.7903 Y13.5745
G01 X17.7923 Y13.5880
G01 X17.7930 Y13.6018
G01 X17.7930 Y14.3382
G01 X17.7923 Y14.3520
G01 X17.7903 Y14.3655
G01 X17.7870 Y14.3789
G01 X17.7823 Y14.3918
G01 X17.7765 Y14.4042
G01 X17.7694 Y14.4160
G01 X17.7612 Y14.4270
G01 X17.7520 Y14.4372
G01 X17.4123 Y14.7770
G01 X17.4123 Y25.6395
G01 X19.3185 Y27.5457
G01 X28.9560 Y27.5457
G01 X29.0127 Y27.5484
G01 X29.0264 Y27.5497
G01 X29.0757 Y27.5570
G01 X29.0892 Y27.5597
G01 X29.1376 Y27.5718
G01 X29.1507 Y27.5758
G01 X29.1977 Y27.5926
G01 X29.2104 Y27.5979
G01 X29.2554 Y27.6192
G01 X29.2676 Y27.6257
G01 X29.3103 Y27.6513
G01 X29.3218 Y27.6590
G01 X29.3618 Y27.6887
G01 X29.3724 Y27.6974
G01 X29.4144 Y27.7356
G01 X40.0824 Y38.4036
G01 X40.1206 Y38.4456
G01 X40.1293 Y38.4562
G01 X40.1590 Y38.4962
G01 X40.1667 Y38.5077
G01 X40.1923 Y38.5504
G01 X40.1988 Y38.5626
G01 X40.2201 Y38.6076
G01 X40.2254 Y38.6203
G01 X40.2422 Y38.6673
G01 X40.2462 Y38.6804
G01 X40.2583 Y38.7288
G01 X40.2610 Y38.7423
G01 X40.2683 Y38.7916
G01 X40.2696 Y38.8053
G01 X40.2723 Y38.8620
G01 X40.2723 Y46.0245
G00 Z2.0000
G00 X40.0385 Y49.8021
G01 F60.00
G01 Z-0.1500
G01 F100.00
G01 X40.6219 Y50.3855
G01 X40.6219 Y51.2145
G01 X40.0385 Y51.7979
G01 X39.2095 Y51.7979
G01 X38.6261 Y51.2145
G01 X38.6261 Y50.3855
G01 X39.2095 Y49.8021
G01 X40.0385 Y49.8021
G00 Z2.0000
G00 X40.5612 Y50.3538
G01 F60.00
G01 Z-0.1500
G01 F100.00
G01 X40.5704 Y50.3640
G01 X40.5786 Y50.3750
G01 X40.5857 Y50.3868
G01 X40.5915 Y50.3992
G01 X40.5962 Y50.4122
G01 X40.5995 Y50.4255
G01 X40.6015 Y50.4391
G01 X40.6022 Y50.4528
G01 X40.6022 Y51.1472
G01 X40.6015 Y51.1609
G01 X40.5995 Y51.1745
G01 X40.5962 Y51.1878
G01 X40.5915 Y51.2008
G01 X40.5857 Y51.2132
G01 X40.5786 Y51.2250
G01 X40.5704 Y51.2360
G01 X40.5612 Y51.2462
G01 X40.0702 Y51.7372
G01 X40.0600 Y51.7464
G01 X40.0490 Y51.7546
G01 X40.0372 Y51.7617
G01 X40.0248 Y51.7675
G01 X40.0118 Y51.7722
G01 X39.9985 Y51.7755
G01 X39.9849 Y51.7775
G01 X39.9712 Y51.7782
G01 X39.2768 Y51.7782
G01 X39.2631 Y51.7775
G01 X39.2495 Y51.7755
G01 X39.2362 Y51.7722
G01 X39.2232 Y51.7675
G01 X39.2108 Y51.7617
G01 X39.1990 Y51.7546
G01 X39.1880 Y51.7464
G01 X39.1778 Y51.7372
G01 X38.6868 Y51.2462
G01 X38.6776 Y51.2360
G01 X38.6694 Y51.2250
G01 X38.6623 Y51.2132
G01 X38.6565 Y51.2008
G01 X38.6518 Y51.1878
G01 X38.6485 Y51.1745
G01 X38.6465 Y51.1609
G01 X38.6458 Y51.1472
G01 X38.6458 Y50.4528
G01 X38.6465 Y50.4391
G01 X38.6485 Y50.4255
G01 X38.6518 Y50.4122
G01 X38.6565 Y50.3992
G01 X38.6623 Y50.3868
G01 X38.6694 Y50.3750
G01 X38.6776 Y50.3640
G01 X38.6868 Y50.3538
G01 X39.1778 Y49.8628
G01 X39.1880 Y49.8536
G01 X39.1990 Y49.8454
G01 X39.2108 Y49.8383
G01 X39.2232 Y49.8325
G01 X39.2362 Y49.8278
G01 X39.2495 Y49.8245
G01 X39.2631 Y49.8225
G01 X39.2768 Y49.8218
G01 X39.9712 Y49.8218
G01 X39.9849 Y49.8225
G01 X39.9985 Y49.8245
G01 X40.0118 Y49.8278
G01 X40.0248 Y49.8325
G01 X40.0372 Y49.8383
G01 X40.0490 Y49.8454
G01 X40.0600 Y49.8536
G01 X40.0702 Y49.8628
G01 X40.5612 Y50.3538
G00 Z2.0000
G00 X38.0212 Y50.3538
G01 F60.00
G01 Z-0.1500
G01 F100.00
G01 X38.0304 Y50.3640
G01 X38.0386 Y50.3750
G01 X38.0457 Y50.3868
G01 X38.0515 Y50.3992
G01 X38.0562 Y50.4122
G01 X38.0595 Y50.4255
G01 X38.0615 Y50.4391
G01 X38.0622 Y50.4528
G01 X38.0622 Y51.1472
G01 X38.0615 Y51.1609
G01 X38.0595 Y51.1745
G01 X38.0562 Y51.1878
G01 X38.0515 Y51.2008
G01 X38.0457 Y51.2132
G01 X38.0386 Y51.2250
G01 X38.0304 Y51.2360
G01 X38.0212 Y51.2462
G01 X37.5302 Y51.7372
G01 X37.5200 Y51.7464
G01 X37.5090 Y51.7546
G01 X37.4972 Y51.7617
G01 X37.4848 Y51.7675
G01 X37.4718 Y51.7722
G01 X37.4585 Y51.7755
G01 X37.4449 Y51.7775
G01 X37.4312 Y51.7782
G01 X36.7368 Y51.7782
G01 X36.7231 Y51.7775
G01 X36.7095 Y51.7755
G01 X36.6962 Y51.7722
G01 X36.6832 Y51.7675
G01 X36.6708 Y51.7617
G01 X36.6590 Y51.7546
G01 X36.6480 Y51.7464
G01 X36.6378 Y51.7372
G01 X36.1468 Y51.2462
G01 X36.1376 Y51.2360
G01 X36.1294 Y51.2250
G01 X36.1223 Y51.2132
G01 X36.1165 Y51.2008
G01 X36.1118 Y51.1878
G01 X36.1085 Y51.1745
G01 X36.1065 Y51.1609
G01 X36.1058 Y51.1472
G01 X36.1058 Y50.4528
G01 X36.1065 Y50.4391
G01 X36.1085 Y50.4255
G01 X36.1118 Y50.4122
G01 X36.1165 Y50.3992
G01 X36.1223 Y50.3868
G01 X36.1294 Y50.3750
G01 X36.1376 Y50.3640
G01 X36.1468 Y50.3538
G01 X36.6378 Y49.8628
G01 X36.6480 Y49.8536
G01 X36.6590 Y49.8454
G01 X36.6708 Y49.8383
G01 X36.6832 Y49.8325
G01 X36.6962 Y49.8278
G01 X36.7095 Y49.8245
G01 X36.7231 Y49.8225
G01 X36.7368 Y49.8218
G01 X37.4312 Y49.8218
G01 X37.4449 Y49.8225
G01 X37.4585 Y49.8245
G01 X37.4718 Y49.8278
G01 X37.4848 Y49.8325
G01 X37.4972 Y49.8383
G01 X37.5090 Y49.8454
G01 X37.5200 Y49.8536
G01 X37.5302 Y49.8628
G01 X38.0212 Y50.3538
G00 Z2.0000
G00 X37.4985 Y49.8021
G01 F60.00
G01 Z-0.1500
G01 F100.00
G01 X38.0819 Y50.3855
G01 X38.0819 Y51.2145
G01 X37.4985 Y51.7979
G01 X36.6695 Y51.7979
G01 X36.0861 Y51.2145
G01 X36.0861 Y50.3855
G01 X36.6695 Y49.8021
G01 X37.4985 Y49.8021
G00 Z2.0000
G00 X35.4812 Y50.3538
G01 F60.00
G01 Z-0.1500
G01 F100.00
G01 X35.4904 Y50.3640
G01 X35.4986 Y50.3750
G01 X35.5057 Y50.3868
G01 X35.5115 Y50.3992
G01 X35.5162 Y50.4122
G01 X35.5195 Y50.4255
G01 X35.5215 Y50.4391
G01 X35.5222 Y50.4528
G01 X35.5222 Y51.1472
G01 X35.5215 Y51.1609
G01 X35.5195 Y51.1745
G01 X35.5162 Y51.1878
G01 X35.5115 Y51.2008
G01 X35.5057 Y51.2132
G01 X35.4986 Y51.2250
G01 X35.4904 Y51.2360
G01 X35.4812 Y51.2462
G01 X34.9902 Y51.7372
G01 X34.9800 Y51.7464
G01 X34.9690 Y51.7546
G01 X34.9572 Y51.7617
G01 X34.9448 Y51.7675
G01 X34.9318 Y51.7722
G01 X34.9185 Y51.7755
G01 X34.9049 Y51.7775
G01 X34.8912 Y51.7782
G01 X34.1968 Y51.7782
G01 X34.1831 Y51.7775
G01 X34.1695 Y51.7755
G01 X34.1562 Y51.7722
G01 X34.1432 Y51.7675
G01 X34.1308 Y51.7617
G01 X34.1190 Y51.7546
G01 X34.1080 Y51.7464
G01 X34.0978 Y51.7372
G01 X33.6068 Y51.2462
G01 X33.5976 Y51.2360
G01 X33.5894 Y51.2250
G01 X33.5823 Y51.2132
G01 X33.5765 Y51.2008
G01 X33.5718 Y51.1878
G01 X33.5685 Y51.1745
G01 X33.5665 Y51.1609
G01 X33.5658 Y51.1472
G01 X33.5658 Y50.4528
G01 X33.5665 Y50.4391
G01 X33.5685 Y50.4255
G01 X33.5718 Y50.4122
G01 X33.5765 Y50.3992
G01 X33.5823 Y50.3868
G01 X33.5894 Y50.3750
G01 X33.5976 Y50.3640
G01 X33.6068 Y50.3538
G01 X34.0978 Y49.8628
G01 X34.1080 Y49.8536
G01 X34.1190 Y49.8454
G01 X34.1308 Y49.8383
G01 X34.1432 Y49.8325
G01 X34.1562 Y49.8278
G01 X34.1695 Y49.8245
G01 X34.1831 Y49.8225
G01 X34.1968 Y49.8218
G01 X34.8912 Y49.8218
G01 X34.9049 Y49.8225
G01 X34.9185 Y49.8245
G01 X34.9318 Y49.8278
G01 X34.9448 Y49.8325
G01 X34.9572 Y49.8383
G01 X34.9690 Y49.8454
G01 X34.9800 Y49.8536
G01 X34.9902 Y49.8628
G01 X35.4812 Y50.3538
G00 Z2.0000
G00 X34.9585 Y49.8021
G01 F60.00
G01 Z-0.1500
G01 F100.00
G01 X35.5419 Y50.3855
G01 X35.5419 Y51.2145
G01 X34.9585 Y51.7979
G01 X34.1295 Y51.7979
G01 X33.5461 Y51.2145
G01 X33.5461 Y50.3855
G01 X34.1295 Y49.8021
G01 X34.9585 Y49.8021
G00 Z2.0000
G00 X32.9412 Y50.3538
G01 F60.00
G01 Z-0.1500
G01 F100.00
G01 X32.9504 Y50.3640
G01 X32.9586 Y50.3750
G01 X32.9657 Y50.3868
G01 X32.9715 Y50.3992
G01 X32.9762 Y50.4122
G01 X32.9795 Y50.4255
G01 X32.9815 Y50.4391
G01 X32.9822 Y50.4528
G01 X32.9822 Y51.1472
G01 X32.9815 Y51.1609
G01 X32.9795 Y51.1745
G01 X32.9762 Y51.1878
G01 X32.9715 Y51.2008
G01 X32.9657 Y51.2132
G01 X32.9586 Y51.2250
G01 X32.9504 Y51.2360
G01 X32.9412 Y51.2462
G01 X32.4502 Y51.7372
G01 X32.4400 Y51.7464
G01 X32.4290 Y51.7546
G01 X32.4172 Y51.7617
G01 X32.4048 Y51.7675
G01 X32.3918 Y51.7722
G01 X32.3785 Y51.7755
G01 X32.3649 Y51.7775
G01 X32.3512 Y51.7782
G01 X31.6568 Y51.7782
G01 X31.6431 Y51.7775
G01 X31.6295 Y51.7755
G01 X31.6162 Y51.7722
G01 X31.6032 Y51.7675
G01 X31.5908 Y51.7617
G01 X31.5790 Y51.7546
G01 X31.5680 Y51.7464
G01 X31.5578 Y51.7372
G01 X31.0668 Y51.2462
G01 X31.0576 Y51.2360
G01 X31.0494 Y51.2250
G01 X31.0423 Y51.2132
G01 X31.0365 Y51.2008
G01 X31.0318 Y51.1878
G01 X31.0285 Y51.1745
G01 X31.0265 Y51.1609
G01 X31.0258 Y51.1472
G01 X31.0258 Y50.4528
G01 X31.0265 Y50.4391
G01 X31.0285 Y50.4255
G01 X31.0318 Y50.4122
G01 X31.0365 Y50.3992
G01 X31.0423 Y50.3868
G01 X31.0494 Y50.3750
G01 X31.0576 Y50.3640
G01 X31.0668 Y50.3538
G01 X31.5578 Y49.8628
G01 X31.5680 Y49.8536
G01 X31.5790 Y49.8454
G01 X31.5908 Y49.8383
G01 X31.6032 Y49.8325
G01 X31.6162 Y49.8278
G01 X31.6295 Y49.8245
G01 X31.6431 Y49.8225
G01 X31.6568 Y49.8218
G01 X32.3512 Y49.8218
G01 X32.3649 Y49.8225
G01 X32.3785 Y49.8245
G01 X32.3918 Y49.8278
G01 X32.4048 Y49.8325
G01 X32.4172 Y49.8383
G01 X32.4290 Y49.8454
G01 X32.4400 Y49.8536
G01 X32.4502 Y49.8628
G01 X32.9412 Y50.3538
G00 Z2.0000
G00 X32.4185 Y49.8021
G01 F60.00
G01 Z-0.1500
G01 F100.00
G01 X33.0019 Y50.3855
G01 X33.0019 Y51.2145
G01 X32.4185 Y51.7979
G01 X31.5895 Y51.7979
G01 X31.0061 Y51.2145
G01 X31.0061 Y50.3855
G01 X31.5895 Y49.8021
G01 X32.4185 Y49.8021
G00 Z2.0000
G00 X30.4012 Y50.3538
G01 F60.00
G01 Z-0.1500
G01 F100.00
G01 X30.4104 Y50.3640
G01 X30.4186 Y50.3750
G01 X30.4257 Y50.3868
G01 X30.4315 Y50.3992
G01 X30.4362 Y50.4122
G01 X30.4395 Y50.4255
G01 X30.4415 Y50.4391
G01 X30.4422 Y50.4528
G01 X30.4422 Y51.1472
G01 X30.4415 Y51.1609
G01 X30.4395 Y51.1745
G01 X30.4362 Y51.1878
G01 X30.4315 Y51.2008
G01 X30.4257 Y51.2132
G01 X30.4186 Y51.2250
G01 X30.4104 Y51.2360
G01 X30.4012 Y51.2462
G01 X29.9102 Y51.7372
G01 X29.9000 Y51.7464
G01 X29.8890 Y51.7546
G01 X29.8772 Y51.7617
G01 X29.8648 Y51.7675
G01 X29.8518 Y51.7722
G01 X29.8385 Y51.7755
G01 X29.8249 Y51.7775
G01 X29.8112 Y51.7782
G01 X29.1168 Y51.7782
G01 X29.1031 Y51.7775
G01 X29.0895 Y51.7755
G01 X29.0762 Y51.7722
G01 X29.0632 Y51.7675
G01 X29.0508 Y51.7617
G01 X29.0390 Y51.7546
G01 X29.0280 Y51.7464
G01 X29.0178 Y51.7372
G01 X28.5268 Y51.2462
G01 X28.5176 Y51.2360
G01 X28.5094 Y51.2250
G01 X28.5023 Y51.2132
G01 X28.4965 Y51.2008
G01 X28.4918 Y51.1878
G01 X28.4885 Y51.1745
G01 X28.4865 Y51.1609
G01 X28.4858 Y51.1472
G01 X28.4858 Y50.4528
G01 X28.4865 Y50.4391
G01 X28.4885 Y50.4255
G01 X28.4918 Y50.4122
G01 X28.4965 Y50.3992
G01 X28.5023 Y50.3868
G01 X28.5094 Y50.3750
G01 X28.5176 Y50.3640
G01 X28.5268 Y50.3538
G01 X29.0178 Y49.8628
G01 X29.0280 Y49.8536
G01 X29.0390 Y49.8454
G01 X29.0508 Y49.8383
G01 X29.0632 Y49.8325
G01 X29.0762 Y49.8278
G01 X29.0895 Y49.8245
G01 X29.1031 Y49.8225
G01 X29.1168 Y49.8218
G01 X29.8112 Y49.8218
G01 X29.8249 Y49.8225
G01 X29.8385 Y49.8245
G01 X29.8518 Y49.8278
G01 X29.8648 Y49.8325
G01 X29.8772 Y49.8383
G01 X29.8890 Y49.8454
G01 X29.9000 Y49.8536
G01 X29.9102 Y49.8628
G01 X30.4012 Y50.3538
G00 Z2.0000
G00 X29.8785 Y49.8021
G01 F60.00
G01 Z-0.1500
G01 F100.00
G01 X30.4619 Y50.3855
G01 X30.4619 Y51.2145
G01 X29.8785 Y51.7979
G01 X29.0495 Y51.7979
G01 X28.4661 Y51.2145
G01 X28.4661 Y50.3855
G01 X29.0495 Y49.8021
G01 X29.8785 Y49.8021
G00 Z2.0000
G00 X27.8612 Y50.3538
G01 F60.00
G01 Z-0.1500
G01 F100.00
G01 X27.8704 Y50.3640
G01 X27.8786 Y50.3750
G01 X27.8857 Y50.3868
G01 X27.8915 Y50.3992
G01 X27.8962 Y50.4122
G01 X27.8995 Y50.4255
G01 X27.9015 Y50.4391
G01 X27.9022 Y50.4528
G01 X27.9022 Y51.1472
G01 X27.9015 Y51.1609
G01 X27.8995 Y51.1745
G01 X27.8962 Y51.1878
G01 X27.8915 Y51.2008
G01 X27.8857 Y51.2132
G01 X27.8786 Y51.2250
G01 X27.8704 Y51.2360
G01 X27.8612 Y51.2462
G01 X27.3702 Y51.7372
G01 X27.3600 Y51.7464
G01 X27.3490 Y51.7546
G01 X27.3372 Y51.7617
G01 X27.3248 Y51.7675
G01 X27.3118 Y51.7722
G01 X27.2985 Y51.7755
G01 X27.2849 Y51.7775
G01 X27.2712 Y51.7782
G01 X26.5768 Y51.7782
G01 X26.5631 Y51.7775
G01 X26.5495 Y51.7755
G01 X26.5362 Y51.7722
G01 X26.5232 Y51.7675
G01 X26.5108 Y51.7617
G01 X26.4990 Y51.7546
G01 X26.4880 Y51.7464
G01 X26.4778 Y51.7372
G01 X25.9868 Y51.2462
G01 X25.9776 Y51.2360
G01 X25.9694 Y51.2250
G01 X25.9623 Y51.2132
G01 X25.9565 Y51.2008
G01 X25.9518 Y51.1878
G01 X25.9485 Y51.1745
G01 X25.9465 Y51.1609
G01 X25.9458 Y51.1472
G01 X25.9458 Y50.4528
G01 X25.9465 Y50.4391
G01 X25.9485 Y50.4255
G01 X25.9518 Y50.4122
G01 X25.9565 Y50.3992
G01 X25.9623 Y50.3868
G01 X25.9694 Y50.3750
G01 X25.9776 Y50.3640
G01 X25.9868 Y50.3538
G01 X26.4778 Y49.8628
G01 X26.4880 Y49.8536
G01 X26.4990 Y49.8454
G01 X26.5108 Y49.8383
G01 X26.5232 Y49.8325
G01 X26.5362 Y49.8278
G01 X26.5495 Y49.8245
G01 X26.5631 Y49.8225
G01 X26.5768 Y49.8218
G01 X27.2712 Y49.8218
G01 X27.2849 Y49.8225
G01 X27.2985 Y49.8245
G01 X27.3118 Y49.8278
G01 X27.3248 Y49.8325
G01 X27.3372 Y49.8383
G01 X27.3490 Y49.8454
G01 X27.3600 Y49.8536
G01 X27.3702 Y49.8628
G01 X27.8612 Y50.3538
G00 Z2.0000
G00 X27.3385 Y49.8021
G01 F60.00
G01 Z-0.1500
G01 F100.00
G01 X27.9219 Y50.3855
G01 X27.9219 Y51.2145
G01 X27.3385 Y51.7979
G01 X26.5095 Y51.7979
G01 X25.9261 Y51.2145
G01 X25.9261 Y50.3855
G01 X26.5095 Y49.8021
G01 X27.3385 Y49.8021
G00 Z2.0000
G00 X23.7972 Y50.3538
G01 F60.00
G01 Z-0.1500
G01 F100.00
G01 X23.8064 Y50.3640
G01 X23.8146 Y50.3750
G01 X23.8217 Y50.3868
G01 X23.8275 Y50.3992
G01 X23.8322 Y50.4122
G01 X23.8355 Y50.4255
G01 X23.8375 Y50.4391
G01 X23.8382 Y50.4528
G01 X23.8382 Y51.1472
G01 X23.8375 Y51.1609
G01 X23.8355 Y51.1745
G01 X23.8322 Y51.1878
G01 X23.8275 Y51.2008
G01 X23.8217 Y51.2132
G01 X23.8146 Y51.2250
G01 X23.8064 Y51.2360
G01 X23.7972 Y51.2462
G01 X23.3062 Y51.7372
G01 X23.2960 Y51.7464
G01 X23.2850 Y51.7546
G01 X23.2732 Y51.7617
G01 X23.2608 Y51.7675
G01 X23.2478 Y51.7722
G01 X23.2345 Y51.7755
G01 X23.2209 Y51.7775
G01 X23.2072 Y51.7782
G01 X22.5128 Y51.7782
G01 X22.4991 Y51.7775
G01 X22.4855 Y51.7755
G01 X22.4722 Y51.7722
G01 X22.4592 Y51.7675
G01 X22.4468 Y51.7617
G01 X22.4350 Y51.7546
G01 X22.4240 Y51.7464
G01 X22.4138 Y51.7372
G01 X21.9228 Y51.2462
G01 X21.9136 Y51.2360
G01 X21.9054 Y51.2250
G01 X21.8983 Y51.2132
G01 X21.8925 Y51.2008
G01 X21.8878 Y51.1878
G01 X21.8845 Y51.1745
G01 X21.8825 Y51.1609
G01 X21.8818 Y51.1472
G01 X21.8818 Y50.4528
G01 X21.8825 Y50.4391
G01 X21.8845 Y50.4255
G01 X21.8878 Y50.4122
G01 X21.8925 Y50.3992
G01 X21.8983 Y50.3868
G01 X21.9054 Y50.3750
G01 X21.9136 Y50.3640
G01 X21.9228 Y50.3538
G01 X22.4138 Y49.8628
G01 X22.4240 Y49.8536
G01 X22.4350 Y49.8454
G01 X22.4468 Y49.8383
G01 X22.4592 Y49.8325
G01 X22.4722 Y49.8278
G01 X22.4855 Y49.8245
G01 X22.4991 Y49.8225
G01 X22.5128 Y49.8218
G01 X23.2072 Y49.8218
G01 X23.2209 Y49.8225
G01 X23.2345 Y49.8245
G01 X23.2478 Y49.8278
G01 X23.2608 Y49.8325
G01 X23.2732 Y49.8383
G01 X23.2850 Y49.8454
G01 X23.2960 Y49.8536
G01 X23.3062 Y49.8628
G01 X23.7972 Y50.3538
G00 Z2.0000
G00 X23.2745 Y49.8021
G01 F60.00
G01 Z-0.1500
G01 F100.00
G01 X23.8579 Y50.3855
G01 X23.8579 Y51.2145
G01 X23.2745 Y51.7979
G01 X22.4455 Y51.7979
G01 X21.8621 Y51.2145
G01 X21.8621 Y50.3855
G01 X22.4455 Y49.8021
G01 X23.2745 Y49.8021
G00 Z2.0000
G00 X21.2572 Y50.3538
G01 F60.00
G01 Z-0.1500
G01 F100.00
G01 X21.2664 Y50.3640
G01 X21.2746 Y50.3750
G01 X21.2817 Y50.3868
G01 X21.2875 Y50.3992
G01 X21.2922 Y50.4122
G01 X21.2955 Y50.4255
G01 X21.2975 Y50.4391
G01 X21.2982 Y50.4528
G01 X21.2982 Y51.1472
G01 X21.2975 Y51.1609
G01 X21.2955 Y51.1745
G01 X21.2922 Y51.1878
G01 X21.2875 Y51.2008
G01 X21.2817 Y51.2132
G01 X21.2746 Y51.2250
G01 X21.2664 Y51.2360
G01 X21.2572 Y51.2462
G01 X20.7662 Y51.7372
G01 X20.7560 Y51.7464
G01 X20.7450 Y51.7546
G01 X20.7332 Y51.7617
G01 X20.7208 Y51.7675
G01 X20.7078 Y51.7722
G01 X20.6945 Y51.7755
G01 X20.6809 Y51.7775
G01 X20.6672 Y51.7782
G01 X19.9728 Y51.7782
G01 X19.9591 Y51.7775
G01 X19.9455 Y51.7755
G01 X19.9322 Y51.7722
G01 X19.9192 Y51.7675
G01 X19.9068 Y51.7617
G01 X19.8950 Y51.7546
G01 X19.8840 Y51.7464
G01 X19.8738 Y51.7372
G01 X19.3828 Y51.2462
G01 X19.3736 Y51.2360
G01 X19.3654 Y51.2250
G01 X19.3583 Y51.2132
G01 X19.3525 Y51.2008
G01 X19.3478 Y51.1878
G01 X19.3445 Y51.1745
G01 X19.3425 Y51.1609
G01 X19.3418 Y51.1472
G01 X19.3418 Y50.4528
G01 X19.3425 Y50.4391
G01 X19.3445 Y50.4255
G01 X19.3478 Y50.4122
G01 X19.3525 Y50.3992
G01 X19.3583 Y50.3868
G01 X19.3654 Y50.3750
G01 X19.3736 Y50.3640
G01 X19.3828 Y50.3538
G01 X19.8738 Y49.8628
G01 X19.8840 Y49.8536
G01 X19.8950 Y49.8454
G01 X19.9068 Y49.8383
G01 X19.9192 Y49.8325
G01 X19.9322 Y49.8278
G01 X19.9455 Y49.8245
G01 X19.9591 Y49.8225
G01 X19.9728 Y49.8218
G01 X20.6672 Y49.8218
G01 X20.6809 Y49.8225
G01 X20.6945 Y49.8245
G01 X20.7078 Y49.8278
G01 X20.7208 Y49.8325
G01 X20.7332 Y49.8383
G01 X20.7450 Y49.8454
G01 X20.7560 Y49.8536
G01 X20.7662 Y49.8628
G01 X21.2572 Y50.3538
G00 Z2.0000
G00 X20.7345 Y49.8021
G01 F60.00
G01 Z-0.1500
G01 F100.00
G01 X21.3179 Y50.3855
G01 X21.3179 Y51.2145
G01 X20.7345 Y51.7979
G01 X19.9055 Y51.7979
G01 X19.3221 Y51.2145
G01 X19.3221 Y50.3855
G01 X19.9055 Y49.8021
G01 X20.7345 Y49.8021
G00 Z2.0000
G00 X18.7172 Y50.3538
G01 F60.00
G01 Z-0.1500
G01 F100.00
G01 X18.7264 Y50.3640
G01 X18.7346 Y50.3750
G01 X18.7417 Y50.3868
G01 X18.7475 Y50.3992
G01 X18.7522 Y50.4122
G01 X18.7555 Y50.4255
G01 X18.7575 Y50.4391
G01 X18.7582 Y50.4528
G01 X18.7582 Y51.1472
G01 X18.7575 Y51.1609
G01 X18.7555 Y51.1745
G01 X18.7522 Y51.1878
G01 X18.7475 Y51.2008
G01 X18.7417 Y51.2132
G01 X18.7346 Y51.2250
G01 X18.7264 Y51.2360
G01 X18.7172 Y51.2462
G01 X18.2262 Y51.7372
G01 X18.2160 Y51.7464
G01 X18.2050 Y51.7546
G01 X18.1932 Y51.7617
G01 X18.1808 Y51.7675
G01 X18.1678 Y51.7722
G01 X18.1545 Y51.7755
G01 X18.1409 Y51.7775
G01 X18.1272 Y51.7782
G01 X17.4328 Y51.7782
G01 X17.4191 Y51.7775
G01 X17.4055 Y51.7755
G01 X17.3922 Y51.7722
G01 X17.3792 Y51.7675
G01 X17.3668 Y51.7617
G01 X17.3550 Y51.7546
G01 X17.3440 Y51.7464
G01 X17.3338 Y51.7372
G01 X16.8428 Y51.2462
G01 X16.8336 Y51.2360
G01 X16.8254 Y51.2250
G01 X16.8183 Y51.2132
G01 X16.8125 Y51.2008
G01 X16.8078 Y51.1878
G01 X16.8045 Y51.1745
G01 X16.8025 Y51.1609
G01 X16.8018 Y51.1472
G01 X16.8018 Y50.4528
G01 X16.8025 Y50.4391
G01 X16.8045 Y50.4255
G01 X16.8078 Y50.4122
G01 X16.8125 Y50.3992
G01 X16.8183 Y50.3868
G01 X16.8254 Y50.3750
G01 X16.8336 Y50.3640
G01 X16.8428 Y50.3538
G01 X17.3338 Y49.8628
G01 X17.3440 Y49.8536
G01 X17.3550 Y49.8454
G01 X17.3668 Y49.8383
G01 X17.3792 Y49.8325
G01 X17.3922 Y49.8278
G01 X17.4055 Y49.8245
G01 X17.4191 Y49.8225
G01 X17.4328 Y49.8218
G01 X18.1272 Y49.8218
G01 X18.1409 Y49.8225
G01 X18.1545 Y49.8245
G01 X18.1678 Y49.8278
G01 X18.1808 Y49.8325
G01 X18.1932 Y49.8383
G01 X18.2050 Y49.8454
G01 X18.2160 Y49.8536
G01 X18.2262 Y49.8628
G01 X18.7172 Y50.3538
G00 Z2.0000
G00 X18.1945 Y49.8021
G01 F60.00
G01 Z-0.1500
G01 F100.00
G01 X18.7779 Y50.3855
G01 X18.7779 Y51.2145
G01 X18.1945 Y51.7979
G01 X17.3655 Y51.7979
G01 X16.7821 Y51.2145
G01 X16.7821 Y50.3855
G01 X17.3655 Y49.8021
G01 X18.1945 Y49.8021
G00 Z2.0000
G00 X16.1772 Y50.3538
G01 F60.00
G01 Z-0.1500
G01 F100.00
G01 X16.1864 Y50.3640
G01 X16.1946 Y50.3750
G01 X16.2017 Y50.3868
G01 X16.2075 Y50.3992
G01 X16.2122 Y50.4122
G01 X16.2155 Y50.4255
G01 X16.2175 Y50.4391
G01 X16.2182 Y50.4528
G01 X16.2182 Y51.1472
G01 X16.2175 Y51.1609
G01 X16.2155 Y51.1745
G01 X16.2122 Y51.1878
G01 X16.2075 Y51.2008
G01 X16.2017 Y51.2132
G01 X16.1946 Y51.2250
G01 X16.1864 Y51.2360
G01 X16.1772 Y51.2462
G01 X15.6862 Y51.7372
G01 X15.6760 Y51.7464
G01 X15.6650 Y51.7546
G01 X15.6532 Y51.7617
G01 X15.6408 Y51.7675
G01 X15.6278 Y51.7722
G01 X15.6145 Y51.7755
G01 X15.6009 Y51.7775
G01 X15.5872 Y51.7782
G01 X14.8928 Y51.7782
G01 X14.8791 Y51.7775
G01 X14.8655 Y51.7755
G01 X14.8522 Y51.7722
G01 X14.8392 Y51.7675
G01 X14.8268 Y51.7617
G01 X14.8150 Y51.7546
G01 X14.8040 Y51.7464
G01 X14.7938 Y51.7372
G01 X14.3028 Y51.2462
G01 X14.2936 Y51.2360
G01 X14.2854 Y51.2250
G01 X14.2783 Y51.2132
G01 X14.2725 Y51.2008
G01 X14.2678 Y51.1878
G01 X14.2645 Y51.1745
G01 X14.2625 Y51.1609
G01 X14.2618 Y51.1472
G01 X14.2618 Y50.4528
G01 X14.2625 Y50.4391
G01 X14.2645 Y50.4255
G01 X14.2678 Y50.4122
G01 X14.2725 Y50.3992
G01 X14.2783 Y50.3868
G01 X14.2854 Y50.3750
G01 X14.2936 Y50.3640
G01 X14.3028 Y50.3538
G01 X14.7938 Y49.8628
G01 X14.8040 Y49.8536
G01 X14.8150 Y49.8454
G01 X14.8268 Y49.8383
G01 X14.8392 Y49.8325
G01 X14.8522 Y49.8278
G01 X14.8655 Y49.8245
G01 X14.8791 Y49.8225
G01 X14.8928 Y49.8218
G01 X15.5872 Y49.8218
G01 X15.6009 Y49.8225
G01 X15.6145 Y49.8245
G01 X15.6278 Y49.8278
G01 X15.6408 Y49.8325
G01 X15.6532 Y49.8383
G01 X15.6650 Y49.8454
G01 X15.6760 Y49.8536
G01 X15.6862 Y49.8628
G01 X16.1772 Y50.3538
G00 Z2.0000
G00 X15.6545 Y49.8021
G01 F60.00
G01 Z-0.1500
G01 F100.00
G01 X16.2379 Y50.3855
G01 X16.2379 Y51.2145
G01 X15.6545 Y51.7979
G01 X14.8255 Y51.7979
G01 X14.2421 Y51.2145
G01 X14.2421 Y50.3855
G01 X14.8255 Y49.8021
G01 X15.6545 Y49.8021
G00 Z2.0000
G00 X13.6372 Y50.3538
G01 F60.00
G01 Z-0.1500
G01 F100.00
G01 X13.6464 Y50.3640
G01 X13.6546 Y50.3750
G01 X13.6617 Y50.3868
G01 X13.6675 Y50.3992
G01 X13.6722 Y50.4122
G01 X13.6755 Y50.4255
G01 X13.6775 Y50.4391
G01 X13.6782 Y50.4528
G01 X13.6782 Y51.1472
G01 X13.6775 Y51.1609
G01 X13.6755 Y51.1745
G01 X13.6722 Y51.1878
G01 X13.6675 Y51.2008
G01 X13.6617 Y51.2132
G01 X13.6546 Y51.2250
G01 X13.6464 Y51.2360
G01 X13.6372 Y51.2462
G01 X13.1462 Y51.7372
G01 X13.1360 Y51.7464
G01 X13.1250 Y51.7546
G01 X13.1132 Y51.7617
G01 X13.1008 Y51.7675
G01 X13.0878 Y51.7722
G01 X13.0745 Y51.7755
G01 X13.0609 Y51.7775
G01 X13.0472 Y51.7782
G01 X12.3528 Y51.7782
G01 X12.3391 Y51.7775
G01 X12.3255 Y51.7755
G01 X12.3122 Y51.7722
G01 X12.2992 Y51.7675
G01 X12.2868 Y51.7617
G01 X12.2750 Y51.7546
G01 X12.2640 Y51.7464
G01 X12.2538 Y51.7372
G01 X11.7628 Y51.2462
G01 X11.7536 Y51.2360
G01 X11.7454 Y51.2250
G01 X11.7383 Y51.2132
G01 X11.7325 Y51.2008
G01 X11.7278 Y51.1878
G01 X11.7245 Y51.1745
G01 X11.7225 Y51.1609
G01 X11.7218 Y51.1472
G01 X11.7218 Y50.4528
G01 X11.7225 Y50.4391
G01 X11.7245 Y50.4255
G01 X11.7278 Y50.4122
G01 X11.7325 Y50.3992
G01 X11.7383 Y50.3868
G01 X11.7454 Y50.3750
G01 X11.7536 Y50.3640
G01 X11.7628 Y50.3538
G01 X12.2538 Y49.8628
G01 X12.2640 Y49.8536
G01 X12.2750 Y49.8454
G01 X12.2868 Y49.8383
G01 X12.2992 Y49.8325
G01 X12.3122 Y49.8278
G01 X12.3255 Y49.8245
G01 X12.3391 Y49.8225
G01 X12.3528 Y49.8218
G01 X13.0472 Y49.8218
G01 X13.0609 Y49.8225
G01 X13.0745 Y49.8245
G01 X13.0878 Y49.8278
G01 X13.1008 Y49.8325
G01 X13.1132 Y49.8383
G01 X13.1250 Y49.8454
G01 X13.1360 Y49.8536
G01 X13.1462 Y49.8628
G01 X13.6372 Y50.3538
G00 Z2.0000
G00 X13.1145 Y49.8021
G01 F60.00
G01 Z-0.1500
G01 F100.00
G01 X13.6979 Y50.3855
G01 X13.6979 Y51.2145
G01 X13.1145 Y51.7979
G01 X12.2855 Y51.7979
G01 X11.7021 Y51.2145
G01 X11.7021 Y50.3855
G01 X12.2855 Y49.8021
G01 X13.1145 Y49.8021
G00 Z2.0000
G00 X11.0972 Y50.3538
G01 F60.00
G01 Z-0.1500
G01 F100.00
G01 X11.1064 Y50.3640
G01 X11.1146 Y50.3750
G01 X11.1217 Y50.3868
G01 X11.1275 Y50.3992
G01 X11.1322 Y50.4122
G01 X11.1355 Y50.4255
G01 X11.1375 Y50.4391
G01 X11.1382 Y50.4528
G01 X11.1382 Y51.1472
G01 X11.1375 Y51.1609
G01 X11.1355 Y51.1745
G01 X11.1322 Y51.1878
G01 X11.1275 Y51.2008
G01 X11.1217 Y51.2132
G01 X11.1146 Y51.2250
G01 X11.1064 Y51.2360
G01 X11.0972 Y51.2462
G01 X10.6062 Y51.7372
G01 X10.5960 Y51.7464
G01 X10.5850 Y51.7546
G01 X10.5732 Y51.7617
G01 X10.5608 Y51.7675
G01 X10.5478 Y51.7722
G01 X10.5345 Y51.7755
G01 X10.5209 Y51.7775
G01 X10.5072 Y51.7782
G01 X9.8128 Y51.7782
G01 X9.7991 Y51.7775
G01 X9.7855 Y51.7755
G01 X9.7722 Y51.7722
G01 X9.7592 Y51.7675
G01 X9.7468 Y51.7617
G01 X9.7350 Y51.7546
G01 X9.7240 Y51.7464
G01 X9.7138 Y51.7372
G01 X9.2228 Y51.2462
G01 X9.2136 Y51.2360
G01 X9.2054 Y51.2250
G01 X9.1983 Y51.2132
G01 X9.1925 Y51.2008
G01 X9.1878 Y51.1878
G01 X9.1845 Y51.1745
G01 X9.1825 Y51.1609
G01 X9.1818 Y51.1472
G01 X9.1818 Y50.4528
G01 X9.1825 Y50.4391
G01 X9.1845 Y50.4255
G01 X9.1878 Y50.4122
G01 X9.1925 Y50.3992
G01 X9.1983 Y50.3868
G01 X9.2054 Y50.3750
G01 X9.2136 Y50.3640
G01 X9.2228 Y50.3538
G01 X9.7138 Y49.8628
G01 X9.7240 Y49.8536
G01 X9.7350 Y49.8454
G01 X9.7468 Y49.8383
G01 X9.7592 Y49.8325
G01 X9.7722 Y49.8278
G01 X9.7855 Y49.8245
G01 X9.7991 Y49.8225
G01 X9.8128 Y49.8218
G01 X10.5072 Y49.8218
G01 X10.5209 Y49.8225
G01 X10.5345 Y49.8245
G01 X10.5478 Y49.8278
G01 X10.5608 Y49.8325
G01 X10.5732 Y49.8383
G01 X10.5850 Y49.8454
G01 X10.5960 Y49.8536
G01 X10.6062 Y49.8628
G01 X11.0972 Y50.3538
G00 Z2.0000
G00 X10.5745 Y49.8021
G01 F60.00
G01 Z-0.1500
G01 F100.00
G01 X11.1579 Y50.3855
G01 X11.1579 Y51.2145
G01 X10.5745 Y51.7979
G01 X9.7455 Y51.7979
G01 X9.1621 Y51.2145
G01 X9.1621 Y50.3855
G01 X9.7455 Y49.8021
G01 X10.5745 Y49.8021
G00 Z2.0000
G00 X8.5572 Y50.3538
G01 F60.00
G01 Z-0.1500
G01 F100.00
G01 X8.5664 Y50.3640
G01 X8.5746 Y50.3750
G01 X8.5817 Y50.3868
G01 X8.5875 Y50.3992
G01 X8.5922 Y50.4122
G01 X8.5955 Y50.4255
G01 X8.5975 Y50.4391
G01 X8.5982 Y50.4528
G01 X8.5982 Y51.1472
G01 X8.5975 Y51.1609
G01 X8.5955 Y51.1745
G01 X8.5922 Y51.1878
G01 X8.5875 Y51.2008
G01 X8.5817 Y51.2132
G01 X8.5746 Y51.2250
G01 X8.5664 Y51.2360
G01 X8.5572 Y51.2462
G01 X8.0662 Y51.7372
G01 X8.0560 Y51.7464
G01 X8.0450 Y51.7546
G01 X8.0332 Y51.7617
G01 X8.0208 Y51.7675
G01 X8.0078 Y51.7722
G01 X7.9945 Y51.7755
G01 X7.9809 Y51.7775
G01 X7.9672 Y51.7782
G01 X7.2728 Y51.7782
G01 X7.2591 Y51.7775
G01 X7.2455 Y51.7755
G01 X7.2322 Y51.7722
G01 X7.2192 Y51.7675
G01 X7.2068 Y51.7617
G01 X7.1950 Y51.7546
G01 X7.1840 Y51.7464
G01 X7.1738 Y51.7372
G01 X6.6828 Y51.2462
G01 X6.6736 Y51.2360
G01 X6.6654 Y51.2250
G01 X6.6583 Y51.2132
G01 X6.6525 Y51.2008
G01 X6.6478 Y51.1878
G01 X6.6445 Y51.1745
G01 X6.6425 Y51.1609
G01 X6.6418 Y51.1472
G01 X6.6418 Y50.4528
G01 X6.6425 Y50.4391
G01 X6.6445 Y50.4255
G01 X6.6478 Y50.4122
G01 X6.6525 Y50.3992
G01 X6.6583 Y50.3868
G01 X6.6654 Y50.3750
G01 X6.6736 Y50.3640
G01 X6.6828 Y50.3538
G01 X7.1738 Y49.8628
G01 X7.1840 Y49.8536
G01 X7.1950 Y49.8454
G01 X7.2068 Y49.8383
G01 X7.2192 Y49.8325
G01 X7.2322 Y49.8278
G01 X7.2455 Y49.8245
G01 X7.2591 Y49.8225
G01 X7.2728 Y49.8218
G01 X7.9672 Y49.8218
G01 X7.9809 Y49.8225
G01 X7.9945 Y49.8245
G01 X8.0078 Y49.8278
G01 X8.0208 Y49.8325
G01 X8.0332 Y49.8383
G01 X8.0450 Y49.8454
G01 X8.0560 Y49.8536
G01 X8.0662 Y49.8628
G01 X8.5572 Y50.3538
G00 Z2.0000
G00 X8.0345 Y49.8021
G01 F60.00
G01 Z-0.1500
G01 F100.00
G01 X8.6179 Y50.3855
G01 X8.6179 Y51.2145
G01 X8.0345 Y51.7979
G01 X7.2055 Y51.7979
G01 X6.6221 Y51.2145
G01 X6.6221 Y50.3855
G01 X7.2055 Y49.8021
G01 X8.0345 Y49.8021
G00 Z2.0000
G00 X6.0172 Y50.3538
G01 F60.00
G01 Z-0.1500
G01 F100.00
G01 X6.0264 Y50.3640
G01 X6.0346 Y50.3750
G01 X6.0417 Y50.3868
G01 X6.0475 Y50.3992
G01 X6.0522 Y50.4122
G01 X6.0555 Y50.4255
G01 X6.0575 Y50.4391
G01 X6.0582 Y50.4528
G01 X6.0582 Y51.1472
G01 X6.0575 Y51.1609
G01 X6.0555 Y51.1745
G01 X6.0522 Y51.1878
G01 X6.0475 Y51.2008
G01 X6.0417 Y51.2132
G01 X6.0346 Y51.2250
G01 X6.0264 Y51.2360
G01 X6.0172 Y51.2462
G01 X5.5262 Y51.7372
G01 X5.5160 Y51.7464
G01 X5.5050 Y51.7546
G01 X5.4932 Y51.7617
G01 X5.4808 Y51.7675
G01 X5.4678 Y51.7722
G01 X5.4545 Y51.7755
G01 X5.4409 Y51.7775
G01 X5.4272 Y51.7782
G01 X4.7328 Y51.7782
G01 X4.7191 Y51.7775
G01 X4.7055 Y51.7755
G01 X4.6922 Y51.7722
G01 X4.6792 Y51.7675
G01 X4.6668 Y51.7617
G01 X4.6550 Y51.7546
G01 X4.6440 Y51.7464
G01 X4.6338 Y51.7372
G01 X4.1428 Y51.2462
G01 X4.1336 Y51.2360
G01 X4.1254 Y51.2250
G01 X4.1183 Y51.2132
G01 X4.1125 Y51.2008
G01 X4.1078 Y51.1878
G01 X4.1045 Y51.1745
G01 X4.1025 Y51.1609
G01 X4.1018 Y51.1472
G01 X4.1018 Y50.4528
G01 X4.1025 Y50.4391
G01 X4.1045 Y50.4255
G01 X4.1078 Y50.4122
G01 X4.1125 Y50.3992
G01 X4.1183 Y50.3868
G01 X4.1254 Y50.3750
G01 X4.1336 Y50.3640
G01 X4.1428 Y50.3538
G01 X4.6338 Y49.8628
G01 X4.6440 Y49.8536
G01 X4.6550 Y49.8454
G01 X4.6668 Y49.8383
G01 X4.6792 Y49.8325
G01 X4.6922 Y49.8278
G01 X4.7055 Y49.8245
G01 X4.7191 Y49.8225
G01 X4.7328 Y49.8218
G01 X5.4272 Y49.8218
G01 X5.4409 Y49.8225
G01 X5.4545 Y49.8245
G01 X5.4678 Y49.8278
G01 X5.4808 Y49.8325
G01 X5.4932 Y49.8383
G01 X5.5050 Y49.8454
G01 X5.5160 Y49.8536
G01 X5.5262 Y49.8628
G01 X6.0172 Y50.3538
G00 Z2.0000
G00 X5.4945 Y49.8021
G01 F60.00
G01 Z-0.1500
G01 F100.00
G01 X6.0779 Y50.3855
G01 X6.0779 Y51.2145
G01 X5.4945 Y51.7979
G01 X4.6655 Y51.7979
G01 X4.0821 Y51.2145
G01 X4.0821 Y50.3855
G01 X4.6655 Y49.8021
G01 X5.4945 Y49.8021
G00 Z2.0000
G00 X45.1185 Y49.8021
G01 F60.00
G01 Z-0.1500
G01 F100.00
G01 X45.7019 Y50.3855
G01 X45.7019 Y51.2145
G01 X45.1185 Y51.7979
G01 X44.2895 Y51.7979
G01 X43.7061 Y51.2145
G01 X43.7061 Y50.3855
G01 X44.2895 Y49.8021
G01 X45.1185 Y49.8021
G00 Z2.0000
G00 X45.6412 Y50.3538
G01 F60.00
G01 Z-0.1500
G01 F100.00
G01 X45.6504 Y50.3640
G01 X45.6586 Y50.3750
G01 X45.6657 Y50.3868
G01 X45.6715 Y50.3992
G01 X45.6762 Y50.4122
G01 X45.6795 Y50.4255
G01 X45.6815 Y50.4391
G01 X45.6822 Y50.4528
G01 X45.6822 Y51.1472
G01 X45.6815 Y51.1609
G01 X45.6795 Y51.1745
G01 X45.6762 Y51.1878
G01 X45.6715 Y51.2008
G01 X45.6657 Y51.2132
G01 X45.6586 Y51.2250
G01 X45.6504 Y51.2360
G01 X45.6412 Y51.2462
G01 X45.1502 Y51.7372
G01 X45.1400 Y51.7464
G01 X45.1290 Y51.7546
G01 X45.1172 Y51.7617
G01 X45.1048 Y51.7675
G01 X45.0918 Y51.7722
G01 X45.0785 Y51.7755
G01 X45.0649 Y51.7775
G01 X45.0512 Y51.7782
G01 X44.3568 Y51.7782
G01 X44.3431 Y51.7775
G01 X44.3295 Y51.7755
G01 X44.3162 Y51.7722
G01 X44.3032 Y51.7675
G01 X44.2908 Y51.7617
G01 X44.2790 Y51.7546
G01 X44.2680 Y51.7464
G01 X44.2578 Y51.7372
G01 X43.7668 Y51.2462
G01 X43.7576 Y51.2360
G01 X43.7494 Y51.2250
G01 X43.7423 Y51.2132
G01 X43.7365 Y51.2008
G01 X43.7318 Y51.1878
G01 X43.7285 Y51.1745
G01 X43.7265 Y51.1609
G01 X43.7258 Y51.1472
G01 X43.7258 Y50.4528
G01 X43.7265 Y50.4391
G01 X43.7285 Y50.4255
G01 X43.7318 Y50.4122
G01 X43.7365 Y50.3992
G01 X43.7423 Y50.3868
G01 X43.7494 Y50.3750
G01 X43.7576 Y50.3640
G01 X43.7668 Y50.3538
G01 X44.2578 Y49.8628
G01 X44.2680 Y49.8536
G01 X44.2790 Y49.8454
G01 X44.2908 Y49.8383
G01 X44.3032 Y49.8325
G01 X44.3162 Y49.8278
G01 X44.3295 Y49.8245
G01 X44.3431 Y49.8225
G01 X44.3568 Y49.8218
G01 X45.0512 Y49.8218
G01 X45.0649 Y49.8225
G01 X45.0785 Y49.8245
G01 X45.0918 Y49.8278
G01 X45.1048 Y49.8325
G01 X45.1172 Y49.8383
G01 X45.1290 Y49.8454
G01 X45.1400 Y49.8536
G01 X45.1502 Y49.8628
G01 X45.6412 Y50.3538
G00 Z2.0000
G00 X53.6297 Y49.3398
G01 F60.00
G01 Z-0.1500
G01 F100.00
G01 X54.1675 Y49.5623
G01 X54.5777 Y49.9725
G01 X54.8002 Y50.5103
G01 X54.8002 Y51.0897
G01 X54.5777 Y51.6275
G01 X54.1675 Y52.0377
G01 X53.6297 Y52.2602
G01 X53.0503 Y52.2602
G01 X52.5125 Y52.0377
G01 X52.1023 Y51.6275
G01 X51.8798 Y51.0897
G01 X51.8798 Y50.5103
G01 X52.1023 Y49.9725
G01 X52.5125 Y49.5623
G01 X53.0503 Y49.3398
G01 X53.6297 Y49.3398
G00 Z2.0000
G00 X52.9711 Y45.6496
G01 F60.00
G01 Z-0.1500
G01 F100.00
G01 X52.9590 Y45.6423
G01 X52.9465 Y45.6364
G01 X52.9336 Y45.6318
G01 X52.9203 Y45.6284
G01 X52.9067 Y45.6264
G01 X52.8930 Y45.6257
G01 X50.8330 Y45.6257
G01 X50.8193 Y45.6264
G01 X50.8058 Y45.6284
G01 X50.7925 Y45.6317
G01 X50.7796 Y45.6363
G01 X50.4547 Y45.7705
G01 X50.1293 Y45.7705
G01 X49.8302 Y45.6470
G01 X49.6030 Y45.4198
G01 X49.4795 Y45.1207
G01 X49.4795 Y44.7953
G01 X49.6030 Y44.4962
G01 X49.8302 Y44.2690
G01 X50.1293 Y44.1455
G01 X50.4547 Y44.1455
G01 X50.7796 Y44.2797
G01 X50.7925 Y44.2843
G01 X50.8058 Y44.2876
G01 X50.8193 Y44.2896
G01 X50.8330 Y44.2903
G01 X52.8930 Y44.2903
G01 X52.9067 Y44.2896
G01 X52.9203 Y44.2876
G01 X52.9336 Y44.2842
G01 X52.9465 Y44.2796
G01 X52.9590 Y44.2737
G01 X52.9711 Y44.2664
G01 X53.2791 Y44.1379
G01 X54.9249 Y44.1379
G01 X55.2265 Y44.2638
G01 X55.4566 Y44.4939
G01 X55.5825 Y44.7955
G01 X55.5825 Y45.1205
G01 X55.4566 Y45.4221
G01 X55.2265 Y45.6522
G01 X54.9249 Y45.7781
G01 X53.2791 Y45.7781
G01 X52.9711 Y45.6496
G00 Z2.0000
G00 X52.9728 Y44.3097
G01 F60.00
G01 Z-0.1500
G01 F100.00
G01 X52.9911 Y44.2962
G01 X53.0025 Y44.2885
G01 X53.0582 Y44.2552
G01 X53.0703 Y44.2487
G01 X53.1289 Y44.2210
G01 X53.1416 Y44.2158
G01 X53.2026 Y44.1939
G01 X53.2158 Y44.1899
G01 X53.2787 Y44.1742
G01 X53.2922 Y44.1715
G01 X53.3563 Y44.1620
G01 X53.3700 Y44.1606
G01 X53.4347 Y44.1574
G01 X54.7693 Y44.1574
G01 X54.8340 Y44.1606
G01 X54.8477 Y44.1620
G01 X54.9118 Y44.1715
G01 X54.9253 Y44.1742
G01 X54.9882 Y44.1899
G01 X55.0014 Y44.1939
G01 X55.0624 Y44.2158
G01 X55.0751 Y44.2210
G01 X55.1337 Y44.2487
G01 X55.1458 Y44.2552
G01 X55.2015 Y44.2885
G01 X55.2129 Y44.2962
G01 X55.2650 Y44.3348
G01 X55.2756 Y44.3435
G01 X55.3236 Y44.3871
G01 X55.3333 Y44.3968
G01 X55.3769 Y44.4448
G01 X55.3856 Y44.4554
G01 X55.4242 Y44.5075
G01 X55.4319 Y44.5189
G01 X55.4652 Y44.5746
G01 X55.4717 Y44.5867
G01 X55.4994 Y44.6453
G01 X55.5046 Y44.6580
G01 X55.5265 Y44.7190
G01 X55.5305 Y44.7322
G01 X55.5462 Y44.7951
G01 X55.5489 Y44.8086
G01 X55.5584 Y44.8727
G01 X55.5598 Y44.8864
G01 X55.5630 Y44.9511
G01 X55.5630 Y44.9649
G01 X55.5598 Y45.0296
G01 X55.5584 Y45.0433
G01 X55.5489 Y45.1074
G01 X55.5462 Y45.1209
G01 X55.5305 Y45.1838
G01 X55.5265 Y45.1970
G01 X55.5046 Y45.2580
G01 X55.4994 Y45.2707
G01 X55.4717 Y45.3293
G01 X55.4652 Y45.3414
G01 X55.4319 Y45.3971
G01 X55.4242 Y45.4085
G01 X55.3856 Y45.4606
G01 X55.3769 Y45.4712
G01 X55.3333 Y45.5192
G01 X55.3236 Y45.5289
G01 X55.2756 Y45.5725
G01 X55.2650 Y45.5812
G01 X55.2129 Y45.6198
G01 X55.2015 Y45.6275
G01 X55.1458 Y45.6608
G01 X55.1337 Y45.6673
G01 X55.0751 Y45.6950
G01 X55.0624 Y45.7002
G01 X55.0014 Y45.7221
G01 X54.9882 Y45.7261
G01 X54.9253 Y45.7418
G01 X54.9118 Y45.7445
G01 X54.8477 Y45.7540
G01 X54.8340 Y45.7554
G01 X54.7624 Y45.7587
G01 X53.4416 Y45.7587
G01 X53.3700 Y45.7554
G01 X53.3563 Y45.7540
G01 X53.2922 Y45.7445
G01 X53.2787 Y45.7418
G01 X53.2158 Y45.7261
G01 X53.2026 Y45.7221
G01 X53.1416 Y45.7002
G01 X53.1289 Y45.6950
G01 X53.0703 Y45.6673
G01 X53.0582 Y45.6608
G01 X53.0025 Y45.6275
