(G-CODE GENERATED BY FLATCAM v8.991 - www.flatcam.org - Version Date: 2019/12/27)

(Name: Air Quality - Drill 3.0)
(Type: G-code from Excellon)
(Units: MM)

(Created on Monday, 22 March 2021 at 14:42)

(Feedrate: 20.0 mm/min)
(Feedrate rapids 1500.0 mm/min)

(Z_Cut: -3.0 mm)
(Z_Move: 2.0 mm)
(Z Toolchange: 15.0 mm)
(X,Y Toolchange: 0.0000, 0.0000 mm)
(Z Start: None mm)
(Z End: 1.0 mm)
(Steps per circle: 64)
(Preprocessor Excellon: default)

(X range:    0.9398 ...   64.7700  mm)
(Y range:    0.9398 ...   52.4002  mm)

(Spindle Speed: None RPM)
G21
G90
G94




G01 F20.00
G00 Z2.0000

M03
G00 X2.5400 Y35.5600
G01 Z-3.0000
G01 Z0
G00 Z2.0000
G00 X53.3400 Y50.8000
G01 Z-3.0000
G01 Z0
G00 Z2.0000
G00 X54.6100 Y2.5400
G01 Z-3.0000
G01 Z0
G00 Z2.0000
M05
G00 Z1.00
G00 X0.0 Y0.0

