(G-CODE GENERATED BY FLATCAM v8.991 - www.flatcam.org - Version Date: 2019/12/27)

(Name: Air Quality - Drill 1.0)
(Type: G-code from Excellon)
(Units: MM)

(Created on Monday, 22 March 2021 at 14:20)

(Feedrate: 50.0 mm/min)
(Feedrate rapids 1500.0 mm/min)

(Z_Cut: -2.0 mm)
(Z_Move: 2.0 mm)
(Z Toolchange: 15.0 mm)
(X,Y Toolchange: 0.0000, 0.0000 mm)
(Z Start: None mm)
(Z End: 1.0 mm)
(Steps per circle: 64)
(Preprocessor Excellon: default)

(X range:    0.9398 ...   64.7700  mm)
(Y range:    0.9398 ...   52.4002  mm)

(Spindle Speed: None RPM)
G21
G90
G94




G01 F50.00
G00 Z2.0000

M03
G00 X20.3200 Y50.8000
G01 Z-2.0000
G01 Z0
G00 Z2.0000
G00 X17.7800 Y50.8000
G01 Z-2.0000
G01 Z0
G00 Z2.0000
G00 X15.2400 Y50.8000
G01 Z-2.0000
G01 Z0
G00 Z2.0000
G00 X12.7000 Y50.8000
G01 Z-2.0000
G01 Z0
G00 Z2.0000
G00 X10.1600 Y50.8000
G01 Z-2.0000
G01 Z0
G00 Z2.0000
G00 X7.6200 Y50.8000
G01 Z-2.0000
G01 Z0
G00 Z2.0000
G00 X5.0800 Y50.8000
G01 Z-2.0000
G01 Z0
G00 Z2.0000
G00 X5.0800 Y2.5400
G01 Z-2.0000
G01 Z0
G00 Z2.0000
G00 X7.6200 Y2.5400
G01 Z-2.0000
G01 Z0
G00 Z2.0000
G00 X10.1600 Y2.5400
G01 Z-2.0000
G01 Z0
G00 Z2.0000
G00 X12.7000 Y2.5400
G01 Z-2.0000
G01 Z0
G00 Z2.0000
G00 X15.2400 Y2.5400
G01 Z-2.0000
G01 Z0
G00 Z2.0000
G00 X17.7800 Y2.5400
G01 Z-2.0000
G01 Z0
G00 Z2.0000
G00 X22.8600 Y2.5400
G01 Z-2.0000
G01 Z0
G00 Z2.0000
G00 X25.4000 Y2.5400
G01 Z-2.0000
G01 Z0
G00 Z2.0000
G00 X27.9400 Y2.5400
G01 Z-2.0000
G01 Z0
G00 Z2.0000
G00 X30.4800 Y2.5400
G01 Z-2.0000
G01 Z0
G00 Z2.0000
G00 X33.0200 Y2.5400
G01 Z-2.0000
G01 Z0
G00 Z2.0000
G00 X35.5600 Y2.5400
G01 Z-2.0000
G01 Z0
G00 Z2.0000
G00 X44.7040 Y50.8000
G01 Z-2.0000
G01 Z0
G00 Z2.0000
G00 X42.1640 Y50.8000
G01 Z-2.0000
G01 Z0
G00 Z2.0000
G00 X39.6240 Y50.8000
G01 Z-2.0000
G01 Z0
G00 Z2.0000
G00 X37.0840 Y50.8000
G01 Z-2.0000
G01 Z0
G00 Z2.0000
G00 X34.5440 Y50.8000
G01 Z-2.0000
G01 Z0
G00 Z2.0000
G00 X32.0040 Y50.8000
G01 Z-2.0000
G01 Z0
G00 Z2.0000
G00 X29.4640 Y50.8000
G01 Z-2.0000
G01 Z0
G00 Z2.0000
G00 X26.9240 Y50.8000
G01 Z-2.0000
G01 Z0
G00 Z2.0000
G00 X22.8600 Y50.8000
G01 Z-2.0000
G01 Z0
G00 Z2.0000
M03
G00 X16.7640 Y39.3700
G01 Z-2.0000
G01 Z0
G00 Z2.0000
G00 X19.3040 Y39.3700
G01 Z-2.0000
G01 Z0
G00 Z2.0000
G00 X21.8440 Y39.3700
G01 Z-2.0000
G01 Z0
G00 Z2.0000
G00 X24.3840 Y39.3700
G01 Z-2.0000
G01 Z0
G00 Z2.0000
G00 X64.2620 Y26.1620
G01 Z-2.0000
G01 Z0
G00 Z2.0000
G00 X64.2620 Y23.6220
G01 Z-2.0000
G01 Z0
G00 Z2.0000
G00 X64.2620 Y21.0820
G01 Z-2.0000
G01 Z0
G00 Z2.0000
G00 X64.2620 Y18.5420
G01 Z-2.0000
G01 Z0
G00 Z2.0000
G00 X24.3840 Y13.9700
G01 Z-2.0000
G01 Z0
G00 Z2.0000
G00 X21.8440 Y13.9700
G01 Z-2.0000
G01 Z0
G00 Z2.0000
G00 X19.3040 Y13.9700
G01 Z-2.0000
G01 Z0
G00 Z2.0000
G00 X16.7640 Y13.9700
G01 Z-2.0000
G01 Z0
G00 Z2.0000
G00 X14.2240 Y13.9700
G01 Z-2.0000
G01 Z0
G00 Z2.0000
G00 X11.6840 Y13.9700
G01 Z-2.0000
G01 Z0
G00 Z2.0000
G00 X9.1440 Y13.9700
G01 Z-2.0000
G01 Z0
G00 Z2.0000
G00 X6.6040 Y13.9700
G01 Z-2.0000
G01 Z0
G00 Z2.0000
G00 X6.6040 Y39.3700
G01 Z-2.0000
G01 Z0
G00 Z2.0000
G00 X9.1440 Y39.3700
G01 Z-2.0000
G01 Z0
G00 Z2.0000
G00 X11.6840 Y39.3700
G01 Z-2.0000
G01 Z0
G00 Z2.0000
G00 X14.2240 Y39.3700
G01 Z-2.0000
G01 Z0
G00 Z2.0000
M05
G00 Z1.00
G00 X0.0 Y0.0

