(G-CODE GENERATED BY FLATCAM v8.991 - www.flatcam.org - Version Date: 2019/12/27)

(Name: Air Quality - Drill 0.8)
(Type: G-code from Excellon)
(Units: MM)

(Created on Monday, 22 March 2021 at 14:14)

(Feedrate: 50.0 mm/min)
(Feedrate rapids 1500.0 mm/min)

(Z_Cut: -2.0 mm)
(Z_Move: 2.0 mm)
(Z Toolchange: 15.0 mm)
(X,Y Toolchange: 0.0000, 0.0000 mm)
(Z Start: None mm)
(Z End: 1.0 mm)
(Steps per circle: 64)
(Preprocessor Excellon: default)

(X range:    0.9398 ...   64.7700  mm)
(Y range:    0.9398 ...   52.4002  mm)

(Spindle Speed: None RPM)
G21
G90
G94




G01 F50.00
G00 Z2.0000

M03
G00 X33.0200 Y5.8420
G01 Z-2.0000
G01 Z0
G00 Z2.0000
G00 X27.9400 Y5.8420
G01 Z-2.0000
G01 Z0
G00 Z2.0000
G00 X27.9400 Y12.9540
G01 Z-2.0000
G01 Z0
G00 Z2.0000
G00 X16.7640 Y42.6720
G01 Z-2.0000
G01 Z0
G00 Z2.0000
G00 X29.4640 Y46.4820
G01 Z-2.0000
G01 Z0
G00 Z2.0000
G00 X32.0040 Y46.4820
G01 Z-2.0000
G01 Z0
G00 Z2.0000
G00 X34.5440 Y46.4820
G01 Z-2.0000
G01 Z0
G00 Z2.0000
G00 X37.0840 Y46.4820
G01 Z-2.0000
G01 Z0
G00 Z2.0000
G00 X39.6240 Y46.4820
G01 Z-2.0000
G01 Z0
G00 Z2.0000
G00 X42.1640 Y46.4820
G01 Z-2.0000
G01 Z0
G00 Z2.0000
G00 X43.6880 Y42.4180
G01 Z-2.0000
G01 Z0
G00 Z2.0000
G00 X50.2920 Y44.9580
G01 Z-2.0000
G01 Z0
G00 Z2.0000
G00 X59.9440 Y26.1620
G01 Z-2.0000
G01 Z0
G00 Z2.0000
M03
G00 X54.1020 Y42.4180
G01 Z-2.0000
G01 Z0
G00 Z2.0000
G00 X54.1020 Y44.9580
G01 Z-2.0000
G01 Z0
G00 Z2.0000
G00 X24.3840 Y8.3820
G01 Z-2.0000
G01 Z0
G00 Z2.0000
G00 X34.5440 Y8.3820
G01 Z-2.0000
G01 Z0
G00 Z2.0000
G00 X46.9900 Y5.8420
G01 Z-2.0000
G01 Z0
G00 Z2.0000
G00 X46.9900 Y8.3820
G01 Z-2.0000
G01 Z0
G00 Z2.0000
G00 X54.1020 Y37.3380
G01 Z-2.0000
G01 Z0
G00 Z2.0000
G00 X54.1020 Y39.8780
G01 Z-2.0000
G01 Z0
G00 Z2.0000
M05
G00 Z1.00
G00 X0.0 Y0.0

