(G-CODE GENERATED BY FLATCAM v8.991 - www.flatcam.org - Version Date: 2019/12/27)

(Name: Gateway.gm2_cutout_cnc)
(Type: G-code from Geometry)
(Units: MM)

(Created on Wednesday, 17 February 2021 at 18:15)

(TOOL DIAMETER: 0.8 mm)
(Feedrate: 40.0 mm/min)
(Feedrate_Z: 20.0 mm/min)
(Feedrate rapids 1500.0 mm/min)

(Z_Cut: -3.0 mm)
(Z_Move: 2.0 mm)
(Z Toolchange: 15.0 mm)
(X,Y Toolchange: 0.0000, 0.0000 mm)
(Z Start: None mm)
(Z End: 15.0 mm)
(Steps per circle: 64)
(Preprocessor Geometry: default)

(X range:   -0.1271 ...   77.5971  mm)
(Y range:   -0.1271 ...   62.3571  mm)

(Spindle Speed: None RPM)
G21
G90
G94




G01 F40.00
G00 Z2.0000

M03
G00 X21.4629 Y19.1026
G01 F20.00
G01 Z-3.0000
G01 F40.00
G01 X19.6850 Y17.3247
G01 X17.9071 Y19.1026
G01 X17.9071 Y20.0132
G01 X18.9602 Y18.9602
G01 X18.9694 Y18.9518
G01 X18.9794 Y18.9444
G01 X18.9901 Y18.9379
G01 X19.0014 Y18.9326
G01 X19.0131 Y18.9284
G01 X19.0252 Y18.9254
G01 X19.0375 Y18.9236
G01 X19.0500 Y18.9229
G01 X19.0625 Y18.9236
G01 X19.0748 Y18.9254
G01 X19.0869 Y18.9284
G01 X19.0986 Y18.9326
G01 X19.1099 Y18.9379
G01 X19.1206 Y18.9444
G01 X19.1306 Y18.9518
G01 X19.1398 Y18.9602
G01 X19.1482 Y18.9694
G01 X19.1556 Y18.9794
G01 X19.1621 Y18.9901
G01 X19.1674 Y19.0014
G01 X19.1716 Y19.0131
G01 X19.1746 Y19.0252
G01 X19.1764 Y19.0375
G01 X19.1771 Y19.0500
G01 X19.1771 Y21.5871
G01 X19.1792 Y21.6340
G01 X19.1852 Y21.6761
G01 X19.1960 Y21.7235
G01 X19.2085 Y21.7673
G01 X19.2239 Y21.8059
G01 X19.2432 Y21.8425
G01 X19.2687 Y21.8808
G01 X19.2956 Y21.9180
G01 X19.3253 Y21.9497
G01 X19.3570 Y21.9794
G01 X19.3942 Y22.0063
G01 X19.4325 Y22.0318
G01 X19.4691 Y22.0511
G01 X19.5077 Y22.0665
G01 X19.5515 Y22.0790
G01 X19.5989 Y22.0898
G01 X19.6410 Y22.0958
G01 X19.6850 Y22.0978
G01 X19.7290 Y22.0958
G01 X19.7711 Y22.0898
G01 X19.8185 Y22.0790
G01 X19.8623 Y22.0665
G01 X19.9009 Y22.0511
G01 X19.9375 Y22.0318
G01 X19.9758 Y22.0063
G01 X20.0130 Y21.9794
G01 X20.0447 Y21.9497
G01 X20.0744 Y21.9180
G01 X20.1013 Y21.8808
G01 X20.1268 Y21.8425
G01 X20.1461 Y21.8059
G01 X20.1615 Y21.7673
G01 X20.1740 Y21.7235
G01 X20.1848 Y21.6761
G01 X20.1908 Y21.6340
G01 X20.1929 Y21.5871
G01 X20.1929 Y19.0500
G01 X20.1936 Y19.0375
G01 X20.1954 Y19.0252
G01 X20.1984 Y19.0131
G01 X20.2026 Y19.0014
G01 X20.2079 Y18.9901
G01 X20.2144 Y18.9794
G01 X20.2218 Y18.9694
G01 X20.2302 Y18.9602
G01 X20.2394 Y18.9518
G01 X20.2494 Y18.9444
G01 X20.2601 Y18.9379
G01 X20.2714 Y18.9326
G01 X20.2831 Y18.9284
G01 X20.2952 Y18.9254
G01 X20.3075 Y18.9236
G01 X20.3200 Y18.9229
G01 X20.3325 Y18.9236
G01 X20.3448 Y18.9254
G01 X20.3569 Y18.9284
G01 X20.3686 Y18.9326
G01 X20.3799 Y18.9379
G01 X20.3906 Y18.9444
G01 X20.4006 Y18.9518
G01 X20.4098 Y18.9602
G01 X21.4629 Y20.0132
G01 X21.4629 Y19.1026
G00 Z2.0000
G00 X54.4829 Y3.8626
G01 F20.00
G01 Z-3.0000
G01 F40.00
G01 X52.7050 Y2.0847
G01 X50.9271 Y3.8626
G01 X50.9271 Y4.7732
G01 X51.9802 Y3.7202
G01 X51.9894 Y3.7118
G01 X51.9994 Y3.7044
G01 X52.0101 Y3.6979
G01 X52.0214 Y3.6926
G01 X52.0331 Y3.6884
G01 X52.0452 Y3.6854
G01 X52.0575 Y3.6836
G01 X52.0700 Y3.6829
G01 X52.0825 Y3.6836
G01 X52.0948 Y3.6854
G01 X52.1069 Y3.6884
G01 X52.1186 Y3.6926
G01 X52.1299 Y3.6979
G01 X52.1406 Y3.7044
G01 X52.1506 Y3.7118
G01 X52.1598 Y3.7202
G01 X52.1682 Y3.7294
G01 X52.1756 Y3.7394
G01 X52.1821 Y3.7501
G01 X52.1874 Y3.7614
G01 X52.1916 Y3.7731
G01 X52.1946 Y3.7852
G01 X52.1964 Y3.7975
G01 X52.1971 Y3.8100
G01 X52.1971 Y6.3471
G01 X52.1992 Y6.3940
G01 X52.2052 Y6.4361
G01 X52.2160 Y6.4835
G01 X52.2285 Y6.5273
G01 X52.2439 Y6.5659
G01 X52.2632 Y6.6025
G01 X52.2887 Y6.6408
G01 X52.3156 Y6.6780
G01 X52.3453 Y6.7097
G01 X52.3770 Y6.7394
G01 X52.4142 Y6.7663
G01 X52.4525 Y6.7918
G01 X52.4891 Y6.8111
G01 X52.5277 Y6.8265
G01 X52.5715 Y6.8390
G01 X52.6189 Y6.8498
G01 X52.6610 Y6.8558
G01 X52.7050 Y6.8578
G01 X52.7490 Y6.8558
G01 X52.7911 Y6.8498
G01 X52.8385 Y6.8390
G01 X52.8823 Y6.8265
G01 X52.9209 Y6.8111
G01 X52.9575 Y6.7918
G01 X52.9958 Y6.7663
G01 X53.0330 Y6.7394
G01 X53.0647 Y6.7097
G01 X53.0944 Y6.6780
G01 X53.1213 Y6.6408
G01 X53.1468 Y6.6025
G01 X53.1661 Y6.5659
G01 X53.1815 Y6.5273
G01 X53.1940 Y6.4835
G01 X53.2048 Y6.4361
G01 X53.2108 Y6.3940
G01 X53.2129 Y6.3471
G01 X53.2129 Y3.8100
G01 X53.2136 Y3.7975
G01 X53.2154 Y3.7852
G01 X53.2184 Y3.7731
G01 X53.2226 Y3.7614
G01 X53.2279 Y3.7501
G01 X53.2344 Y3.7394
G01 X53.2418 Y3.7294
G01 X53.2502 Y3.7202
G01 X53.2594 Y3.7118
G01 X53.2694 Y3.7044
G01 X53.2801 Y3.6979
G01 X53.2914 Y3.6926
G01 X53.3031 Y3.6884
G01 X53.3152 Y3.6854
G01 X53.3275 Y3.6836
G01 X53.3400 Y3.6829
G01 X53.3525 Y3.6836
G01 X53.3648 Y3.6854
G01 X53.3769 Y3.6884
G01 X53.3886 Y3.6926
G01 X53.3999 Y3.6979
G01 X53.4106 Y3.7044
G01 X53.4206 Y3.7118
G01 X53.4298 Y3.7202
G01 X54.4829 Y4.7732
G01 X54.4829 Y3.8626
G00 Z2.0000
G00 X77.5969 Y1.2671
G01 F20.00
G01 Z-3.0000
G01 F40.00
G01 X77.5971 Y60.9600
G01 X77.5918 Y61.0775
G01 X77.5908 Y61.0893
G01 X77.5755 Y61.1985
G01 X77.5739 Y61.2076
G01 X77.5511 Y61.3143
G01 X77.5482 Y61.3252
G01 X77.5152 Y61.4319
G01 X77.5107 Y61.4440
G01 X77.4676 Y61.5456
G01 X77.4637 Y61.5539
G01 X77.4129 Y61.6530
G01 X77.4077 Y61.6621
G01 X77.3493 Y61.7561
G01 X77.3409 Y61.7680
G01 X77.2683 Y61.8592
G01 X77.1946 Y61.9430
G01 X77.1830 Y61.9546
G01 X77.0992 Y62.0283
G01 X77.0080 Y62.1009
G01 X76.9961 Y62.1093
G01 X76.9021 Y62.1677
G01 X76.8930 Y62.1729
G01 X76.7939 Y62.2237
G01 X76.7856 Y62.2276
G01 X76.6840 Y62.2707
G01 X76.6719 Y62.2752
G01 X76.5652 Y62.3082
G01 X76.5543 Y62.3111
G01 X76.4476 Y62.3339
G01 X76.4385 Y62.3355
G01 X76.3293 Y62.3508
G01 X76.3175 Y62.3518
G01 X76.2000 Y62.3571
G01 X1.2700 Y62.3571
G01 X1.1525 Y62.3518
G01 X1.1407 Y62.3508
G01 X1.0315 Y62.3355
G01 X1.0224 Y62.3339
G01 X0.9157 Y62.3111
G01 X0.9048 Y62.3082
G01 X0.7981 Y62.2752
G01 X0.7860 Y62.2707
G01 X0.6844 Y62.2276
G01 X0.6761 Y62.2237
G01 X0.5770 Y62.1729
G01 X0.5679 Y62.1677
G01 X0.4739 Y62.1093
G01 X0.4620 Y62.1009
G01 X0.3708 Y62.0283
G01 X0.2870 Y61.9546
G01 X0.2754 Y61.9430
G01 X0.2017 Y61.8592
G01 X0.1291 Y61.7680
G01 X0.1207 Y61.7561
G01 X0.0623 Y61.6621
G01 X0.0571 Y61.6530
G01 X0.0063 Y61.5539
G01 X0.0024 Y61.5456
G01 X-0.0407 Y61.4440
G01 X-0.0452 Y61.4319
G01 X-0.0782 Y61.3252
G01 X-0.0811 Y61.3143
G01 X-0.1039 Y61.2076
G01 X-0.1055 Y61.1985
G01 X-0.1208 Y61.0893
G01 X-0.1218 Y61.0775
G01 X-0.1269 Y60.9658
G01 X-0.1271 Y50.8000
G01 X-0.1218 Y50.6825
G01 X-0.1208 Y50.6707
G01 X-0.1055 Y50.5615
G01 X-0.1039 Y50.5524
G01 X-0.0811 Y50.4457
G01 X-0.0782 Y50.4348
G01 X-0.0452 Y50.3281
G01 X-0.0407 Y50.3160
G01 X0.0024 Y50.2144
G01 X0.0063 Y50.2061
G01 X0.0571 Y50.1070
G01 X0.0623 Y50.0979
G01 X0.1207 Y50.0039
G01 X0.1291 Y49.9920
G01 X0.2017 Y49.9008
G01 X0.2754 Y49.8170
G01 X0.2870 Y49.8054
G01 X0.3708 Y49.7317
G01 X0.4620 Y49.6591
G01 X0.4739 Y49.6507
G01 X0.5679 Y49.5923
G01 X0.5770 Y49.5871
G01 X0.6761 Y49.5363
G01 X0.6844 Y49.5324
G01 X0.7860 Y49.4893
G01 X0.7981 Y49.4848
G01 X0.9048 Y49.4518
G01 X0.9157 Y49.4489
G01 X1.0224 Y49.4261
G01 X1.0315 Y49.4245
G01 X1.1407 Y49.4092
G01 X1.1525 Y49.4082
G01 X1.2642 Y49.4031
G01 X15.2371 Y49.4029
G01 X15.4501 Y49.3931
G01 X15.6601 Y49.3666
G01 X15.8650 Y49.3208
G01 X16.0650 Y49.2581
G01 X16.2605 Y49.1761
G01 X16.4465 Y49.0794
G01 X16.6251 Y48.9660
G01 X16.7913 Y48.8384
G01 X16.9459 Y48.6959
G01 X17.0884 Y48.5413
G01 X17.2160 Y48.3751
G01 X17.3294 Y48.1965
G01 X17.4261 Y48.0105
G01 X17.5081 Y47.8150
G01 X17.5708 Y47.6150
G01 X17.6166 Y47.4101
G01 X17.6431 Y47.2001
G01 X17.6529 Y46.9871
G01 X17.6529 Y43.1829
G01 X17.6431 Y42.9699
G01 X17.6166 Y42.7599
G01 X17.5708 Y42.5550
G01 X17.5081 Y42.3550
G01 X17.4261 Y42.1595
G01 X17.3294 Y41.9735
G01 X17.2160 Y41.7949
G01 X17.0884 Y41.6287
G01 X16.9459 Y41.4741
G01 X16.7913 Y41.3316
G01 X16.6251 Y41.2040
G01 X16.4465 Y41.0906
G01 X16.2605 Y40.9939
G01 X16.0650 Y40.9119
G01 X15.8650 Y40.8492
G01 X15.6601 Y40.8034
G01 X15.4501 Y40.7769
G01 X15.2371 Y40.7671
G01 X1.2700 Y40.7671
G01 X1.1525 Y40.7618
G01 X1.1407 Y40.7608
G01 X1.0315 Y40.7455
G01 X1.0224 Y40.7439
G01 X0.9157 Y40.7211
G01 X0.9048 Y40.7182
G01 X0.7981 Y40.6852
G01 X0.7860 Y40.6807
G01 X0.6844 Y40.6376
G01 X0.6761 Y40.6337
G01 X0.5770 Y40.5829
G01 X0.5679 Y40.5777
G01 X0.4739 Y40.5193
G01 X0.4620 Y40.5109
G01 X0.3708 Y40.4383
G01 X0.2870 Y40.3646
G01 X0.2754 Y40.3530
G01 X0.2017 Y40.2692
G01 X0.1291 Y40.1780
G01 X0.1207 Y40.1661
G01 X0.0623 Y40.0721
G01 X0.0571 Y40.0630
G01 X0.0063 Y39.9639
G01 X0.0024 Y39.9556
G01 X-0.0407 Y39.8540
G01 X-0.0452 Y39.8419
G01 X-0.0782 Y39.7352
G01 X-0.0811 Y39.7243
G01 X-0.1039 Y39.6176
G01 X-0.1055 Y39.6085
G01 X-0.1208 Y39.4993
G01 X-0.1218 Y39.4875
G01 X-0.1271 Y39.3700
G01 X-0.1271 Y1.2700
G01 X-0.1218 Y1.1525
G01 X-0.1208 Y1.1407
G01 X-0.1055 Y1.0315
G01 X-0.1039 Y1.0224
G01 X-0.0811 Y0.9157
G01 X-0.0782 Y0.9048
G01 X-0.0452 Y0.7981
G01 X-0.0407 Y0.7860
G01 X0.0024 Y0.6844
G01 X0.0063 Y0.6761
G01 X0.0571 Y0.5770
G01 X0.0623 Y0.5679
G01 X0.1207 Y0.4739
G01 X0.1291 Y0.4620
G01 X0.2017 Y0.3708
G01 X0.2754 Y0.2870
G01 X0.2870 Y0.2754
G01 X0.3708 Y0.2017
G01 X0.4620 Y0.1291
G01 X0.4739 Y0.1207
G01 X0.5679 Y0.0623
G01 X0.5770 Y0.0571
G01 X0.6761 Y0.0063
G01 X0.6844 Y0.0024
G01 X0.7860 Y-0.0407
G01 X0.7981 Y-0.0452
G01 X0.9048 Y-0.0782
G01 X0.9157 Y-0.0811
G01 X1.0224 Y-0.1039
G01 X1.0315 Y-0.1055
G01 X1.1407 Y-0.1208
G01 X1.1525 Y-0.1218
G01 X1.2700 Y-0.1271
G01 X76.2000 Y-0.1271
G01 X76.3175 Y-0.1218
G01 X76.3293 Y-0.1208
G01 X76.4385 Y-0.1055
G01 X76.4476 Y-0.1039
G01 X76.5543 Y-0.0811
G01 X76.5652 Y-0.0782
G01 X76.6719 Y-0.0452
G01 X76.6840 Y-0.0407
G01 X76.7856 Y0.0024
G01 X76.7939 Y0.0063
G01 X76.8930 Y0.0571
G01 X76.9021 Y0.0623
G01 X76.9961 Y0.1207
G01 X77.0080 Y0.1291
G01 X77.0944 Y0.1977
G01 X77.1830 Y0.2754
G01 X77.1946 Y0.2870
G01 X77.2683 Y0.3708
G01 X77.3409 Y0.4620
G01 X77.3493 Y0.4739
G01 X77.4077 Y0.5679
G01 X77.4129 Y0.5770
G01 X77.4637 Y0.6761
G01 X77.4676 Y0.6844
G01 X77.5107 Y0.7860
G01 X77.5152 Y0.7981
G01 X77.5482 Y0.9048
G01 X77.5511 Y0.9157
G01 X77.5739 Y1.0224
G01 X77.5755 Y1.0315
G01 X77.5908 Y1.1407
G01 X77.5918 Y1.1525
G01 X77.5969 Y1.2671
G00 Z2.0000
M05
G00 Z2.0000
G00 Z15.00
G00 X0.0 Y0.0

