(1001)
(T1  D=3.175 CR=0 - ZMIN=-1 - fraise deux tailles)
G90 G94
G17
G21
G28 G91 Z0
G90

(Poche 2D1)
T1
S8000 M3
G54
G0 X34.457 Y34.773
Z15
Z5
G1 Z2.817 F200
X34.439 Y34.788 Z2.698
X34.387 Y34.828 Z2.597
X34.305 Y34.883 Z2.527
X34.202 Y34.943 Z2.5
G3 X32.798 Y32.273 Z2.335 I-0.702 J-1.335
X34.202 Y34.943 Z2.169 I0.702 J1.335
X32.798 Y32.273 Z2.004 I-0.702 J-1.335
X34.202 Y34.943 Z1.838 I0.702 J1.335
X32.798 Y32.273 Z1.673 I-0.702 J-1.335
X34.202 Y34.943 Z1.507 I0.702 J1.335
X32.798 Y32.273 Z1.342 I-0.702 J-1.335
X34.202 Y34.943 Z1.176 I0.702 J1.335
X32.798 Y32.273 Z1.011 I-0.702 J-1.335
X34.202 Y34.943 Z0.845 I0.702 J1.335
X32.798 Y32.273 Z0.68 I-0.702 J-1.335
X34.202 Y34.943 Z0.515 I0.702 J1.335
X32.798 Y32.273 Z0.349 I-0.702 J-1.335
X34.202 Y34.943 Z0.184 I0.702 J1.335
X32.798 Y32.273 Z0.018 I-0.702 J-1.335
X34.202 Y34.943 Z-0.147 I0.702 J1.335
X32.798 Y32.273 Z-0.313 I-0.702 J-1.335
X34.202 Y34.943 Z-0.478 I0.702 J1.335
X32.798 Y32.273 Z-0.644 I-0.702 J-1.335
X34.202 Y34.943 Z-0.809 I0.702 J1.335
X32.798 Y32.273 Z-0.974 I-0.702 J-1.335
X33.5 Y32.1 Z-1 I0.702 J1.335
G1 X109.581
G3 X109.9 Y32.419 I0 J0.319
G1 Y34.581
G3 X109.581 Y34.9 I-0.319 J0
G1 X32.419
G3 X32.1 Y34.581 I0 J-0.319
G1 Y32.419
G3 X32.419 Y32.1 I0.319 J0
G1 X33.5
G2 X35.407 Y30.829 I0 J-2.066
G3 X37.313 Y29.558 I1.907 J0.794
G1 X112.123
G3 X112.442 Y29.877 I0 J0.319
G1 Y37.123
G3 X112.123 Y37.442 I-0.319 J0
G1 X29.877
G3 X29.558 Y37.123 I0 J-0.319
G1 Y29.877
G3 X29.877 Y29.558 I0.319 J0
G1 X37.313
G2 X39.22 Y28.286 I0 J-2.066
G3 X41.127 Y27.015 I1.907 J0.794
G1 X114.665
G3 X114.985 Y27.335 I0 J0.319
G1 Y39.665
G3 X114.665 Y39.985 I-0.319 J0
G1 X27.335
G3 X27.015 Y39.665 I0 J-0.319
G1 Y27.335
G3 X27.335 Y27.015 I0.319 J0
G1 X41.127
G2 X43.034 Y25.744 I0 J-2.066
G3 X44.94 Y24.473 I1.907 J0.794
G1 X117.208
G3 X117.527 Y24.792 I0 J0.319
G1 Y42.208
G3 X117.208 Y42.527 I-0.319 J0
G1 X24.792
G3 X24.473 Y42.208 I0 J-0.319
G1 Y24.792
G3 X24.792 Y24.473 I0.319 J0
G1 X44.94
G2 X46.847 Y23.202 I0 J-2.066
G3 X48.754 Y21.931 I1.907 J0.794
G1 X119.75
G3 X120.069 Y22.25 I0 J0.319
G1 Y44.75
G3 X119.75 Y45.069 I-0.319 J0
G1 X22.25
G3 X21.931 Y44.75 I0 J-0.319
G1 Y22.25
G3 X22.25 Y21.931 I0.319 J0
G1 X48.754
G2 X50.66 Y20.66 I0 J-2.066
G3 X52.567 Y19.388 I1.907 J0.794
G1 X122.292
G3 X122.612 Y19.708 I0 J0.319
G1 Y47.292
G3 X122.292 Y47.612 I-0.319 J0
G1 X19.708
G3 X19.388 Y47.292 I0 J-0.319
G1 Y19.708
G3 X19.708 Y19.388 I0.319 J0
G1 X52.567
G2 X54.474 Y18.117 I0 J-2.066
G3 X56.38 Y16.846 I1.907 J0.794
G1 X124.834
G3 X125.154 Y17.166 I0 J0.319
G1 Y49.834
G3 X124.834 Y50.154 I-0.319 J0
G1 X17.166
G3 X16.846 Y49.834 I0 J-0.319
G1 Y17.166
G3 X17.166 Y16.846 I0.319 J0
G1 X56.38
G2 X58.287 Y15.575 I0 J-2.066
G3 X60.194 Y14.304 I1.907 J0.794
G1 X127.377
G3 X127.696 Y14.623 I0 J0.319
G1 Y52.377
G3 X127.377 Y52.696 I-0.319 J0
G1 X14.623
G3 X14.304 Y52.377 I0 J-0.319
G1 Y14.623
G3 X14.623 Y14.304 I0.319 J0
G1 X60.194
G2 X62.101 Y13.033 I0 J-2.066
G3 X64.007 Y11.762 I1.907 J0.794
G1 X129.919
G3 X130.238 Y12.081 I0 J0.319
G1 Y54.919
G3 X129.919 Y55.238 I-0.319 J0
G1 X12.081
G3 X11.762 Y54.919 I0 J-0.319
G1 Y12.081
G3 X12.081 Y11.762 I0.319 J0
G1 X64.007
G2 X65.914 Y10.49 I0 J-2.066
G3 X67.821 Y9.219 I1.907 J0.794
G1 X132.461
G3 X132.781 Y9.539 I0 J0.319
G1 Y57.461
G3 X132.461 Y57.781 I-0.319 J0
G1 X9.539
G3 X9.219 Y57.461 I0 J-0.319
G1 Y9.539
G3 X9.539 Y9.219 I0.319 J0
G1 X67.821
G2 X69.727 Y7.948 I0 J-2.066
G3 X71.634 Y6.677 I1.907 J0.794
G1 X135.004
G3 X135.323 Y6.996 I0 J0.319
G1 Y60.004
G3 X135.004 Y60.323 I-0.319 J0
G1 X6.996
G3 X6.677 Y60.004 I0 J-0.319
G1 Y6.996
G3 X6.996 Y6.677 I0.319 J0
G1 X71.634
G2 X73.541 Y5.406 I0 J-2.066
G3 X75.448 Y4.135 I1.907 J0.794
G1 X137.546
G3 X137.865 Y4.454 I0 J0.319
G1 Y62.546
G3 X137.546 Y62.865 I-0.319 J0
G1 X4.454
G3 X4.135 Y62.546 I0 J-0.319
G1 Y4.454
G3 X4.454 Y4.135 I0.319 J0
G1 X75.448
G2 X77.358 Y2.861 I0 J-2.07
G3 X79.268 Y1.587 I1.91 J0.796
G1 X140.413
Y65.412
X1.587
Y1.587
X79.268
X79.329 Y1.593 Z-0.988
X79.387 Y1.61 Z-0.976
X79.433 Y1.633 Z-0.941
X79.475 Y1.664 Z-0.907
X79.522 Y1.714 Z-0.804
X79.536 Y1.733 Z-0.683
G0 Z15
G28 G91 Z0
G90
G28 G91 X0 Y0
G90
M5
M30
