(G-CODE GENERATED BY FLATCAM v8.991 - www.flatcam.org - Version Date: 2019/12/27)

(Name: Air Quality - Drill Reference)
(Type: G-code from Excellon)
(Units: MM)

(Created on Monday, 22 March 2021 at 15:25)

(Feedrate: 10.0 mm/min)
(Feedrate rapids 1500.0 mm/min)

(Z_Cut: -1.7 mm)
(Z_Move: 2.0 mm)
(Z Toolchange: 15.0 mm)
(X,Y Toolchange: 0.0000, 0.0000 mm)
(Z Start: None mm)
(Z End: 1.0 mm)
(Steps per circle: 64)
(Preprocessor Excellon: default)

(X range:    3.8100 ...   67.6402  mm)
(Y range:    0.9398 ...   52.4002  mm)

(Spindle Speed: None RPM)
G21
G90
G94




G01 F10.00
G00 Z2.0000

M03
G00 X35.5600 Y5.8420
G01 Z-1.7000
G01 Z0
G00 Z2.0000
G00 X40.6400 Y5.8420
G01 Z-1.7000
G01 Z0
G00 Z2.0000
G00 X40.6400 Y12.9540
G01 Z-1.7000
G01 Z0
G00 Z2.0000
G00 X51.8160 Y42.6720
G01 Z-1.7000
G01 Z0
G00 Z2.0000
G00 X39.1160 Y46.4820
G01 Z-1.7000
G01 Z0
G00 Z2.0000
G00 X36.5760 Y46.4820
G01 Z-1.7000
G01 Z0
G00 Z2.0000
G00 X34.0360 Y46.4820
G01 Z-1.7000
G01 Z0
G00 Z2.0000
G00 X31.4960 Y46.4820
G01 Z-1.7000
G01 Z0
G00 Z2.0000
G00 X28.9560 Y46.4820
G01 Z-1.7000
G01 Z0
G00 Z2.0000
G00 X26.4160 Y46.4820
G01 Z-1.7000
G01 Z0
G00 Z2.0000
G00 X24.8920 Y42.4180
G01 Z-1.7000
G01 Z0
G00 Z2.0000
G00 X18.2880 Y44.9580
G01 Z-1.7000
G01 Z0
G00 Z2.0000
G00 X8.6360 Y26.1620
G01 Z-1.7000
G01 Z0
G00 Z2.0000
M03
G00 X14.4780 Y42.4180
G01 Z-1.7000
G01 Z0
G00 Z2.0000
G00 X14.4780 Y44.9580
G01 Z-1.7000
G01 Z0
G00 Z2.0000
G00 X44.1960 Y8.3820
G01 Z-1.7000
G01 Z0
G00 Z2.0000
G00 X34.0360 Y8.3820
G01 Z-1.7000
G01 Z0
G00 Z2.0000
G00 X21.5900 Y5.8420
G01 Z-1.7000
G01 Z0
G00 Z2.0000
G00 X21.5900 Y8.3820
G01 Z-1.7000
G01 Z0
G00 Z2.0000
G00 X14.4780 Y37.3380
G01 Z-1.7000
G01 Z0
G00 Z2.0000
G00 X14.4780 Y39.8780
G01 Z-1.7000
G01 Z0
G00 Z2.0000
M03
G00 X48.2600 Y50.8000
G01 Z-1.7000
G01 Z0
G00 Z2.0000
G00 X50.8000 Y50.8000
G01 Z-1.7000
G01 Z0
G00 Z2.0000
G00 X53.3400 Y50.8000
G01 Z-1.7000
G01 Z0
G00 Z2.0000
G00 X55.8800 Y50.8000
G01 Z-1.7000
G01 Z0
G00 Z2.0000
G00 X58.4200 Y50.8000
G01 Z-1.7000
G01 Z0
G00 Z2.0000
G00 X60.9600 Y50.8000
G01 Z-1.7000
G01 Z0
G00 Z2.0000
G00 X63.5000 Y50.8000
G01 Z-1.7000
G01 Z0
G00 Z2.0000
G00 X63.5000 Y2.5400
G01 Z-1.7000
G01 Z0
G00 Z2.0000
G00 X60.9600 Y2.5400
G01 Z-1.7000
G01 Z0
G00 Z2.0000
G00 X58.4200 Y2.5400
G01 Z-1.7000
G01 Z0
G00 Z2.0000
G00 X55.8800 Y2.5400
G01 Z-1.7000
G01 Z0
G00 Z2.0000
G00 X53.3400 Y2.5400
G01 Z-1.7000
G01 Z0
G00 Z2.0000
G00 X50.8000 Y2.5400
G01 Z-1.7000
G01 Z0
G00 Z2.0000
G00 X45.7200 Y2.5400
G01 Z-1.7000
G01 Z0
G00 Z2.0000
G00 X43.1800 Y2.5400
G01 Z-1.7000
G01 Z0
G00 Z2.0000
G00 X40.6400 Y2.5400
G01 Z-1.7000
G01 Z0
G00 Z2.0000
G00 X38.1000 Y2.5400
G01 Z-1.7000
G01 Z0
G00 Z2.0000
G00 X35.5600 Y2.5400
G01 Z-1.7000
G01 Z0
G00 Z2.0000
G00 X33.0200 Y2.5400
G01 Z-1.7000
G01 Z0
G00 Z2.0000
G00 X23.8760 Y50.8000
G01 Z-1.7000
G01 Z0
G00 Z2.0000
G00 X26.4160 Y50.8000
G01 Z-1.7000
G01 Z0
G00 Z2.0000
G00 X28.9560 Y50.8000
G01 Z-1.7000
G01 Z0
G00 Z2.0000
G00 X31.4960 Y50.8000
G01 Z-1.7000
G01 Z0
G00 Z2.0000
G00 X34.0360 Y50.8000
G01 Z-1.7000
G01 Z0
G00 Z2.0000
G00 X36.5760 Y50.8000
G01 Z-1.7000
G01 Z0
G00 Z2.0000
G00 X39.1160 Y50.8000
G01 Z-1.7000
G01 Z0
G00 Z2.0000
G00 X41.6560 Y50.8000
G01 Z-1.7000
G01 Z0
G00 Z2.0000
G00 X45.7200 Y50.8000
G01 Z-1.7000
G01 Z0
G00 Z2.0000
M03
G00 X51.8160 Y39.3700
G01 Z-1.7000
G01 Z0
G00 Z2.0000
G00 X49.2760 Y39.3700
G01 Z-1.7000
G01 Z0
G00 Z2.0000
G00 X46.7360 Y39.3700
G01 Z-1.7000
G01 Z0
G00 Z2.0000
G00 X44.1960 Y39.3700
G01 Z-1.7000
G01 Z0
G00 Z2.0000
G00 X4.3180 Y26.1620
G01 Z-1.7000
G01 Z0
G00 Z2.0000
G00 X4.3180 Y23.6220
G01 Z-1.7000
G01 Z0
G00 Z2.0000
G00 X4.3180 Y21.0820
G01 Z-1.7000
G01 Z0
G00 Z2.0000
G00 X4.3180 Y18.5420
G01 Z-1.7000
G01 Z0
G00 Z2.0000
G00 X44.1960 Y13.9700
G01 Z-1.7000
G01 Z0
G00 Z2.0000
G00 X46.7360 Y13.9700
G01 Z-1.7000
G01 Z0
G00 Z2.0000
G00 X49.2760 Y13.9700
G01 Z-1.7000
G01 Z0
G00 Z2.0000
G00 X51.8160 Y13.9700
G01 Z-1.7000
G01 Z0
G00 Z2.0000
G00 X54.3560 Y13.9700
G01 Z-1.7000
G01 Z0
G00 Z2.0000
G00 X56.8960 Y13.9700
G01 Z-1.7000
G01 Z0
G00 Z2.0000
G00 X59.4360 Y13.9700
G01 Z-1.7000
G01 Z0
G00 Z2.0000
G00 X61.9760 Y13.9700
G01 Z-1.7000
G01 Z0
G00 Z2.0000
G00 X61.9760 Y39.3700
G01 Z-1.7000
G01 Z0
G00 Z2.0000
G00 X59.4360 Y39.3700
G01 Z-1.7000
G01 Z0
G00 Z2.0000
G00 X56.8960 Y39.3700
G01 Z-1.7000
G01 Z0
G00 Z2.0000
G00 X54.3560 Y39.3700
G01 Z-1.7000
G01 Z0
G00 Z2.0000
M03
G00 X66.0400 Y35.5600
G01 Z-1.7000
G01 Z0
G00 Z2.0000
G00 X15.2400 Y50.8000
G01 Z-1.7000
G01 Z0
G00 Z2.0000
G00 X13.9700 Y2.5400
G01 Z-1.7000
G01 Z0
G00 Z2.0000
M05
G00 Z1.00
G00 X0.0 Y0.0

