(G-CODE GENERATED BY FLATCAM v8.991 - www.flatcam.org - Version Date: 2019/12/27)

(Name: Air Quality - Iso)
(Type: G-code from Geometry)
(Units: MM)

(Created on Monday, 22 March 2021 at 15:25)

(TOOL DIAMETER: 0.28 mm)
(Feedrate: 100.0 mm/min)
(Feedrate_Z: 60.0 mm/min)
(Feedrate rapids 1500.0 mm/min)

(Z_Cut: -0.15 mm)
(Z_Move: 2.0 mm)
(Z Toolchange: 15.0 mm)
(X,Y Toolchange: 0.0000, 0.0000 mm)
(Z Start: None mm)
(Z End: 15.0 mm)
(Steps per circle: 64)
(Preprocessor Geometry: default)

(X range:    2.1504 ...   64.9822  mm)
(Y range:    1.0578 ...   52.2822  mm)

(Spindle Speed: None RPM)
G21
G90
G94




G01 F100.00
G00 Z2.0000

M03
G00 X5.0800 Y19.4444
G01 F60.00
G01 Z-0.1500
G01 F100.00
G01 X3.5560 Y19.4444
G01 X3.4744 Y19.4405
G01 X3.4607 Y19.4392
G01 X3.3867 Y19.4282
G01 X3.3733 Y19.4255
G01 X3.3007 Y19.4074
G01 X3.2875 Y19.4034
G01 X3.2171 Y19.3782
G01 X3.2044 Y19.3729
G01 X3.1368 Y19.3409
G01 X3.1246 Y19.3344
G01 X3.0605 Y19.2960
G01 X3.0490 Y19.2883
G01 X2.9890 Y19.2438
G01 X2.9783 Y19.2351
G01 X2.9229 Y19.1848
G01 X2.9132 Y19.1751
G01 X2.8629 Y19.1197
G01 X2.8542 Y19.1090
G01 X2.8097 Y19.0490
G01 X2.8020 Y19.0375
G01 X2.7636 Y18.9734
G01 X2.7571 Y18.9612
G01 X2.7251 Y18.8936
G01 X2.7198 Y18.8809
G01 X2.6946 Y18.8105
G01 X2.6906 Y18.7973
G01 X2.6725 Y18.7247
G01 X2.6698 Y18.7113
G01 X2.6588 Y18.6373
G01 X2.6575 Y18.6236
G01 X2.6538 Y18.5489
G01 X2.6538 Y18.5351
G01 X2.6575 Y18.4604
G01 X2.6588 Y18.4467
G01 X2.6698 Y18.3727
G01 X2.6725 Y18.3593
G01 X2.6906 Y18.2867
G01 X2.6946 Y18.2735
G01 X2.7198 Y18.2031
G01 X2.7251 Y18.1904
G01 X2.7571 Y18.1228
G01 X2.7636 Y18.1106
G01 X2.8020 Y18.0465
G01 X2.8097 Y18.0350
G01 X2.8542 Y17.9750
G01 X2.8629 Y17.9643
G01 X2.9132 Y17.9089
G01 X2.9229 Y17.8992
G01 X2.9783 Y17.8489
G01 X2.9890 Y17.8402
G01 X3.0490 Y17.7957
G01 X3.0605 Y17.7880
G01 X3.1246 Y17.7496
G01 X3.1368 Y17.7431
G01 X3.2044 Y17.7111
G01 X3.2171 Y17.7058
G01 X3.2875 Y17.6806
G01 X3.3007 Y17.6766
G01 X3.3733 Y17.6585
G01 X3.3867 Y17.6558
G01 X3.4607 Y17.6448
G01 X3.4744 Y17.6435
G01 X3.5560 Y17.6396
G01 X5.0800 Y17.6396
G01 X5.1616 Y17.6435
G01 X5.1753 Y17.6448
G01 X5.2493 Y17.6558
G01 X5.2627 Y17.6585
G01 X5.3353 Y17.6766
G01 X5.3485 Y17.6806
G01 X5.4189 Y17.7058
G01 X5.4316 Y17.7111
G01 X5.4992 Y17.7431
G01 X5.5114 Y17.7496
G01 X5.5755 Y17.7880
G01 X5.5870 Y17.7957
G01 X5.6470 Y17.8402
G01 X5.6577 Y17.8489
G01 X5.7131 Y17.8992
G01 X5.7228 Y17.9089
G01 X5.7731 Y17.9643
G01 X5.7818 Y17.9750
G01 X5.8263 Y18.0350
G01 X5.8340 Y18.0465
G01 X5.8724 Y18.1106
G01 X5.8789 Y18.1228
G01 X5.9109 Y18.1904
G01 X5.9162 Y18.2031
G01 X5.9414 Y18.2735
G01 X5.9454 Y18.2867
G01 X5.9635 Y18.3593
G01 X5.9662 Y18.3727
G01 X5.9772 Y18.4467
G01 X5.9785 Y18.4604
G01 X5.9822 Y18.5351
G01 X5.9822 Y18.5489
G01 X5.9785 Y18.6236
G01 X5.9772 Y18.6373
G01 X5.9662 Y18.7113
G01 X5.9635 Y18.7247
G01 X5.9454 Y18.7973
G01 X5.9414 Y18.8105
G01 X5.9162 Y18.8809
G01 X5.9109 Y18.8936
G01 X5.8789 Y18.9612
G01 X5.8724 Y18.9734
G01 X5.8340 Y19.0375
G01 X5.8263 Y19.0490
G01 X5.7818 Y19.1090
G01 X5.7731 Y19.1197
G01 X5.7228 Y19.1751
G01 X5.7131 Y19.1848
G01 X5.6577 Y19.2351
G01 X5.6470 Y19.2438
G01 X5.5870 Y19.2883
G01 X5.5755 Y19.2960
G01 X5.5114 Y19.3344
G01 X5.4992 Y19.3409
G01 X5.4316 Y19.3729
G01 X5.4189 Y19.3782
G01 X5.3485 Y19.4034
G01 X5.3353 Y19.4074
G01 X5.2627 Y19.4255
G01 X5.2493 Y19.4282
G01 X5.1753 Y19.4392
G01 X5.1616 Y19.4405
G01 X5.0800 Y19.4444
G00 Z2.0000
G00 X5.0800 Y19.6964
G01 F60.00
G01 Z-0.1500
G01 F100.00
G01 X3.5560 Y19.6964
G01 X3.5368 Y19.6959
G01 X3.4620 Y19.6922
G01 X3.4238 Y19.6885
G01 X3.3497 Y19.6775
G01 X3.3120 Y19.6700
G01 X3.2394 Y19.6518
G01 X3.2026 Y19.6406
G01 X3.1322 Y19.6154
G01 X3.0966 Y19.6007
G01 X3.0290 Y19.5687
G01 X2.9951 Y19.5506
G01 X2.9309 Y19.5121
G01 X2.8989 Y19.4908
G01 X2.8388 Y19.4462
G01 X2.8091 Y19.4218
G01 X2.7537 Y19.3715
G01 X2.7265 Y19.3443
G01 X2.6762 Y19.2889
G01 X2.6518 Y19.2592
G01 X2.6072 Y19.1991
G01 X2.5859 Y19.1671
G01 X2.5474 Y19.1029
G01 X2.5293 Y19.0690
G01 X2.4973 Y19.0014
G01 X2.4826 Y18.9658
G01 X2.4574 Y18.8954
G01 X2.4462 Y18.8586
G01 X2.4280 Y18.7860
G01 X2.4205 Y18.7483
G01 X2.4095 Y18.6742
G01 X2.4058 Y18.6360
G01 X2.4021 Y18.5612
G01 X2.4021 Y18.5228
G01 X2.4058 Y18.4480
G01 X2.4095 Y18.4098
G01 X2.4205 Y18.3357
G01 X2.4280 Y18.2980
G01 X2.4462 Y18.2254
G01 X2.4574 Y18.1886
G01 X2.4826 Y18.1182
G01 X2.4973 Y18.0826
G01 X2.5293 Y18.0150
G01 X2.5474 Y17.9811
G01 X2.5859 Y17.9169
G01 X2.6072 Y17.8849
G01 X2.6518 Y17.8248
G01 X2.6762 Y17.7951
G01 X2.7265 Y17.7397
G01 X2.7537 Y17.7125
G01 X2.8091 Y17.6622
G01 X2.8388 Y17.6378
G01 X2.8989 Y17.5932
G01 X2.9309 Y17.5719
G01 X2.9951 Y17.5334
G01 X3.0290 Y17.5153
G01 X3.0966 Y17.4833
G01 X3.1322 Y17.4686
G01 X3.2026 Y17.4434
G01 X3.2394 Y17.4322
G01 X3.3120 Y17.4140
G01 X3.3497 Y17.4065
G01 X3.4238 Y17.3955
G01 X3.4620 Y17.3918
G01 X3.5368 Y17.3881
G01 X3.5560 Y17.3876
G01 X5.0800 Y17.3876
G01 X5.0992 Y17.3881
G01 X5.1740 Y17.3918
G01 X5.2122 Y17.3955
G01 X5.2863 Y17.4065
G01 X5.3240 Y17.4140
G01 X5.3966 Y17.4322
G01 X5.4334 Y17.4434
G01 X5.5038 Y17.4686
G01 X5.5394 Y17.4833
G01 X5.6070 Y17.5153
G01 X5.6409 Y17.5334
G01 X5.7051 Y17.5719
G01 X5.7371 Y17.5932
G01 X5.7972 Y17.6378
G01 X5.8269 Y17.6622
G01 X5.8823 Y17.7125
G01 X5.9095 Y17.7397
G01 X5.9598 Y17.7951
G01 X5.9842 Y17.8248
G01 X6.0288 Y17.8849
G01 X6.0501 Y17.9169
G01 X6.0886 Y17.9811
G01 X6.1067 Y18.0150
G01 X6.1387 Y18.0826
G01 X6.1534 Y18.1182
G01 X6.1786 Y18.1886
G01 X6.1898 Y18.2254
G01 X6.2080 Y18.2980
G01 X6.2155 Y18.3357
G01 X6.2265 Y18.4098
G01 X6.2302 Y18.4480
G01 X6.2339 Y18.5228
G01 X6.2339 Y18.5612
G01 X6.2302 Y18.6360
G01 X6.2265 Y18.6742
G01 X6.2155 Y18.7483
G01 X6.2080 Y18.7860
G01 X6.1898 Y18.8586
G01 X6.1786 Y18.8954
G01 X6.1534 Y18.9658
G01 X6.1387 Y19.0014
G01 X6.1067 Y19.0690
G01 X6.0886 Y19.1029
G01 X6.0501 Y19.1671
G01 X6.0288 Y19.1991
G01 X5.9842 Y19.2592
G01 X5.9598 Y19.2889
G01 X5.9095 Y19.3443
G01 X5.8823 Y19.3715
G01 X5.8269 Y19.4218
G01 X5.7972 Y19.4462
G01 X5.7371 Y19.4908
G01 X5.7051 Y19.5121
G01 X5.6409 Y19.5506
G01 X5.6070 Y19.5687
G01 X5.5394 Y19.6007
G01 X5.5038 Y19.6154
G01 X5.4334 Y19.6406
G01 X5.3966 Y19.6518
G01 X5.3240 Y19.6700
G01 X5.2863 Y19.6775
G01 X5.2122 Y19.6885
G01 X5.1740 Y19.6922
G01 X5.0992 Y19.6959
G01 X5.0800 Y19.6964
G00 Z2.0000
G00 X5.6820 Y19.8120
G01 F60.00
G01 Z-0.1500
G01 F100.00
G01 X5.7147 Y19.8275
G01 X5.7705 Y19.8573
G01 X5.8346 Y19.8957
G01 X5.8872 Y19.9308
G01 X5.9473 Y19.9754
G01 X5.9961 Y20.0155
G01 X6.0516 Y20.0657
G01 X6.0963 Y20.1104
G01 X6.1465 Y20.1659
G01 X6.1866 Y20.2147
G01 X6.2312 Y20.2748
G01 X6.2663 Y20.3274
G01 X6.3047 Y20.3915
G01 X6.3345 Y20.4473
G01 X6.3665 Y20.5149
G01 X6.3907 Y20.5733
G01 X6.4159 Y20.6437
G01 X6.4343 Y20.7042
G01 X6.4524 Y20.7768
G01 X6.4648 Y20.8388
G01 X6.4757 Y20.9128
G01 X6.4819 Y20.9757
G01 X6.4856 Y21.0504
G01 X6.4856 Y21.1136
G01 X6.4819 Y21.1883
G01 X6.4757 Y21.2512
G01 X6.4648 Y21.3252
G01 X6.4524 Y21.3872
G01 X6.4343 Y21.4598
G01 X6.4159 Y21.5203
G01 X6.3907 Y21.5907
G01 X6.3665 Y21.6491
G01 X6.3345 Y21.7167
G01 X6.3047 Y21.7725
G01 X6.2663 Y21.8366
G01 X6.2312 Y21.8892
G01 X6.1866 Y21.9493
G01 X6.1465 Y21.9981
G01 X6.0963 Y22.0536
G01 X6.0516 Y22.0983
G01 X5.9961 Y22.1485
G01 X5.9473 Y22.1886
G01 X5.8872 Y22.2332
G01 X5.8346 Y22.2683
G01 X5.7705 Y22.3067
G01 X5.7147 Y22.3365
G01 X5.6820 Y22.3520
G01 X5.7147 Y22.3675
G01 X5.7705 Y22.3973
G01 X5.8346 Y22.4357
G01 X5.8872 Y22.4708
G01 X5.9473 Y22.5154
G01 X5.9961 Y22.5555
G01 X6.0516 Y22.6057
G01 X6.0963 Y22.6504
G01 X6.1465 Y22.7059
G01 X6.1866 Y22.7547
G01 X6.2312 Y22.8148
G01 X6.2663 Y22.8674
G01 X6.3047 Y22.9315
G01 X6.3345 Y22.9873
G01 X6.3665 Y23.0549
G01 X6.3907 Y23.1133
G01 X6.4159 Y23.1837
G01 X6.4343 Y23.2442
G01 X6.4524 Y23.3168
G01 X6.4648 Y23.3788
G01 X6.4757 Y23.4528
G01 X6.4819 Y23.5157
G01 X6.4856 Y23.5904
G01 X6.4856 Y23.6536
G01 X6.4819 Y23.7283
G01 X6.4757 Y23.7912
G01 X6.4648 Y23.8652
G01 X6.4524 Y23.9272
G01 X6.4343 Y23.9998
G01 X6.4159 Y24.0603
G01 X6.3907 Y24.1307
G01 X6.3665 Y24.1891
G01 X6.3345 Y24.2567
G01 X6.3047 Y24.3125
G01 X6.2663 Y24.3766
G01 X6.2312 Y24.4292
G01 X6.1866 Y24.4893
G01 X6.1465 Y24.5381
G01 X6.0963 Y24.5936
G01 X6.0516 Y24.6383
G01 X5.9961 Y24.6885
G01 X5.9473 Y24.7286
G01 X5.8872 Y24.7732
G01 X5.8346 Y24.8083
G01 X5.7705 Y24.8467
G01 X5.7147 Y24.8765
G01 X5.6820 Y24.8920
G01 X5.7147 Y24.9075
G01 X5.7705 Y24.9373
G01 X5.8346 Y24.9757
G01 X5.8872 Y25.0108
G01 X5.9473 Y25.0554
G01 X5.9961 Y25.0955
G01 X6.0516 Y25.1457
G01 X6.0963 Y25.1904
G01 X6.1465 Y25.2459
G01 X6.1866 Y25.2947
G01 X6.2312 Y25.3548
G01 X6.2663 Y25.4074
G01 X6.3047 Y25.4715
G01 X6.3345 Y25.5273
G01 X6.3665 Y25.5949
G01 X6.3907 Y25.6533
G01 X6.4159 Y25.7237
G01 X6.4343 Y25.7842
G01 X6.4524 Y25.8568
G01 X6.4648 Y25.9188
G01 X6.4757 Y25.9928
G01 X6.4819 Y26.0557
G01 X6.4856 Y26.1304
G01 X6.4856 Y26.1936
G01 X6.4819 Y26.2683
G01 X6.4757 Y26.3312
G01 X6.4648 Y26.4052
G01 X6.4524 Y26.4672
G01 X6.4343 Y26.5398
G01 X6.4159 Y26.6003
G01 X6.3907 Y26.6707
G01 X6.3665 Y26.7291
G01 X6.3345 Y26.7967
G01 X6.3047 Y26.8525
G01 X6.2663 Y26.9166
G01 X6.2312 Y26.9692
G01 X6.1866 Y27.0293
G01 X6.1465 Y27.0781
G01 X6.0963 Y27.1336
G01 X6.0516 Y27.1783
G01 X5.9961 Y27.2285
G01 X5.9473 Y27.2686
G01 X5.8872 Y27.3132
G01 X5.8346 Y27.3483
G01 X5.7705 Y27.3867
G01 X5.7147 Y27.4165
G01 X5.6471 Y27.4485
G01 X5.5887 Y27.4727
G01 X5.5183 Y27.4979
G01 X5.4578 Y27.5163
G01 X5.3852 Y27.5344
G01 X5.3232 Y27.5468
G01 X5.2492 Y27.5577
G01 X5.1863 Y27.5639
G01 X5.1116 Y27.5676
G01 X5.0800 Y27.5684
G01 X3.5560 Y27.5684
G01 X3.5244 Y27.5676
G01 X3.4497 Y27.5639
G01 X3.3868 Y27.5577
G01 X3.3128 Y27.5468
G01 X3.2508 Y27.5344
G01 X3.1782 Y27.5163
G01 X3.1177 Y27.4979
G01 X3.0473 Y27.4727
G01 X2.9889 Y27.4485
G01 X2.9213 Y27.4165
G01 X2.8655 Y27.3867
G01 X2.8014 Y27.3483
G01 X2.7488 Y27.3132
G01 X2.6887 Y27.2686
G01 X2.6399 Y27.2285
G01 X2.5844 Y27.1783
G01 X2.5397 Y27.1336
G01 X2.4895 Y27.0781
G01 X2.4494 Y27.0293
G01 X2.4048 Y26.9692
G01 X2.3697 Y26.9166
G01 X2.3313 Y26.8525
G01 X2.3015 Y26.7967
G01 X2.2695 Y26.7291
G01 X2.2453 Y26.6707
G01 X2.2201 Y26.6003
G01 X2.2017 Y26.5398
G01 X2.1836 Y26.4672
G01 X2.1712 Y26.4052
G01 X2.1603 Y26.3312
G01 X2.1541 Y26.2683
G01 X2.1504 Y26.1936
G01 X2.1504 Y26.1304
G01 X2.1541 Y26.0557
G01 X2.1603 Y25.9928
G01 X2.1712 Y25.9188
G01 X2.1836 Y25.8568
G01 X2.2017 Y25.7842
G01 X2.2201 Y25.7237
G01 X2.2453 Y25.6533
G01 X2.2695 Y25.5949
G01 X2.3015 Y25.5273
G01 X2.3313 Y25.4715
G01 X2.3697 Y25.4074
G01 X2.4048 Y25.3548
G01 X2.4494 Y25.2947
G01 X2.4895 Y25.2459
G01 X2.5397 Y25.1904
G01 X2.5844 Y25.1457
G01 X2.6399 Y25.0955
G01 X2.6887 Y25.0554
G01 X2.7488 Y25.0108
G01 X2.8014 Y24.9757
G01 X2.8655 Y24.9373
G01 X2.9213 Y24.9075
G01 X2.9540 Y24.8920
G01 X2.9213 Y24.8765
G01 X2.8655 Y24.8467
G01 X2.8014 Y24.8083
G01 X2.7488 Y24.7732
G01 X2.6887 Y24.7286
G01 X2.6399 Y24.6885
G01 X2.5844 Y24.6383
G01 X2.5397 Y24.5936
G01 X2.4895 Y24.5381
G01 X2.4494 Y24.4893
G01 X2.4048 Y24.4292
G01 X2.3697 Y24.3766
G01 X2.3313 Y24.3125
G01 X2.3015 Y24.2567
G01 X2.2695 Y24.1891
G01 X2.2453 Y24.1307
G01 X2.2201 Y24.0603
G01 X2.2017 Y23.9998
G01 X2.1836 Y23.9272
G01 X2.1712 Y23.8652
G01 X2.1603 Y23.7912
G01 X2.1541 Y23.7283
G01 X2.1504 Y23.6536
G01 X2.1504 Y23.5904
G01 X2.1541 Y23.5157
G01 X2.1603 Y23.4528
G01 X2.1712 Y23.3788
G01 X2.1836 Y23.3168
G01 X2.2017 Y23.2442
G01 X2.2201 Y23.1837
G01 X2.2453 Y23.1133
G01 X2.2695 Y23.0549
G01 X2.3015 Y22.9873
G01 X2.3313 Y22.9315
G01 X2.3697 Y22.8674
G01 X2.4048 Y22.8148
G01 X2.4494 Y22.7547
G01 X2.4895 Y22.7059
G01 X2.5397 Y22.6504
G01 X2.5844 Y22.6057
G01 X2.6399 Y22.5555
G01 X2.6887 Y22.5154
G01 X2.7488 Y22.4708
G01 X2.8014 Y22.4357
G01 X2.8655 Y22.3973
G01 X2.9213 Y22.3675
G01 X2.9540 Y22.3520
G01 X2.9213 Y22.3365
G01 X2.8655 Y22.3067
G01 X2.8014 Y22.2683
G01 X2.7488 Y22.2332
G01 X2.6887 Y22.1886
G01 X2.6399 Y22.1485
G01 X2.5844 Y22.0983
G01 X2.5397 Y22.0536
G01 X2.4895 Y21.9981
G01 X2.4494 Y21.9493
G01 X2.4048 Y21.8892
G01 X2.3697 Y21.8366
G01 X2.3313 Y21.7725
G01 X2.3015 Y21.7167
G01 X2.2695 Y21.6491
G01 X2.2453 Y21.5907
G01 X2.2201 Y21.5203
G01 X2.2017 Y21.4598
G01 X2.1836 Y21.3872
G01 X2.1712 Y21.3252
G01 X2.1603 Y21.2512
G01 X2.1541 Y21.1883
G01 X2.1504 Y21.1136
G01 X2.1504 Y21.0504
G01 X2.1541 Y20.9757
G01 X2.1603 Y20.9128
G01 X2.1712 Y20.8388
G01 X2.1836 Y20.7768
G01 X2.2017 Y20.7042
G01 X2.2201 Y20.6437
G01 X2.2453 Y20.5733
G01 X2.2695 Y20.5149
G01 X2.3015 Y20.4473
G01 X2.3313 Y20.3915
G01 X2.3697 Y20.3274
G01 X2.4048 Y20.2748
G01 X2.4494 Y20.2147
G01 X2.4895 Y20.1659
G01 X2.5397 Y20.1104
G01 X2.5844 Y20.0657
G01 X2.6399 Y20.0155
G01 X2.6887 Y19.9754
G01 X2.7488 Y19.9308
G01 X2.8014 Y19.8957
G01 X2.8655 Y19.8573
G01 X2.9213 Y19.8275
G01 X2.9540 Y19.8120
G01 X2.9213 Y19.7965
G01 X2.8655 Y19.7667
G01 X2.8014 Y19.7283
G01 X2.7488 Y19.6932
G01 X2.6887 Y19.6486
G01 X2.6399 Y19.6085
G01 X2.5844 Y19.5583
G01 X2.5397 Y19.5136
G01 X2.4895 Y19.4581
G01 X2.4494 Y19.4093
G01 X2.4048 Y19.3492
G01 X2.3697 Y19.2966
G01 X2.3313 Y19.2325
G01 X2.3015 Y19.1767
G01 X2.2695 Y19.1091
G01 X2.2453 Y19.0507
G01 X2.2201 Y18.9803
G01 X2.2017 Y18.9198
G01 X2.1836 Y18.8472
G01 X2.1712 Y18.7852
G01 X2.1603 Y18.7112
G01 X2.1541 Y18.6483
G01 X2.1504 Y18.5736
G01 X2.1504 Y18.5104
G01 X2.1541 Y18.4357
G01 X2.1603 Y18.3728
G01 X2.1712 Y18.2988
G01 X2.1836 Y18.2368
G01 X2.2017 Y18.1642
G01 X2.2201 Y18.1037
G01 X2.2453 Y18.0333
G01 X2.2695 Y17.9749
G01 X2.3015 Y17.9073
G01 X2.3313 Y17.8515
G01 X2.3697 Y17.7874
G01 X2.4048 Y17.7348
G01 X2.4494 Y17.6747
G01 X2.4895 Y17.6259
G01 X2.5397 Y17.5704
G01 X2.5844 Y17.5257
G01 X2.6399 Y17.4755
G01 X2.6887 Y17.4354
G01 X2.7488 Y17.3908
G01 X2.8014 Y17.3557
G01 X2.8655 Y17.3173
G01 X2.9213 Y17.2875
G01 X2.9889 Y17.2555
G01 X3.0473 Y17.2313
G01 X3.1177 Y17.2061
G01 X3.1782 Y17.1877
G01 X3.2508 Y17.1696
G01 X3.3128 Y17.1572
G01 X3.3868 Y17.1463
G01 X3.4497 Y17.1401
G01 X3.5244 Y17.1364
G01 X3.5560 Y17.1356
G01 X5.0800 Y17.1356
G01 X5.1116 Y17.1364
G01 X5.1863 Y17.1401
G01 X5.2492 Y17.1463
G01 X5.3232 Y17.1572
G01 X5.3852 Y17.1696
G01 X5.4578 Y17.1877
G01 X5.5183 Y17.2061
G01 X5.5887 Y17.2313
G01 X5.6471 Y17.2555
G01 X5.7147 Y17.2875
G01 X5.7705 Y17.3173
G01 X5.8346 Y17.3557
G01 X5.8872 Y17.3908
G01 X5.9473 Y17.4354
G01 X5.9961 Y17.4755
G01 X6.0516 Y17.5257
G01 X6.0963 Y17.5704
G01 X6.1465 Y17.6259
G01 X6.1866 Y17.6747
G01 X6.2312 Y17.7348
G01 X6.2663 Y17.7874
G01 X6.3047 Y17.8515
G01 X6.3345 Y17.9073
G01 X6.3665 Y17.9749
G01 X6.3907 Y18.0333
G01 X6.4159 Y18.1037
G01 X6.4343 Y18.1642
G01 X6.4524 Y18.2368
G01 X6.4648 Y18.2988
G01 X6.4757 Y18.3728
G01 X6.4819 Y18.4357
G01 X6.4856 Y18.5104
G01 X6.4856 Y18.5736
G01 X6.4819 Y18.6483
G01 X6.4757 Y18.7112
G01 X6.4648 Y18.7852
G01 X6.4524 Y18.8472
G01 X6.4343 Y18.9198
G01 X6.4159 Y18.9803
G01 X6.3907 Y19.0507
G01 X6.3665 Y19.1091
G01 X6.3345 Y19.1767
G01 X6.3047 Y19.2325
G01 X6.2663 Y19.2966
G01 X6.2312 Y19.3492
G01 X6.1866 Y19.4093
G01 X6.1465 Y19.4581
G01 X6.0963 Y19.5136
G01 X6.0516 Y19.5583
G01 X5.9961 Y19.6085
G01 X5.9473 Y19.6486
G01 X5.8872 Y19.6932
G01 X5.8346 Y19.7283
G01 X5.7705 Y19.7667
G01 X5.7147 Y19.7965
G01 X5.6820 Y19.8120
G00 Z2.0000
G00 X3.5560 Y19.9276
G01 F60.00
G01 Z-0.1500
G01 F100.00
G01 X5.0800 Y19.9276
G01 X5.0992 Y19.9281
G01 X5.1740 Y19.9318
G01 X5.2122 Y19.9355
G01 X5.2863 Y19.9465
G01 X5.3240 Y19.9540
G01 X5.3966 Y19.9722
G01 X5.4334 Y19.9834
G01 X5.5038 Y20.0086
G01 X5.5394 Y20.0233
G01 X5.6070 Y20.0553
G01 X5.6409 Y20.0734
G01 X5.7051 Y20.1119
G01 X5.7371 Y20.1332
G01 X5.7972 Y20.1778
G01 X5.8269 Y20.2022
G01 X5.8823 Y20.2525
G01 X5.9095 Y20.2797
G01 X5.9598 Y20.3351
G01 X5.9842 Y20.3648
G01 X6.0288 Y20.4249
G01 X6.0501 Y20.4569
G01 X6.0886 Y20.5211
G01 X6.1067 Y20.5550
G01 X6.1387 Y20.6226
G01 X6.1534 Y20.6582
G01 X6.1786 Y20.7286
G01 X6.1898 Y20.7654
G01 X6.2080 Y20.8380
G01 X6.2155 Y20.8757
G01 X6.2265 Y20.9498
G01 X6.2302 Y20.9880
G01 X6.2339 Y21.0628
G01 X6.2339 Y21.1012
G01 X6.2302 Y21.1760
G01 X6.2265 Y21.2142
G01 X6.2155 Y21.2883
G01 X6.2080 Y21.3260
G01 X6.1898 Y21.3986
G01 X6.1786 Y21.4354
G01 X6.1534 Y21.5058
G01 X6.1387 Y21.5414
G01 X6.1067 Y21.6090
G01 X6.0886 Y21.6429
G01 X6.0501 Y21.7071
G01 X6.0288 Y21.7391
G01 X5.9842 Y21.7992
G01 X5.9598 Y21.8289
G01 X5.9095 Y21.8843
G01 X5.8823 Y21.9115
G01 X5.8269 Y21.9618
G01 X5.7972 Y21.9862
G01 X5.7371 Y22.0308
G01 X5.7051 Y22.0521
G01 X5.6409 Y22.0906
G01 X5.6070 Y22.1087
G01 X5.5394 Y22.1407
G01 X5.5038 Y22.1554
G01 X5.4334 Y22.1806
G01 X5.3966 Y22.1918
G01 X5.3240 Y22.2100
G01 X5.2863 Y22.2175
G01 X5.2122 Y22.2285
G01 X5.1740 Y22.2322
G01 X5.0992 Y22.2359
G01 X5.0800 Y22.2364
G01 X3.5560 Y22.2364
G01 X3.5368 Y22.2359
G01 X3.4620 Y22.2322
G01 X3.4238 Y22.2285
G01 X3.3497 Y22.2175
G01 X3.3120 Y22.2100
G01 X3.2394 Y22.1918
G01 X3.2026 Y22.1806
G01 X3.1322 Y22.1554
G01 X3.0966 Y22.1407
G01 X3.0290 Y22.1087
G01 X2.9951 Y22.0906
G01 X2.9309 Y22.0521
G01 X2.8989 Y22.0308
G01 X2.8388 Y21.9862
G01 X2.8091 Y21.9618
G01 X2.7537 Y21.9115
G01 X2.7265 Y21.8843
G01 X2.6762 Y21.8289
G01 X2.6518 Y21.7992
G01 X2.6072 Y21.7391
G01 X2.5859 Y21.7071
G01 X2.5474 Y21.6429
G01 X2.5293 Y21.6090
G01 X2.4973 Y21.5414
G01 X2.4826 Y21.5058
G01 X2.4574 Y21.4354
G01 X2.4462 Y21.3986
G01 X2.4280 Y21.3260
G01 X2.4205 Y21.2883
G01 X2.4095 Y21.2142
G01 X2.4058 Y21.1760
G01 X2.4021 Y21.1012
G01 X2.4021 Y21.0628
G01 X2.4058 Y20.9880
G01 X2.4095 Y20.9498
G01 X2.4205 Y20.8757
G01 X2.4280 Y20.8380
G01 X2.4462 Y20.7654
G01 X2.4574 Y20.7286
G01 X2.4826 Y20.6582
G01 X2.4973 Y20.6226
G01 X2.5293 Y20.5550
G01 X2.5474 Y20.5211
G01 X2.5859 Y20.4569
G01 X2.6072 Y20.4249
G01 X2.6518 Y20.3648
G01 X2.6762 Y20.3351
G01 X2.7265 Y20.2797
G01 X2.7537 Y20.2525
G01 X2.8091 Y20.2022
G01 X2.8388 Y20.1778
G01 X2.8989 Y20.1332
G01 X2.9309 Y20.1119
G01 X2.9951 Y20.0734
G01 X3.0290 Y20.0553
G01 X3.0966 Y20.0233
G01 X3.1322 Y20.0086
G01 X3.2026 Y19.9834
G01 X3.2394 Y19.9722
G01 X3.3120 Y19.9540
G01 X3.3497 Y19.9465
G01 X3.4238 Y19.9355
G01 X3.4620 Y19.9318
G01 X3.5368 Y19.9281
G01 X3.5560 Y19.9276
G00 Z2.0000
G00 X3.5560 Y20.1796
G01 F60.00
G01 Z-0.1500
G01 F100.00
G01 X5.0800 Y20.1796
G01 X5.1616 Y20.1835
G01 X5.1753 Y20.1848
G01 X5.2493 Y20.1958
G01 X5.2627 Y20.1985
G01 X5.3353 Y20.2166
G01 X5.3485 Y20.2206
G01 X5.4189 Y20.2458
G01 X5.4316 Y20.2511
G01 X5.4992 Y20.2831
G01 X5.5114 Y20.2896
G01 X5.5755 Y20.3280
G01 X5.5870 Y20.3357
G01 X5.6470 Y20.3802
G01 X5.6577 Y20.3889
G01 X5.7131 Y20.4392
G01 X5.7228 Y20.4489
G01 X5.7731 Y20.5043
G01 X5.7818 Y20.5150
G01 X5.8263 Y20.5750
G01 X5.8340 Y20.5865
G01 X5.8724 Y20.6506
G01 X5.8789 Y20.6628
G01 X5.9109 Y20.7304
G01 X5.9162 Y20.7431
G01 X5.9414 Y20.8135
G01 X5.9454 Y20.8267
G01 X5.9635 Y20.8993
G01 X5.9662 Y20.9127
G01 X5.9772 Y20.9867
G01 X5.9785 Y21.0004
G01 X5.9822 Y21.0751
G01 X5.9822 Y21.0889
G01 X5.9785 Y21.1636
G01 X5.9772 Y21.1773
G01 X5.9662 Y21.2513
G01 X5.9635 Y21.2647
G01 X5.9454 Y21.3373
G01 X5.9414 Y21.3505
G01 X5.9162 Y21.4209
G01 X5.9109 Y21.4336
G01 X5.8789 Y21.5012
G01 X5.8724 Y21.5134
G01 X5.8340 Y21.5775
G01 X5.8263 Y21.5890
G01 X5.7818 Y21.6490
G01 X5.7731 Y21.6597
G01 X5.7228 Y21.7151
G01 X5.7131 Y21.7248
G01 X5.6577 Y21.7751
G01 X5.6470 Y21.7838
G01 X5.5870 Y21.8283
G01 X5.5755 Y21.8360
G01 X5.5114 Y21.8744
G01 X5.4992 Y21.8809
G01 X5.4316 Y21.9129
G01 X5.4189 Y21.9182
G01 X5.3485 Y21.9434
G01 X5.3353 Y21.9474
G01 X5.2627 Y21.9655
G01 X5.2493 Y21.9682
G01 X5.1753 Y21.9792
G01 X5.1616 Y21.9805
G01 X5.0800 Y21.9844
G01 X3.5560 Y21.9844
G01 X3.4744 Y21.9805
G01 X3.4607 Y21.9792
G01 X3.3867 Y21.9682
G01 X3.3733 Y21.9655
G01 X3.3007 Y21.9474
G01 X3.2875 Y21.9434
G01 X3.2171 Y21.9182
G01 X3.2044 Y21.9129
G01 X3.1368 Y21.8809
G01 X3.1246 Y21.8744
G01 X3.0605 Y21.8360
G01 X3.0490 Y21.8283
G01 X2.9890 Y21.7838
G01 X2.9783 Y21.7751
G01 X2.9229 Y21.7248
G01 X2.9132 Y21.7151
G01 X2.8629 Y21.6597
G01 X2.8542 Y21.6490
G01 X2.8097 Y21.5890
G01 X2.8020 Y21.5775
G01 X2.7636 Y21.5134
G01 X2.7571 Y21.5012
G01 X2.7251 Y21.4336
G01 X2.7198 Y21.4209
G01 X2.6946 Y21.3505
G01 X2.6906 Y21.3373
G01 X2.6725 Y21.2647
G01 X2.6698 Y21.2513
G01 X2.6588 Y21.1773
G01 X2.6575 Y21.1636
G01 X2.6538 Y21.0889
G01 X2.6538 Y21.0751
G01 X2.6575 Y21.0004
G01 X2.6588 Y20.9867
G01 X2.6698 Y20.9127
G01 X2.6725 Y20.8993
G01 X2.6906 Y20.8267
G01 X2.6946 Y20.8135
G01 X2.7198 Y20.7431
G01 X2.7251 Y20.7304
G01 X2.7571 Y20.6628
G01 X2.7636 Y20.6506
G01 X2.8020 Y20.5865
G01 X2.8097 Y20.5750
G01 X2.8542 Y20.5150
G01 X2.8629 Y20.5043
G01 X2.9132 Y20.4489
G01 X2.9229 Y20.4392
G01 X2.9783 Y20.3889
G01 X2.9890 Y20.3802
G01 X3.0490 Y20.3357
G01 X3.0605 Y20.3280
G01 X3.1246 Y20.2896
G01 X3.1368 Y20.2831
G01 X3.2044 Y20.2511
G01 X3.2171 Y20.2458
G01 X3.2875 Y20.2206
G01 X3.3007 Y20.2166
G01 X3.3733 Y20.1985
G01 X3.3867 Y20.1958
G01 X3.4607 Y20.1848
G01 X3.4744 Y20.1835
G01 X3.5560 Y20.1796
G00 Z2.0000
G00 X3.5560 Y22.4676
G01 F60.00
G01 Z-0.1500
G01 F100.00
G01 X5.0800 Y22.4676
G01 X5.0992 Y22.4681
G01 X5.1740 Y22.4718
G01 X5.2122 Y22.4755
G01 X5.2863 Y22.4865
G01 X5.3240 Y22.4940
G01 X5.3966 Y22.5122
G01 X5.4334 Y22.5234
G01 X5.5038 Y22.5486
G01 X5.5394 Y22.5633
G01 X5.6070 Y22.5953
G01 X5.6409 Y22.6134
G01 X5.7051 Y22.6519
G01 X5.7371 Y22.6732
G01 X5.7972 Y22.7178
G01 X5.8269 Y22.7422
G01 X5.8823 Y22.7925
G01 X5.9095 Y22.8197
G01 X5.9598 Y22.8751
G01 X5.9842 Y22.9048
G01 X6.0288 Y22.9649
G01 X6.0501 Y22.9969
G01 X6.0886 Y23.0611
G01 X6.1067 Y23.0950
G01 X6.1387 Y23.1626
G01 X6.1534 Y23.1982
G01 X6.1786 Y23.2686
G01 X6.1898 Y23.3054
G01 X6.2080 Y23.3780
G01 X6.2155 Y23.4157
G01 X6.2265 Y23.4898
G01 X6.2302 Y23.5280
G01 X6.2339 Y23.6028
G01 X6.2339 Y23.6412
G01 X6.2302 Y23.7160
G01 X6.2265 Y23.7542
G01 X6.2155 Y23.8283
G01 X6.2080 Y23.8660
G01 X6.1898 Y23.9386
G01 X6.1786 Y23.9754
G01 X6.1534 Y24.0458
G01 X6.1387 Y24.0814
G01 X6.1067 Y24.1490
G01 X6.0886 Y24.1829
G01 X6.0501 Y24.2471
G01 X6.0288 Y24.2791
G01 X5.9842 Y24.3392
G01 X5.9598 Y24.3689
G01 X5.9095 Y24.4243
G01 X5.8823 Y24.4515
G01 X5.8269 Y24.5018
G01 X5.7972 Y24.5262
G01 X5.7371 Y24.5708
G01 X5.7051 Y24.5921
G01 X5.6409 Y24.6306
G01 X5.6070 Y24.6487
G01 X5.5394 Y24.6807
G01 X5.5038 Y24.6954
G01 X5.4334 Y24.7206
G01 X5.3966 Y24.7318
G01 X5.3240 Y24.7500
G01 X5.2863 Y24.7575
G01 X5.2122 Y24.7685
G01 X5.1740 Y24.7722
G01 X5.0992 Y24.7759
G01 X5.0800 Y24.7764
G01 X3.5560 Y24.7764
G01 X3.5368 Y24.7759
G01 X3.4620 Y24.7722
G01 X3.4238 Y24.7685
G01 X3.3497 Y24.7575
G01 X3.3120 Y24.7500
G01 X3.2394 Y24.7318
G01 X3.2026 Y24.7206
G01 X3.1322 Y24.6954
G01 X3.0966 Y24.6807
G01 X3.0290 Y24.6487
G01 X2.9951 Y24.6306
G01 X2.9309 Y24.5921
G01 X2.8989 Y24.5708
G01 X2.8388 Y24.5262
G01 X2.8091 Y24.5018
G01 X2.7537 Y24.4515
G01 X2.7265 Y24.4243
G01 X2.6762 Y24.3689
G01 X2.6518 Y24.3392
G01 X2.6072 Y24.2791
G01 X2.5859 Y24.2471
G01 X2.5474 Y24.1829
G01 X2.5293 Y24.1490
G01 X2.4973 Y24.0814
G01 X2.4826 Y24.0458
G01 X2.4574 Y23.9754
G01 X2.4462 Y23.9386
G01 X2.4280 Y23.8660
G01 X2.4205 Y23.8283
G01 X2.4095 Y23.7542
G01 X2.4058 Y23.7160
G01 X2.4021 Y23.6412
G01 X2.4021 Y23.6028
G01 X2.4058 Y23.5280
G01 X2.4095 Y23.4898
G01 X2.4205 Y23.4157
G01 X2.4280 Y23.3780
G01 X2.4462 Y23.3054
G01 X2.4574 Y23.2686
G01 X2.4826 Y23.1982
G01 X2.4973 Y23.1626
G01 X2.5293 Y23.0950
G01 X2.5474 Y23.0611
G01 X2.5859 Y22.9969
G01 X2.6072 Y22.9649
G01 X2.6518 Y22.9048
G01 X2.6762 Y22.8751
G01 X2.7265 Y22.8197
G01 X2.7537 Y22.7925
G01 X2.8091 Y22.7422
G01 X2.8388 Y22.7178
G01 X2.8989 Y22.6732
G01 X2.9309 Y22.6519
G01 X2.9951 Y22.6134
G01 X3.0290 Y22.5953
G01 X3.0966 Y22.5633
G01 X3.1322 Y22.5486
G01 X3.2026 Y22.5234
G01 X3.2394 Y22.5122
G01 X3.3120 Y22.4940
G01 X3.3497 Y22.4865
G01 X3.4238 Y22.4755
G01 X3.4620 Y22.4718
G01 X3.5368 Y22.4681
G01 X3.5560 Y22.4676
G00 Z2.0000
G00 X3.5560 Y22.7196
G01 F60.00
G01 Z-0.1500
G01 F100.00
G01 X5.0800 Y22.7196
G01 X5.1616 Y22.7235
G01 X5.1753 Y22.7248
G01 X5.2493 Y22.7358
G01 X5.2627 Y22.7385
G01 X5.3353 Y22.7566
G01 X5.3485 Y22.7606
G01 X5.4189 Y22.7858
G01 X5.4316 Y22.7911
G01 X5.4992 Y22.8231
G01 X5.5114 Y22.8296
G01 X5.5755 Y22.8680
G01 X5.5870 Y22.8757
G01 X5.6470 Y22.9202
G01 X5.6577 Y22.9289
G01 X5.7131 Y22.9792
G01 X5.7228 Y22.9889
G01 X5.7731 Y23.0443
G01 X5.7818 Y23.0550
G01 X5.8263 Y23.1150
G01 X5.8340 Y23.1265
G01 X5.8724 Y23.1906
G01 X5.8789 Y23.2028
G01 X5.9109 Y23.2704
G01 X5.9162 Y23.2831
G01 X5.9414 Y23.3535
G01 X5.9454 Y23.3667
G01 X5.9635 Y23.4393
G01 X5.9662 Y23.4527
G01 X5.9772 Y23.5267
G01 X5.9785 Y23.5404
G01 X5.9822 Y23.6151
G01 X5.9822 Y23.6289
G01 X5.9785 Y23.7036
G01 X5.9772 Y23.7173
G01 X5.9662 Y23.7913
G01 X5.9635 Y23.8047
G01 X5.9454 Y23.8773
G01 X5.9414 Y23.8905
G01 X5.9162 Y23.9609
G01 X5.9109 Y23.9736
G01 X5.8789 Y24.0412
G01 X5.8724 Y24.0534
G01 X5.8340 Y24.1175
G01 X5.8263 Y24.1290
G01 X5.7818 Y24.1890
G01 X5.7731 Y24.1997
G01 X5.7228 Y24.2551
G01 X5.7131 Y24.2648
G01 X5.6577 Y24.3151
G01 X5.6470 Y24.3238
G01 X5.5870 Y24.3683
G01 X5.5755 Y24.3760
G01 X5.5114 Y24.4144
G01 X5.4992 Y24.4209
G01 X5.4316 Y24.4529
G01 X5.4189 Y24.4582
G01 X5.3485 Y24.4834
G01 X5.3353 Y24.4874
G01 X5.2627 Y24.5055
G01 X5.2493 Y24.5082
G01 X5.1753 Y24.5192
G01 X5.1616 Y24.5205
G01 X5.0800 Y24.5244
G01 X3.5560 Y24.5244
G01 X3.4744 Y24.5205
G01 X3.4607 Y24.5192
G01 X3.3867 Y24.5082
G01 X3.3733 Y24.5055
G01 X3.3007 Y24.4874
G01 X3.2875 Y24.4834
G01 X3.2171 Y24.4582
G01 X3.2044 Y24.4529
G01 X3.1368 Y24.4209
G01 X3.1246 Y24.4144
G01 X3.0605 Y24.3760
G01 X3.0490 Y24.3683
G01 X2.9890 Y24.3238
G01 X2.9783 Y24.3151
G01 X2.9229 Y24.2648
G01 X2.9132 Y24.2551
G01 X2.8629 Y24.1997
G01 X2.8542 Y24.1890
G01 X2.8097 Y24.1290
G01 X2.8020 Y24.1175
G01 X2.7636 Y24.0534
G01 X2.7571 Y24.0412
G01 X2.7251 Y23.9736
G01 X2.7198 Y23.9609
G01 X2.6946 Y23.8905
G01 X2.6906 Y23.8773
G01 X2.6725 Y23.8047
G01 X2.6698 Y23.7913
G01 X2.6588 Y23.7173
G01 X2.6575 Y23.7036
G01 X2.6538 Y23.6289
G01 X2.6538 Y23.6151
G01 X2.6575 Y23.5404
G01 X2.6588 Y23.5267
G01 X2.6698 Y23.4527
G01 X2.6725 Y23.4393
G01 X2.6906 Y23.3667
G01 X2.6946 Y23.3535
G01 X2.7198 Y23.2831
G01 X2.7251 Y23.2704
G01 X2.7571 Y23.2028
G01 X2.7636 Y23.1906
G01 X2.8020 Y23.1265
G01 X2.8097 Y23.1150
G01 X2.8542 Y23.0550
G01 X2.8629 Y23.0443
G01 X2.9132 Y22.9889
G01 X2.9229 Y22.9792
G01 X2.9783 Y22.9289
G01 X2.9890 Y22.9202
G01 X3.0490 Y22.8757
G01 X3.0605 Y22.8680
G01 X3.1246 Y22.8296
G01 X3.1368 Y22.8231
G01 X3.2044 Y22.7911
G01 X3.2171 Y22.7858
G01 X3.2875 Y22.7606
G01 X3.3007 Y22.7566
G01 X3.3733 Y22.7385
G01 X3.3867 Y22.7358
G01 X3.4607 Y22.7248
G01 X3.4744 Y22.7235
G01 X3.5560 Y22.7196
G00 Z2.0000
G00 X5.0800 Y27.0644
G01 F60.00
G01 Z-0.1500
G01 F100.00
G01 X3.5560 Y27.0644
G01 X3.4744 Y27.0605
G01 X3.4607 Y27.0592
G01 X3.3867 Y27.0482
G01 X3.3733 Y27.0455
G01 X3.3007 Y27.0274
G01 X3.2875 Y27.0234
G01 X3.2171 Y26.9982
G01 X3.2044 Y26.9929
G01 X3.1368 Y26.9609
G01 X3.1246 Y26.9544
G01 X3.0605 Y26.9160
G01 X3.0490 Y26.9083
G01 X2.9890 Y26.8638
G01 X2.9783 Y26.8551
G01 X2.9229 Y26.8048
G01 X2.9132 Y26.7951
G01 X2.8629 Y26.7397
G01 X2.8542 Y26.7290
G01 X2.8097 Y26.6690
G01 X2.8020 Y26.6575
G01 X2.7636 Y26.5934
G01 X2.7571 Y26.5812
G01 X2.7251 Y26.5136
G01 X2.7198 Y26.5009
G01 X2.6946 Y26.4305
G01 X2.6906 Y26.4173
G01 X2.6725 Y26.3447
G01 X2.6698 Y26.3313
G01 X2.6588 Y26.2573
G01 X2.6575 Y26.2436
G01 X2.6538 Y26.1689
G01 X2.6538 Y26.1551
G01 X2.6575 Y26.0804
G01 X2.6588 Y26.0667
G01 X2.6698 Y25.9927
G01 X2.6725 Y25.9793
G01 X2.6906 Y25.9067
G01 X2.6946 Y25.8935
G01 X2.7198 Y25.8231
G01 X2.7251 Y25.8104
G01 X2.7571 Y25.7428
G01 X2.7636 Y25.7306
G01 X2.8020 Y25.6665
G01 X2.8097 Y25.6550
G01 X2.8542 Y25.5950
G01 X2.8629 Y25.5843
G01 X2.9132 Y25.5289
G01 X2.9229 Y25.5192
G01 X2.9783 Y25.4689
G01 X2.9890 Y25.4602
G01 X3.0490 Y25.4157
G01 X3.0605 Y25.4080
G01 X3.1246 Y25.3696
G01 X3.1368 Y25.3631
G01 X3.2044 Y25.3311
G01 X3.2171 Y25.3258
G01 X3.2875 Y25.3006
G01 X3.3007 Y25.2966
G01 X3.3733 Y25.2785
G01 X3.3867 Y25.2758
G01 X3.4607 Y25.2648
G01 X3.4744 Y25.2635
G01 X3.5560 Y25.2596
G01 X5.0800 Y25.2596
G01 X5.1616 Y25.2635
G01 X5.1753 Y25.2648
G01 X5.2493 Y25.2758
G01 X5.2627 Y25.2785
G01 X5.3353 Y25.2966
G01 X5.3485 Y25.3006
G01 X5.4189 Y25.3258
G01 X5.4316 Y25.3311
G01 X5.4992 Y25.3631
G01 X5.5114 Y25.3696
G01 X5.5755 Y25.4080
G01 X5.5870 Y25.4157
G01 X5.6470 Y25.4602
G01 X5.6577 Y25.4689
G01 X5.7131 Y25.5192
G01 X5.7228 Y25.5289
G01 X5.7731 Y25.5843
G01 X5.7818 Y25.5950
G01 X5.8263 Y25.6550
G01 X5.8340 Y25.6665
G01 X5.8724 Y25.7306
G01 X5.8789 Y25.7428
G01 X5.9109 Y25.8104
G01 X5.9162 Y25.8231
G01 X5.9414 Y25.8935
G01 X5.9454 Y25.9067
G01 X5.9635 Y25.9793
G01 X5.9662 Y25.9927
G01 X5.9772 Y26.0667
G01 X5.9785 Y26.0804
G01 X5.9822 Y26.1551
G01 X5.9822 Y26.1689
G01 X5.9785 Y26.2436
G01 X5.9772 Y26.2573
G01 X5.9662 Y26.3313
G01 X5.9635 Y26.3447
G01 X5.9454 Y26.4173
G01 X5.9414 Y26.4305
G01 X5.9162 Y26.5009
G01 X5.9109 Y26.5136
G01 X5.8789 Y26.5812
G01 X5.8724 Y26.5934
G01 X5.8340 Y26.6575
G01 X5.8263 Y26.6690
G01 X5.7818 Y26.7290
G01 X5.7731 Y26.7397
G01 X5.7228 Y26.7951
G01 X5.7131 Y26.8048
G01 X5.6577 Y26.8551
G01 X5.6470 Y26.8638
G01 X5.5870 Y26.9083
G01 X5.5755 Y26.9160
G01 X5.5114 Y26.9544
G01 X5.4992 Y26.9609
G01 X5.4316 Y26.9929
G01 X5.4189 Y26.9982
G01 X5.3485 Y27.0234
G01 X5.3353 Y27.0274
G01 X5.2627 Y27.0455
G01 X5.2493 Y27.0482
G01 X5.1753 Y27.0592
G01 X5.1616 Y27.0605
G01 X5.0800 Y27.0644
G00 Z2.0000
G00 X5.0800 Y27.3164
G01 F60.00
G01 Z-0.1500
G01 F100.00
G01 X3.5560 Y27.3164
G01 X3.5368 Y27.3159
G01 X3.4620 Y27.3122
G01 X3.4238 Y27.3085
G01 X3.3497 Y27.2975
G01 X3.3120 Y27.2900
G01 X3.2394 Y27.2718
G01 X3.2026 Y27.2606
G01 X3.1322 Y27.2354
G01 X3.0966 Y27.2207
G01 X3.0290 Y27.1887
G01 X2.9951 Y27.1706
G01 X2.9309 Y27.1321
G01 X2.8989 Y27.1108
G01 X2.8388 Y27.0662
G01 X2.8091 Y27.0418
G01 X2.7537 Y26.9915
G01 X2.7265 Y26.9643
G01 X2.6762 Y26.9089
G01 X2.6518 Y26.8792
G01 X2.6072 Y26.8191
G01 X2.5859 Y26.7871
G01 X2.5474 Y26.7229
G01 X2.5293 Y26.6890
G01 X2.4973 Y26.6214
G01 X2.4826 Y26.5858
G01 X2.4574 Y26.5154
G01 X2.4462 Y26.4786
G01 X2.4280 Y26.4060
G01 X2.4205 Y26.3683
G01 X2.4095 Y26.2942
G01 X2.4058 Y26.2560
G01 X2.4021 Y26.1812
G01 X2.4021 Y26.1428
G01 X2.4058 Y26.0680
G01 X2.4095 Y26.0298
G01 X2.4205 Y25.9557
G01 X2.4280 Y25.9180
G01 X2.4462 Y25.8454
G01 X2.4574 Y25.8086
G01 X2.4826 Y25.7382
G01 X2.4973 Y25.7026
G01 X2.5293 Y25.6350
G01 X2.5474 Y25.6011
G01 X2.5859 Y25.5369
G01 X2.6072 Y25.5049
G01 X2.6518 Y25.4448
G01 X2.6762 Y25.4151
G01 X2.7265 Y25.3597
G01 X2.7537 Y25.3325
G01 X2.8091 Y25.2822
G01 X2.8388 Y25.2578
G01 X2.8989 Y25.2132
G01 X2.9309 Y25.1919
G01 X2.9951 Y25.1534
G01 X3.0290 Y25.1353
G01 X3.0966 Y25.1033
G01 X3.1322 Y25.0886
G01 X3.2026 Y25.0634
G01 X3.2394 Y25.0522
G01 X3.3120 Y25.0340
G01 X3.3497 Y25.0265
G01 X3.4238 Y25.0155
G01 X3.4620 Y25.0118
G01 X3.5368 Y25.0081
G01 X3.5560 Y25.0076
G01 X5.0800 Y25.0076
G01 X5.0992 Y25.0081
G01 X5.1740 Y25.0118
G01 X5.2122 Y25.0155
G01 X5.2863 Y25.0265
G01 X5.3240 Y25.0340
G01 X5.3966 Y25.0522
G01 X5.4334 Y25.0634
G01 X5.5038 Y25.0886
G01 X5.5394 Y25.1033
G01 X5.6070 Y25.1353
G01 X5.6409 Y25.1534
G01 X5.7051 Y25.1919
G01 X5.7371 Y25.2132
G01 X5.7972 Y25.2578
G01 X5.8269 Y25.2822
G01 X5.8823 Y25.3325
G01 X5.9095 Y25.3597
G01 X5.9598 Y25.4151
G01 X5.9842 Y25.4448
G01 X6.0288 Y25.5049
G01 X6.0501 Y25.5369
G01 X6.0886 Y25.6011
G01 X6.1067 Y25.6350
G01 X6.1387 Y25.7026
G01 X6.1534 Y25.7382
G01 X6.1786 Y25.8086
G01 X6.1898 Y25.8454
G01 X6.2080 Y25.9180
G01 X6.2155 Y25.9557
G01 X6.2265 Y26.0298
G01 X6.2302 Y26.0680
G01 X6.2339 Y26.1428
G01 X6.2339 Y26.1812
G01 X6.2302 Y26.2560
G01 X6.2265 Y26.2942
G01 X6.2155 Y26.3683
G01 X6.2080 Y26.4060
G01 X6.1898 Y26.4786
G01 X6.1786 Y26.5154
G01 X6.1534 Y26.5858
G01 X6.1387 Y26.6214
G01 X6.1067 Y26.6890
G01 X6.0886 Y26.7229
G01 X6.0501 Y26.7871
G01 X6.0288 Y26.8191
G01 X5.9842 Y26.8792
G01 X5.9598 Y26.9089
G01 X5.9095 Y26.9643
G01 X5.8823 Y26.9915
G01 X5.8269 Y27.0418
G01 X5.7972 Y27.0662
G01 X5.7371 Y27.1108
G01 X5.7051 Y27.1321
G01 X5.6409 Y27.1706
G01 X5.6070 Y27.1887
G01 X5.5394 Y27.2207
G01 X5.5038 Y27.2354
G01 X5.4334 Y27.2606
G01 X5.3966 Y27.2718
G01 X5.3240 Y27.2900
G01 X5.2863 Y27.2975
G01 X5.2122 Y27.3085
G01 X5.1740 Y27.3122
G01 X5.0992 Y27.3159
G01 X5.0800 Y27.3164
G00 Z2.0000
G00 X9.0935 Y26.8103
G01 F60.00
G01 Z-0.1500
G01 F100.00
G01 X9.0827 Y26.8182
G01 X9.0713 Y26.8259
G01 X9.0163 Y26.8589
G01 X9.0041 Y26.8653
G01 X8.9461 Y26.8928
G01 X8.9334 Y26.8980
G01 X8.8730 Y26.9197
G01 X8.8599 Y26.9236
G01 X8.7976 Y26.9392
G01 X8.7841 Y26.9419
G01 X8.7206 Y26.9513
G01 X8.7070 Y26.9527
G01 X8.6429 Y26.9558
G01 X8.6291 Y26.9558
G01 X8.5650 Y26.9527
G01 X8.5514 Y26.9513
G01 X8.4879 Y26.9419
G01 X8.4744 Y26.9392
G01 X8.4121 Y26.9236
G01 X8.3990 Y26.9197
G01 X8.3386 Y26.8980
G01 X8.3259 Y26.8928
G01 X8.2679 Y26.8653
G01 X8.2557 Y26.8589
G01 X8.2007 Y26.8259
G01 X8.1893 Y26.8182
G01 X8.1377 Y26.7800
G01 X8.1271 Y26.7713
G01 X8.0795 Y26.7282
G01 X8.0698 Y26.7185
G01 X8.0267 Y26.6709
G01 X8.0180 Y26.6603
G01 X7.9798 Y26.6087
G01 X7.9721 Y26.5973
G01 X7.9391 Y26.5423
G01 X7.9327 Y26.5301
G01 X7.9052 Y26.4721
G01 X7.9000 Y26.4594
G01 X7.8783 Y26.3990
G01 X7.8744 Y26.3859
G01 X7.8588 Y26.3236
G01 X7.8561 Y26.3101
G01 X7.8467 Y26.2466
G01 X7.8453 Y26.2330
G01 X7.8422 Y26.1689
G01 X7.8422 Y26.1551
G01 X7.8453 Y26.0910
G01 X7.8467 Y26.0774
G01 X7.8561 Y26.0139
G01 X7.8588 Y26.0004
G01 X7.8744 Y25.9381
G01 X7.8783 Y25.9250
G01 X7.9000 Y25.8646
G01 X7.9052 Y25.8519
G01 X7.9327 Y25.7939
G01 X7.9391 Y25.7817
G01 X7.9721 Y25.7267
G01 X7.9798 Y25.7153
G01 X8.0180 Y25.6637
G01 X8.0267 Y25.6531
G01 X8.0698 Y25.6055
G01 X8.0795 Y25.5958
G01 X8.1271 Y25.5527
G01 X8.1377 Y25.5440
G01 X8.1893 Y25.5058
G01 X8.2007 Y25.4981
G01 X8.2557 Y25.4651
G01 X8.2679 Y25.4587
G01 X8.3259 Y25.4312
G01 X8.3386 Y25.4260
G01 X8.3990 Y25.4043
G01 X8.4121 Y25.4004
G01 X8.4744 Y25.3848
G01 X8.4879 Y25.3821
G01 X8.5514 Y25.3727
G01 X8.5650 Y25.3713
G01 X8.6291 Y25.3682
G01 X8.6429 Y25.3682
G01 X8.7070 Y25.3713
G01 X8.7206 Y25.3727
G01 X8.7841 Y25.3821
G01 X8.7976 Y25.3848
G01 X8.8599 Y25.4004
G01 X8.8730 Y25.4043
G01 X8.9334 Y25.4260
G01 X8.9461 Y25.4312
G01 X9.0041 Y25.4587
G01 X9.0163 Y25.4651
G01 X9.0713 Y25.4981
G01 X9.0827 Y25.5058
G01 X9.0935 Y25.5137
G01 X19.5580 Y25.5137
G01 X19.6147 Y25.5164
G01 X19.6284 Y25.5177
G01 X19.6777 Y25.5250
G01 X19.6912 Y25.5277
G01 X19.7396 Y25.5398
G01 X19.7527 Y25.5438
G01 X19.7997 Y25.5606
G01 X19.8124 Y25.5659
G01 X19.8574 Y25.5872
G01 X19.8696 Y25.5937
G01 X19.9123 Y25.6193
G01 X19.9238 Y25.6270
G01 X19.9638 Y25.6567
G01 X19.9744 Y25.6654
G01 X20.0164 Y25.7036
G01 X21.0820 Y26.7692
G01 X22.1476 Y25.7036
G01 X22.1896 Y25.6654
G01 X22.2002 Y25.6567
G01 X22.2402 Y25.6270
G01 X22.2517 Y25.6193
G01 X22.2944 Y25.5937
G01 X22.3066 Y25.5872
G01 X22.3516 Y25.5659
G01 X22.3643 Y25.5606
G01 X22.4113 Y25.5438
G01 X22.4244 Y25.5398
G01 X22.4728 Y25.5277
G01 X22.4863 Y25.5250
G01 X22.5356 Y25.5177
G01 X22.5493 Y25.5164
G01 X22.6060 Y25.5137
G01 X33.5135 Y25.5137
G01 X37.4517 Y21.5755
G01 X37.4517 Y3.2751
G01 X37.1628 Y2.9862
G01 X37.1536 Y2.9760
G01 X37.1454 Y2.9650
G01 X37.1383 Y2.9532
G01 X37.1325 Y2.9408
G01 X37.1278 Y2.9278
G01 X37.1245 Y2.9145
G01 X37.1225 Y2.9009
G01 X37.1218 Y2.8872
G01 X37.1218 Y2.1928
G01 X37.1225 Y2.1791
G01 X37.1245 Y2.1655
G01 X37.1278 Y2.1522
G01 X37.1325 Y2.1392
G01 X37.1383 Y2.1268
G01 X37.1454 Y2.1150
G01 X37.1536 Y2.1040
G01 X37.1628 Y2.0938
G01 X37.6538 Y1.6028
G01 X37.6640 Y1.5936
G01 X37.6750 Y1.5854
G01 X37.6868 Y1.5783
G01 X37.6992 Y1.5725
G01 X37.7122 Y1.5678
G01 X37.7255 Y1.5645
G01 X37.7391 Y1.5625
G01 X37.7528 Y1.5618
G01 X38.4472 Y1.5618
G01 X38.4609 Y1.5625
G01 X38.4745 Y1.5645
G01 X38.4878 Y1.5678
G01 X38.5008 Y1.5725
G01 X38.5132 Y1.5783
G01 X38.5250 Y1.5854
G01 X38.5360 Y1.5936
G01 X38.5462 Y1.6028
G01 X39.0372 Y2.0938
G01 X39.0464 Y2.1040
G01 X39.0546 Y2.1150
G01 X39.0617 Y2.1268
G01 X39.0675 Y2.1392
G01 X39.0722 Y2.1522
G01 X39.0755 Y2.1655
G01 X39.0775 Y2.1791
G01 X39.0782 Y2.1928
G01 X39.0782 Y2.8872
G01 X39.0775 Y2.9009
G01 X39.0755 Y2.9145
G01 X39.0722 Y2.9278
G01 X39.0675 Y2.9408
G01 X39.0617 Y2.9532
G01 X39.0546 Y2.9650
G01 X39.0464 Y2.9760
G01 X39.0372 Y2.9862
G01 X38.7483 Y3.2751
G01 X38.7483 Y21.8440
G01 X38.7456 Y21.9007
G01 X38.7443 Y21.9144
G01 X38.7370 Y21.9637
G01 X38.7343 Y21.9772
G01 X38.7222 Y22.0256
G01 X38.7182 Y22.0387
G01 X38.7014 Y22.0857
G01 X38.6961 Y22.0984
G01 X38.6748 Y22.1434
G01 X38.6683 Y22.1556
G01 X38.6427 Y22.1983
G01 X38.6350 Y22.2098
G01 X38.6053 Y22.2498
G01 X38.5966 Y22.2604
G01 X38.5584 Y22.3024
G01 X34.2404 Y26.6204
G01 X34.1984 Y26.6586
G01 X34.1878 Y26.6673
G01 X34.1478 Y26.6970
G01 X34.1363 Y26.7047
G01 X34.0936 Y26.7303
G01 X34.0814 Y26.7368
G01 X34.0364 Y26.7581
G01 X34.0237 Y26.7634
G01 X33.9767 Y26.7802
G01 X33.9636 Y26.7842
G01 X33.9152 Y26.7963
G01 X33.9017 Y26.7990
G01 X33.8524 Y26.8063
G01 X33.8387 Y26.8076
G01 X33.7820 Y26.8103
G01 X22.8745 Y26.8103
G01 X21.7303 Y27.9545
G01 X21.7303 Y42.1640
G01 X21.7276 Y42.2207
G01 X21.7263 Y42.2344
G01 X21.7190 Y42.2837
G01 X21.7163 Y42.2972
G01 X21.7042 Y42.3456
G01 X21.7002 Y42.3587
G01 X21.6834 Y42.4057
G01 X21.6781 Y42.4184
G01 X21.6568 Y42.4634
G01 X21.6503 Y42.4756
G01 X21.6247 Y42.5183
G01 X21.6170 Y42.5298
G01 X21.5873 Y42.5698
G01 X21.5786 Y42.5804
G01 X21.5451 Y42.6174
G01 X19.0699 Y45.0929
G01 X19.0679 Y45.1061
G01 X19.0652 Y45.1196
G01 X19.0496 Y45.1819
G01 X19.0457 Y45.1950
G01 X19.0240 Y45.2554
G01 X19.0188 Y45.2681
G01 X18.9913 Y45.3261
G01 X18.9849 Y45.3383
G01 X18.9519 Y45.3933
G01 X18.9442 Y45.4047
G01 X18.9060 Y45.4563
G01 X18.8973 Y45.4669
G01 X18.8542 Y45.5145
G01 X18.8445 Y45.5242
G01 X18.7969 Y45.5673
G01 X18.7863 Y45.5760
G01 X18.7347 Y45.6142
G01 X18.7233 Y45.6219
G01 X18.6683 Y45.6549
G01 X18.6561 Y45.6613
G01 X18.5981 Y45.6888
G01 X18.5854 Y45.6940
G01 X18.5250 Y45.7157
G01 X18.5119 Y45.7196
G01 X18.4496 Y45.7352
G01 X18.4361 Y45.7379
G01 X18.3726 Y45.7473
G01 X18.3590 Y45.7487
G01 X18.2949 Y45.7518
G01 X18.2811 Y45.7518
G01 X18.2170 Y45.7487
G01 X18.2034 Y45.7473
G01 X18.1399 Y45.7379
G01 X18.1264 Y45.7352
G01 X18.0641 Y45.7196
G01 X18.0510 Y45.7157
G01 X17.9906 Y45.6940
G01 X17.9779 Y45.6888
G01 X17.9199 Y45.6613
G01 X17.9077 Y45.6549
G01 X17.8527 Y45.6219
G01 X17.8413 Y45.6142
G01 X17.7897 Y45.5760
G01 X17.7791 Y45.5673
G01 X17.7315 Y45.5242
G01 X17.7218 Y45.5145
G01 X17.6787 Y45.4669
G01 X17.6700 Y45.4563
G01 X17.6318 Y45.4047
G01 X17.6241 Y45.3933
G01 X17.5911 Y45.3383
G01 X17.5847 Y45.3261
G01 X17.5572 Y45.2681
G01 X17.5520 Y45.2554
G01 X17.5303 Y45.1950
G01 X17.5264 Y45.1819
G01 X17.5108 Y45.1196
G01 X17.5081 Y45.1061
G01 X17.4987 Y45.0426
G01 X17.4973 Y45.0290
G01 X17.4942 Y44.9649
G01 X17.4942 Y44.9511
G01 X17.4973 Y44.8870
G01 X17.4987 Y44.8734
G01 X17.5081 Y44.8099
G01 X17.5108 Y44.7964
G01 X17.5264 Y44.7341
G01 X17.5303 Y44.7210
G01 X17.5520 Y44.6606
G01 X17.5572 Y44.6479
G01 X17.5847 Y44.5899
G01 X17.5911 Y44.5777
G01 X17.6241 Y44.5227
G01 X17.6318 Y44.5113
G01 X17.6700 Y44.4597
G01 X17.6787 Y44.4491
G01 X17.7218 Y44.4015
G01 X17.7315 Y44.3918
G01 X17.7791 Y44.3487
G01 X17.7897 Y44.3400
G01 X17.8413 Y44.3018
G01 X17.8527 Y44.2941
G01 X17.9077 Y44.2611
G01 X17.9199 Y44.2547
G01 X17.9779 Y44.2272
G01 X17.9906 Y44.2220
G01 X18.0510 Y44.2003
G01 X18.0641 Y44.1964
G01 X18.1264 Y44.1808
G01 X18.1399 Y44.1781
G01 X18.1531 Y44.1761
G01 X20.4337 Y41.8955
G01 X20.4337 Y27.9545
G01 X19.2895 Y26.8103
G01 X9.0935 Y26.8103
G00 Z2.0000
G00 X9.1671 Y27.0623
G01 F60.00
G01 Z-0.1500
G01 F100.00
G01 X9.1458 Y27.0750
G01 X9.1119 Y27.0931
G01 X9.0539 Y27.1206
G01 X9.0183 Y27.1353
G01 X8.9579 Y27.1569
G01 X8.9211 Y27.1681
G01 X8.8588 Y27.1837
G01 X8.8211 Y27.1912
G01 X8.7576 Y27.2006
G01 X8.7193 Y27.2044
G01 X8.6552 Y27.2075
G01 X8.6168 Y27.2075
G01 X8.5527 Y27.2044
G01 X8.5144 Y27.2006
G01 X8.4509 Y27.1912
G01 X8.4132 Y27.1837
G01 X8.3509 Y27.1681
G01 X8.3141 Y27.1569
G01 X8.2537 Y27.1353
G01 X8.2181 Y27.1206
G01 X8.1601 Y27.0931
G01 X8.1262 Y27.0750
G01 X8.0711 Y27.0420
G01 X8.0391 Y27.0206
G01 X7.9876 Y26.9824
G01 X7.9579 Y26.9580
G01 X7.9103 Y26.9149
G01 X7.8831 Y26.8877
G01 X7.8400 Y26.8401
G01 X7.8156 Y26.8104
G01 X7.7774 Y26.7589
G01 X7.7560 Y26.7269
G01 X7.7230 Y26.6718
G01 X7.7049 Y26.6379
G01 X7.6774 Y26.5799
G01 X7.6627 Y26.5443
G01 X7.6411 Y26.4839
G01 X7.6299 Y26.4471
G01 X7.6143 Y26.3848
G01 X7.6068 Y26.3471
G01 X7.5974 Y26.2836
G01 X7.5936 Y26.2453
G01 X7.5905 Y26.1812
G01 X7.5905 Y26.1428
G01 X7.5936 Y26.0787
G01 X7.5974 Y26.0404
G01 X7.6068 Y25.9769
G01 X7.6143 Y25.9392
G01 X7.6299 Y25.8769
G01 X7.6411 Y25.8401
G01 X7.6627 Y25.7797
G01 X7.6774 Y25.7441
G01 X7.7049 Y25.6861
G01 X7.7230 Y25.6522
G01 X7.7560 Y25.5971
G01 X7.7774 Y25.5651
G01 X7.8156 Y25.5136
G01 X7.8400 Y25.4839
G01 X7.8831 Y25.4363
G01 X7.9103 Y25.4091
G01 X7.9579 Y25.3660
G01 X7.9876 Y25.3416
G01 X8.0391 Y25.3034
G01 X8.0711 Y25.2820
G01 X8.1262 Y25.2490
G01 X8.1601 Y25.2309
G01 X8.2181 Y25.2034
G01 X8.2537 Y25.1887
G01 X8.3141 Y25.1671
G01 X8.3509 Y25.1559
G01 X8.4132 Y25.1403
G01 X8.4509 Y25.1328
G01 X8.5144 Y25.1234
G01 X8.5527 Y25.1196
G01 X8.6168 Y25.1165
G01 X8.6552 Y25.1165
G01 X8.7193 Y25.1196
G01 X8.7576 Y25.1234
G01 X8.8211 Y25.1328
G01 X8.8588 Y25.1403
G01 X8.9211 Y25.1559
G01 X8.9579 Y25.1671
G01 X9.0183 Y25.1887
G01 X9.0539 Y25.2034
G01 X9.1119 Y25.2309
G01 X9.1458 Y25.2490
G01 X9.1671 Y25.2617
G01 X19.5580 Y25.2617
G01 X19.5772 Y25.2622
G01 X19.6271 Y25.2647
G01 X19.6653 Y25.2684
G01 X19.7147 Y25.2758
G01 X19.7524 Y25.2833
G01 X19.8008 Y25.2954
G01 X19.8376 Y25.3065
G01 X19.8846 Y25.3234
G01 X19.9201 Y25.3381
G01 X19.9652 Y25.3594
G01 X19.9991 Y25.3775
G01 X20.0419 Y25.4032
G01 X20.0739 Y25.4245
G01 X20.1139 Y25.4543
G01 X20.1437 Y25.4787
G01 X20.1806 Y25.5122
G01 X20.1946 Y25.5254
G01 X21.0820 Y26.4129
G01 X21.9694 Y25.5254
G01 X21.9834 Y25.5122
G01 X22.0203 Y25.4787
G01 X22.0501 Y25.4543
G01 X22.0901 Y25.4245
G01 X22.1221 Y25.4032
G01 X22.1649 Y25.3775
G01 X22.1988 Y25.3594
G01 X22.2439 Y25.3381
G01 X22.2794 Y25.3234
G01 X22.3264 Y25.3065
G01 X22.3632 Y25.2954
G01 X22.4116 Y25.2833
G01 X22.4493 Y25.2758
G01 X22.4987 Y25.2684
G01 X22.5369 Y25.2647
G01 X22.5868 Y25.2622
G01 X22.6060 Y25.2617
G01 X33.4091 Y25.2617
G01 X37.1997 Y21.4711
G01 X37.1997 Y3.3795
G01 X36.9846 Y3.1644
G01 X36.9588 Y3.1359
G01 X36.9359 Y3.1050
G01 X36.9161 Y3.0720
G01 X36.8996 Y3.0372
G01 X36.8867 Y3.0010
G01 X36.8773 Y2.9637
G01 X36.8717 Y2.9256
G01 X36.8698 Y2.8872
G01 X36.8698 Y2.1928
G01 X36.8717 Y2.1544
G01 X36.8773 Y2.1163
G01 X36.8867 Y2.0790
G01 X36.8996 Y2.0428
G01 X36.9161 Y2.0080
G01 X36.9359 Y1.9750
G01 X36.9588 Y1.9441
G01 X36.9846 Y1.9156
G01 X37.4756 Y1.4246
G01 X37.5041 Y1.3988
G01 X37.5350 Y1.3759
G01 X37.5680 Y1.3561
G01 X37.6028 Y1.3396
G01 X37.6390 Y1.3267
G01 X37.6763 Y1.3173
G01 X37.7144 Y1.3117
G01 X37.7528 Y1.3098
G01 X38.4472 Y1.3098
G01 X38.4856 Y1.3117
G01 X38.5237 Y1.3173
G01 X38.5610 Y1.3267
G01 X38.5972 Y1.3396
G01 X38.6320 Y1.3561
G01 X38.6650 Y1.3759
G01 X38.6959 Y1.3988
G01 X38.7244 Y1.4246
G01 X39.2154 Y1.9156
G01 X39.2412 Y1.9441
G01 X39.2641 Y1.9750
G01 X39.2839 Y2.0080
G01 X39.3004 Y2.0428
G01 X39.3133 Y2.0790
G01 X39.3227 Y2.1163
G01 X39.3283 Y2.1544
G01 X39.3302 Y2.1928
G01 X39.3302 Y2.8872
G01 X39.3283 Y2.9256
G01 X39.3227 Y2.9637
G01 X39.3133 Y3.0010
G01 X39.3004 Y3.0372
G01 X39.2839 Y3.0720
G01 X39.2641 Y3.1050
G01 X39.2412 Y3.1359
G01 X39.2154 Y3.1644
G01 X39.0003 Y3.3795
G01 X39.0003 Y21.8440
G01 X38.9998 Y21.8632
G01 X38.9973 Y21.9131
G01 X38.9936 Y21.9513
G01 X38.9862 Y22.0007
G01 X38.9787 Y22.0384
G01 X38.9666 Y22.0868
G01 X38.9555 Y22.1236
G01 X38.9386 Y22.1706
G01 X38.9239 Y22.2061
G01 X38.9026 Y22.2512
G01 X38.8845 Y22.2851
G01 X38.8588 Y22.3279
G01 X38.8375 Y22.3599
G01 X38.8077 Y22.3999
G01 X38.7833 Y22.4297
G01 X38.7498 Y22.4666
G01 X38.7366 Y22.4806
G01 X34.4186 Y26.7986
G01 X34.4046 Y26.8118
G01 X34.3677 Y26.8453
G01 X34.3379 Y26.8697
G01 X34.2979 Y26.8995
G01 X34.2659 Y26.9208
G01 X34.2231 Y26.9465
G01 X34.1892 Y26.9646
G01 X34.1441 Y26.9859
G01 X34.1086 Y27.0006
G01 X34.0616 Y27.0175
G01 X34.0248 Y27.0286
G01 X33.9764 Y27.0407
G01 X33.9387 Y27.0482
G01 X33.8893 Y27.0556
G01 X33.8511 Y27.0593
G01 X33.8012 Y27.0618
G01 X33.7820 Y27.0623
G01 X22.9789 Y27.0623
G01 X21.9823 Y28.0589
G01 X21.9823 Y42.1640
G01 X21.9818 Y42.1832
G01 X21.9793 Y42.2331
G01 X21.9756 Y42.2713
G01 X21.9682 Y42.3207
G01 X21.9607 Y42.3584
G01 X21.9486 Y42.4068
G01 X21.9375 Y42.4436
G01 X21.9206 Y42.4906
G01 X21.9059 Y42.5261
G01 X21.8846 Y42.5712
G01 X21.8665 Y42.6051
G01 X21.8408 Y42.6479
G01 X21.8195 Y42.6799
G01 X21.7897 Y42.7199
G01 X21.7653 Y42.7497
G01 X21.7318 Y42.7866
G01 X21.7186 Y42.8006
G01 X19.3001 Y45.2190
G01 X19.2941 Y45.2431
G01 X19.2829 Y45.2799
G01 X19.2613 Y45.3403
G01 X19.2466 Y45.3759
G01 X19.2191 Y45.4339
G01 X19.2010 Y45.4678
G01 X19.1680 Y45.5229
G01 X19.1466 Y45.5549
G01 X19.1084 Y45.6064
G01 X19.0840 Y45.6361
G01 X19.0409 Y45.6837
G01 X19.0137 Y45.7109
G01 X18.9661 Y45.7540
G01 X18.9364 Y45.7784
G01 X18.8849 Y45.8166
G01 X18.8529 Y45.8380
G01 X18.7978 Y45.8710
G01 X18.7639 Y45.8891
G01 X18.7059 Y45.9166
G01 X18.6703 Y45.9313
G01 X18.6099 Y45.9529
G01 X18.5731 Y45.9641
G01 X18.5108 Y45.9797
G01 X18.4731 Y45.9872
G01 X18.4096 Y45.9966
G01 X18.3713 Y46.0004
G01 X18.3072 Y46.0035
G01 X18.2688 Y46.0035
G01 X18.2047 Y46.0004
G01 X18.1664 Y45.9966
G01 X18.1029 Y45.9872
G01 X18.0652 Y45.9797
G01 X18.0029 Y45.9641
G01 X17.9661 Y45.9529
G01 X17.9057 Y45.9313
G01 X17.8701 Y45.9166
G01 X17.8121 Y45.8891
G01 X17.7782 Y45.8710
G01 X17.7231 Y45.8380
G01 X17.6911 Y45.8166
G01 X17.6396 Y45.7784
G01 X17.6099 Y45.7540
G01 X17.5623 Y45.7109
G01 X17.5351 Y45.6837
G01 X17.4920 Y45.6361
G01 X17.4676 Y45.6064
G01 X17.4294 Y45.5549
G01 X17.4080 Y45.5229
G01 X17.3750 Y45.4678
G01 X17.3569 Y45.4339
G01 X17.3294 Y45.3759
G01 X17.3147 Y45.3403
G01 X17.2931 Y45.2799
G01 X17.2819 Y45.2431
G01 X17.2663 Y45.1808
G01 X17.2588 Y45.1431
G01 X17.2494 Y45.0796
G01 X17.2456 Y45.0413
G01 X17.2425 Y44.9772
G01 X17.2425 Y44.9388
G01 X17.2456 Y44.8747
G01 X17.2494 Y44.8364
G01 X17.2588 Y44.7729
G01 X17.2663 Y44.7352
G01 X17.2819 Y44.6729
G01 X17.2931 Y44.6361
G01 X17.3147 Y44.5757
G01 X17.3294 Y44.5401
G01 X17.3569 Y44.4821
G01 X17.3750 Y44.4482
G01 X17.4080 Y44.3931
G01 X17.4294 Y44.3611
G01 X17.4676 Y44.3096
G01 X17.4920 Y44.2799
G01 X17.5351 Y44.2323
G01 X17.5623 Y44.2051
G01 X17.6099 Y44.1620
G01 X17.6396 Y44.1376
G01 X17.6911 Y44.0994
G01 X17.7231 Y44.0780
G01 X17.7782 Y44.0450
G01 X17.8121 Y44.0269
G01 X17.8701 Y43.9994
G01 X17.9057 Y43.9847
G01 X17.9661 Y43.9631
G01 X18.0029 Y43.9519
G01 X18.0270 Y43.9459
G01 X20.1817 Y41.7911
G01 X20.1817 Y28.0589
G01 X19.1851 Y27.0623
G01 X9.1671 Y27.0623
G00 Z2.0000
G00 X15.1384 Y38.1387
G01 F60.00
G01 Z-0.1500
G01 F100.00
G01 X13.8176 Y38.1387
G01 X13.7460 Y38.1354
G01 X13.7323 Y38.1340
G01 X13.6682 Y38.1245
G01 X13.6547 Y38.1218
G01 X13.5918 Y38.1061
G01 X13.5786 Y38.1021
G01 X13.5176 Y38.0802
G01 X13.5049 Y38.0750
G01 X13.4463 Y38.0473
G01 X13.4342 Y38.0408
G01 X13.3785 Y38.0075
G01 X13.3671 Y37.9998
G01 X13.3150 Y37.9612
G01 X13.3044 Y37.9525
G01 X13.2564 Y37.9089
G01 X13.2467 Y37.8992
G01 X13.2031 Y37.8512
G01 X13.1944 Y37.8406
G01 X13.1558 Y37.7885
G01 X13.1481 Y37.7771
G01 X13.1148 Y37.7214
G01 X13.1083 Y37.7093
G01 X13.0806 Y37.6507
G01 X13.0754 Y37.6380
G01 X13.0535 Y37.5770
G01 X13.0495 Y37.5638
G01 X13.0338 Y37.5009
G01 X13.0311 Y37.4874
G01 X13.0216 Y37.4233
G01 X13.0202 Y37.4096
G01 X13.0170 Y37.3449
G01 X13.0170 Y37.3311
G01 X13.0202 Y37.2664
G01 X13.0216 Y37.2527
G01 X13.0311 Y37.1886
G01 X13.0338 Y37.1751
G01 X13.0495 Y37.1122
G01 X13.0535 Y37.0990
G01 X13.0754 Y37.0380
G01 X13.0806 Y37.0253
G01 X13.1083 Y36.9667
G01 X13.1148 Y36.9546
G01 X13.1481 Y36.8989
G01 X13.1558 Y36.8875
G01 X13.1944 Y36.8354
G01 X13.2031 Y36.8248
G01 X13.2467 Y36.7768
G01 X13.2564 Y36.7671
G01 X13.3044 Y36.7235
G01 X13.3150 Y36.7148
G01 X13.3671 Y36.6762
G01 X13.3785 Y36.6685
G01 X13.4342 Y36.6352
G01 X13.4463 Y36.6287
G01 X13.5049 Y36.6010
G01 X13.5176 Y36.5958
G01 X13.5786 Y36.5739
G01 X13.5918 Y36.5699
G01 X13.6547 Y36.5542
G01 X13.6682 Y36.5515
G01 X13.7323 Y36.5420
G01 X13.7460 Y36.5406
G01 X13.8176 Y36.5373
G01 X15.1384 Y36.5373
G01 X15.2100 Y36.5406
G01 X15.2237 Y36.5420
G01 X15.2878 Y36.5515
G01 X15.3013 Y36.5542
G01 X15.3642 Y36.5699
G01 X15.3774 Y36.5739
G01 X15.4384 Y36.5958
G01 X15.4511 Y36.6010
G01 X15.5097 Y36.6287
G01 X15.5218 Y36.6352
G01 X15.5775 Y36.6685
G01 X15.5889 Y36.6762
G01 X15.6410 Y36.7148
G01 X15.6516 Y36.7235
G01 X15.6996 Y36.7671
G01 X15.7093 Y36.7768
G01 X15.7529 Y36.8248
G01 X15.7616 Y36.8354
G01 X15.8002 Y36.8875
G01 X15.8079 Y36.8989
G01 X15.8412 Y36.9546
G01 X15.8477 Y36.9667
G01 X15.8754 Y37.0253
G01 X15.8806 Y37.0380
G01 X15.9025 Y37.0990
G01 X15.9065 Y37.1122
G01 X15.9222 Y37.1751
G01 X15.9249 Y37.1886
G01 X15.9344 Y37.2527
G01 X15.9358 Y37.2664
G01 X15.9390 Y37.3311
G01 X15.9390 Y37.3449
G01 X15.9358 Y37.4096
G01 X15.9344 Y37.4233
G01 X15.9249 Y37.4874
G01 X15.9222 Y37.5009
G01 X15.9065 Y37.5638
G01 X15.9025 Y37.5770
G01 X15.8806 Y37.6380
G01 X15.8754 Y37.6507
G01 X15.8477 Y37.7093
G01 X15.8412 Y37.7214
G01 X15.8079 Y37.7771
G01 X15.8002 Y37.7885
G01 X15.7616 Y37.8406
G01 X15.7529 Y37.8512
G01 X15.7093 Y37.8992
G01 X15.6996 Y37.9089
G01 X15.6516 Y37.9525
G01 X15.6410 Y37.9612
G01 X15.5889 Y37.9998
G01 X15.5775 Y38.0075
G01 X15.5218 Y38.0408
G01 X15.5097 Y38.0473
G01 X15.4511 Y38.0750
G01 X15.4384 Y38.0802
G01 X15.3774 Y38.1021
G01 X15.3642 Y38.1061
G01 X15.3013 Y38.1218
G01 X15.2878 Y38.1245
G01 X15.2237 Y38.1340
G01 X15.2100 Y38.1354
G01 X15.1384 Y38.1387
G00 Z2.0000
G00 X15.1384 Y38.3907
G01 F60.00
G01 Z-0.1500
G01 F100.00
G01 X13.8176 Y38.3907
G01 X13.7984 Y38.3903
G01 X13.7336 Y38.3871
G01 X13.6953 Y38.3833
G01 X13.6312 Y38.3738
G01 X13.5935 Y38.3663
G01 X13.5306 Y38.3505
G01 X13.4937 Y38.3394
G01 X13.4327 Y38.3175
G01 X13.3971 Y38.3028
G01 X13.3385 Y38.2751
G01 X13.3046 Y38.2569
G01 X13.2490 Y38.2236
G01 X13.2170 Y38.2022
G01 X13.1649 Y38.1636
G01 X13.1352 Y38.1392
G01 X13.0871 Y38.0957
G01 X13.0599 Y38.0685
G01 X13.0164 Y38.0204
G01 X12.9920 Y37.9907
G01 X12.9534 Y37.9386
G01 X12.9320 Y37.9066
G01 X12.8987 Y37.8510
G01 X12.8805 Y37.8171
G01 X12.8528 Y37.7585
G01 X12.8381 Y37.7229
G01 X12.8162 Y37.6619
G01 X12.8051 Y37.6250
G01 X12.7893 Y37.5621
G01 X12.7818 Y37.5244
G01 X12.7723 Y37.4603
G01 X12.7685 Y37.4220
G01 X12.7653 Y37.3572
G01 X12.7653 Y37.3188
G01 X12.7685 Y37.2540
G01 X12.7723 Y37.2157
G01 X12.7818 Y37.1516
G01 X12.7893 Y37.1139
G01 X12.8051 Y37.0510
G01 X12.8162 Y37.0141
G01 X12.8381 Y36.9531
G01 X12.8528 Y36.9175
G01 X12.8805 Y36.8589
G01 X12.8987 Y36.8250
G01 X12.9320 Y36.7694
G01 X12.9534 Y36.7374
G01 X12.9920 Y36.6853
G01 X13.0164 Y36.6556
G01 X13.0599 Y36.6075
G01 X13.0871 Y36.5803
G01 X13.1352 Y36.5368
G01 X13.1649 Y36.5124
G01 X13.2170 Y36.4738
G01 X13.2490 Y36.4524
G01 X13.3046 Y36.4191
G01 X13.3385 Y36.4009
G01 X13.3971 Y36.3732
G01 X13.4327 Y36.3585
G01 X13.4937 Y36.3366
G01 X13.5306 Y36.3255
G01 X13.5935 Y36.3097
G01 X13.6312 Y36.3022
G01 X13.6953 Y36.2927
G01 X13.7336 Y36.2889
G01 X13.7984 Y36.2857
G01 X13.8176 Y36.2853
G01 X15.1384 Y36.2853
G01 X15.1576 Y36.2857
G01 X15.2224 Y36.2889
G01 X15.2607 Y36.2927
G01 X15.3248 Y36.3022
G01 X15.3625 Y36.3097
G01 X15.4254 Y36.3255
G01 X15.4623 Y36.3366
G01 X15.5233 Y36.3585
G01 X15.5589 Y36.3732
G01 X15.6175 Y36.4009
G01 X15.6514 Y36.4191
G01 X15.7070 Y36.4524
G01 X15.7390 Y36.4738
G01 X15.7911 Y36.5124
G01 X15.8208 Y36.5368
G01 X15.8689 Y36.5803
G01 X15.8961 Y36.6075
G01 X15.9396 Y36.6556
G01 X15.9640 Y36.6853
G01 X16.0026 Y36.7374
G01 X16.0240 Y36.7694
G01 X16.0573 Y36.8250
G01 X16.0755 Y36.8589
G01 X16.1032 Y36.9175
G01 X16.1179 Y36.9531
G01 X16.1398 Y37.0141
G01 X16.1509 Y37.0510
G01 X16.1667 Y37.1139
G01 X16.1742 Y37.1516
G01 X16.1837 Y37.2157
G01 X16.1875 Y37.2540
G01 X16.1907 Y37.3188
G01 X16.1907 Y37.3572
G01 X16.1875 Y37.4220
G01 X16.1837 Y37.4603
G01 X16.1742 Y37.5244
G01 X16.1667 Y37.5621
G01 X16.1509 Y37.6250
G01 X16.1398 Y37.6619
G01 X16.1179 Y37.7229
G01 X16.1032 Y37.7585
G01 X16.0755 Y37.8171
G01 X16.0573 Y37.8510
G01 X16.0240 Y37.9066
G01 X16.0026 Y37.9386
G01 X15.9640 Y37.9907
G01 X15.9396 Y38.0204
G01 X15.8961 Y38.0685
G01 X15.8689 Y38.0957
G01 X15.8208 Y38.1392
G01 X15.7911 Y38.1636
G01 X15.7390 Y38.2022
G01 X15.7070 Y38.2236
G01 X15.6514 Y38.2569
G01 X15.6175 Y38.2751
G01 X15.5589 Y38.3028
G01 X15.5233 Y38.3175
G01 X15.4623 Y38.3394
G01 X15.4254 Y38.3505
G01 X15.3625 Y38.3663
G01 X15.3248 Y38.3738
G01 X15.2607 Y38.3833
G01 X15.2224 Y38.3871
G01 X15.1576 Y38.3903
G01 X15.1384 Y38.3907
G00 Z2.0000
G00 X15.4347 Y38.6080
G01 F60.00
G01 Z-0.1500
G01 F100.00
G01 X15.4867 Y38.6210
G01 X15.5472 Y38.6394
G01 X15.6082 Y38.6612
G01 X15.6666 Y38.6854
G01 X15.7252 Y38.7131
G01 X15.7809 Y38.7429
G01 X15.8366 Y38.7762
G01 X15.8891 Y38.8114
G01 X15.9412 Y38.8500
G01 X15.9900 Y38.8901
G01 X16.0381 Y38.9336
G01 X16.0828 Y38.9783
G01 X16.1263 Y39.0264
G01 X16.1664 Y39.0752
G01 X16.2050 Y39.1273
G01 X16.2402 Y39.1798
G01 X16.2735 Y39.2355
G01 X16.3033 Y39.2912
G01 X16.3310 Y39.3498
G01 X16.3552 Y39.4082
G01 X16.3770 Y39.4692
G01 X16.3954 Y39.5297
G01 X16.4111 Y39.5926
G01 X16.4235 Y39.6546
G01 X16.4330 Y39.7187
G01 X16.4392 Y39.7816
G01 X16.4424 Y39.8464
G01 X16.4424 Y39.9096
G01 X16.4392 Y39.9744
G01 X16.4330 Y40.0373
G01 X16.4235 Y40.1014
G01 X16.4111 Y40.1634
G01 X16.3954 Y40.2263
G01 X16.3770 Y40.2868
G01 X16.3552 Y40.3478
G01 X16.3310 Y40.4062
G01 X16.3033 Y40.4648
G01 X16.2735 Y40.5205
G01 X16.2402 Y40.5762
G01 X16.2050 Y40.6287
G01 X16.1664 Y40.6808
G01 X16.1263 Y40.7296
G01 X16.0828 Y40.7777
G01 X16.0381 Y40.8224
G01 X15.9900 Y40.8659
G01 X15.9412 Y40.9060
G01 X15.8891 Y40.9446
G01 X15.8366 Y40.9798
G01 X15.7809 Y41.0131
G01 X15.7252 Y41.0429
G01 X15.6666 Y41.0706
G01 X15.6082 Y41.0948
G01 X15.5472 Y41.1166
G01 X15.4867 Y41.1350
G01 X15.4347 Y41.1480
G01 X15.4867 Y41.1610
G01 X15.5472 Y41.1794
G01 X15.6082 Y41.2012
G01 X15.6666 Y41.2254
G01 X15.7252 Y41.2531
G01 X15.7809 Y41.2829
G01 X15.8366 Y41.3162
G01 X15.8891 Y41.3514
G01 X15.9412 Y41.3900
G01 X15.9900 Y41.4301
G01 X16.0381 Y41.4736
G01 X16.0828 Y41.5183
G01 X16.1263 Y41.5664
G01 X16.1664 Y41.6152
G01 X16.2050 Y41.6673
G01 X16.2402 Y41.7198
G01 X16.2735 Y41.7755
G01 X16.3033 Y41.8312
G01 X16.3310 Y41.8898
G01 X16.3552 Y41.9482
G01 X16.3770 Y42.0092
G01 X16.3954 Y42.0697
G01 X16.4111 Y42.1326
G01 X16.4235 Y42.1946
G01 X16.4330 Y42.2587
G01 X16.4392 Y42.3216
G01 X16.4424 Y42.3864
G01 X16.4424 Y42.4496
G01 X16.4392 Y42.5144
G01 X16.4330 Y42.5773
G01 X16.4235 Y42.6414
G01 X16.4111 Y42.7034
G01 X16.3954 Y42.7663
G01 X16.3770 Y42.8268
G01 X16.3552 Y42.8878
G01 X16.3310 Y42.9462
G01 X16.3033 Y43.0048
G01 X16.2735 Y43.0605
G01 X16.2402 Y43.1162
G01 X16.2050 Y43.1687
G01 X16.1664 Y43.2208
G01 X16.1263 Y43.2696
G01 X16.0828 Y43.3177
G01 X16.0381 Y43.3624
G01 X15.9900 Y43.4059
G01 X15.9412 Y43.4460
G01 X15.8891 Y43.4846
G01 X15.8366 Y43.5198
G01 X15.7809 Y43.5531
G01 X15.7252 Y43.5829
G01 X15.6666 Y43.6106
G01 X15.6082 Y43.6348
G01 X15.5472 Y43.6566
G01 X15.4867 Y43.6750
G01 X15.4347 Y43.6880
G01 X15.4867 Y43.7010
G01 X15.5472 Y43.7194
G01 X15.6082 Y43.7412
G01 X15.6666 Y43.7654
G01 X15.7252 Y43.7931
G01 X15.7809 Y43.8229
G01 X15.8366 Y43.8562
G01 X15.8891 Y43.8914
G01 X15.9412 Y43.9300
G01 X15.9900 Y43.9701
G01 X16.0381 Y44.0136
G01 X16.0828 Y44.0583
G01 X16.1263 Y44.1064
G01 X16.1664 Y44.1552
G01 X16.2050 Y44.2073
G01 X16.2402 Y44.2598
G01 X16.2735 Y44.3155
G01 X16.3033 Y44.3712
G01 X16.3310 Y44.4298
G01 X16.3552 Y44.4882
G01 X16.3770 Y44.5492
G01 X16.3954 Y44.6097
G01 X16.4111 Y44.6726
G01 X16.4235 Y44.7346
G01 X16.4330 Y44.7987
G01 X16.4392 Y44.8616
G01 X16.4424 Y44.9264
G01 X16.4424 Y44.9896
G01 X16.4392 Y45.0544
G01 X16.4330 Y45.1173
G01 X16.4235 Y45.1814
G01 X16.4111 Y45.2434
G01 X16.3954 Y45.3063
G01 X16.3770 Y45.3668
G01 X16.3552 Y45.4278
G01 X16.3310 Y45.4862
G01 X16.3033 Y45.5448
G01 X16.2735 Y45.6005
G01 X16.2402 Y45.6562
G01 X16.2050 Y45.7087
G01 X16.1664 Y45.7608
G01 X16.1263 Y45.8096
G01 X16.0828 Y45.8577
G01 X16.0381 Y45.9024
G01 X15.9900 Y45.9459
G01 X15.9412 Y45.9860
G01 X15.8891 Y46.0246
G01 X15.8366 Y46.0598
G01 X15.7809 Y46.0931
G01 X15.7252 Y46.1229
G01 X15.6666 Y46.1506
G01 X15.6082 Y46.1748
G01 X15.5472 Y46.1966
G01 X15.4867 Y46.2150
G01 X15.4238 Y46.2307
G01 X15.3618 Y46.2431
G01 X15.2977 Y46.2526
G01 X15.2348 Y46.2588
G01 X15.1700 Y46.2620
G01 X15.1384 Y46.2627
G01 X13.8176 Y46.2627
G01 X13.7860 Y46.2620
G01 X13.7212 Y46.2588
G01 X13.6583 Y46.2526
G01 X13.5942 Y46.2431
G01 X13.5322 Y46.2307
G01 X13.4693 Y46.2150
G01 X13.4088 Y46.1966
G01 X13.3478 Y46.1748
G01 X13.2894 Y46.1506
G01 X13.2308 Y46.1229
G01 X13.1751 Y46.0931
G01 X13.1194 Y46.0598
G01 X13.0669 Y46.0246
G01 X13.0148 Y45.9860
G01 X12.9660 Y45.9459
G01 X12.9179 Y45.9024
G01 X12.8732 Y45.8577
G01 X12.8297 Y45.8096
G01 X12.7896 Y45.7608
G01 X12.7510 Y45.7087
G01 X12.7158 Y45.6562
G01 X12.6825 Y45.6005
G01 X12.6527 Y45.5448
G01 X12.6250 Y45.4862
G01 X12.6008 Y45.4278
G01 X12.5790 Y45.3668
G01 X12.5606 Y45.3063
G01 X12.5449 Y45.2434
G01 X12.5325 Y45.1814
G01 X12.5230 Y45.1173
G01 X12.5168 Y45.0544
G01 X12.5136 Y44.9896
G01 X12.5136 Y44.9264
G01 X12.5168 Y44.8616
G01 X12.5230 Y44.7987
G01 X12.5325 Y44.7346
G01 X12.5449 Y44.6726
G01 X12.5606 Y44.6097
G01 X12.5790 Y44.5492
G01 X12.6008 Y44.4882
G01 X12.6250 Y44.4298
G01 X12.6527 Y44.3712
G01 X12.6825 Y44.3155
G01 X12.7158 Y44.2598
G01 X12.7510 Y44.2073
G01 X12.7896 Y44.1552
G01 X12.8297 Y44.1064
G01 X12.8732 Y44.0583
G01 X12.9179 Y44.0136
G01 X12.9660 Y43.9701
G01 X13.0148 Y43.9300
G01 X13.0669 Y43.8914
G01 X13.1194 Y43.8562
G01 X13.1751 Y43.8229
G01 X13.2308 Y43.7931
G01 X13.2894 Y43.7654
G01 X13.3478 Y43.7412
G01 X13.4088 Y43.7194
G01 X13.4693 Y43.7010
G01 X13.5213 Y43.6880
G01 X13.4693 Y43.6750
G01 X13.4088 Y43.6566
G01 X13.3478 Y43.6348
G01 X13.2894 Y43.6106
G01 X13.2308 Y43.5829
G01 X13.1751 Y43.5531
G01 X13.1194 Y43.5198
G01 X13.0669 Y43.4846
G01 X13.0148 Y43.4460
G01 X12.9660 Y43.4059
G01 X12.9179 Y43.3624
G01 X12.8732 Y43.3177
G01 X12.8297 Y43.2696
G01 X12.7896 Y43.2208
G01 X12.7510 Y43.1687
G01 X12.7158 Y43.1162
G01 X12.6825 Y43.0605
G01 X12.6527 Y43.0048
G01 X12.6250 Y42.9462
G01 X12.6008 Y42.8878
G01 X12.5790 Y42.8268
G01 X12.5606 Y42.7663
G01 X12.5449 Y42.7034
G01 X12.5325 Y42.6414
G01 X12.5230 Y42.5773
G01 X12.5168 Y42.5144
G01 X12.5136 Y42.4496
G01 X12.5136 Y42.3864
G01 X12.5168 Y42.3216
G01 X12.5230 Y42.2587
G01 X12.5325 Y42.1946
G01 X12.5449 Y42.1326
G01 X12.5606 Y42.0697
G01 X12.5790 Y42.0092
G01 X12.6008 Y41.9482
G01 X12.6250 Y41.8898
G01 X12.6527 Y41.8312
G01 X12.6825 Y41.7755
G01 X12.7158 Y41.7198
G01 X12.7510 Y41.6673
G01 X12.7896 Y41.6152
G01 X12.8297 Y41.5664
G01 X12.8732 Y41.5183
G01 X12.9179 Y41.4736
G01 X12.9660 Y41.4301
G01 X13.0148 Y41.3900
G01 X13.0669 Y41.3514
G01 X13.1194 Y41.3162
G01 X13.1751 Y41.2829
G01 X13.2308 Y41.2531
G01 X13.2894 Y41.2254
G01 X13.3478 Y41.2012
G01 X13.4088 Y41.1794
G01 X13.4693 Y41.1610
G01 X13.5213 Y41.1480
G01 X13.4693 Y41.1350
G01 X13.4088 Y41.1166
G01 X13.3478 Y41.0948
G01 X13.2894 Y41.0706
G01 X13.2308 Y41.0429
G01 X13.1751 Y41.0131
G01 X13.1194 Y40.9798
G01 X13.0669 Y40.9446
G01 X13.0148 Y40.9060
G01 X12.9660 Y40.8659
G01 X12.9179 Y40.8224
G01 X12.8732 Y40.7777
G01 X12.8297 Y40.7296
G01 X12.7896 Y40.6808
G01 X12.7510 Y40.6287
G01 X12.7158 Y40.5762
G01 X12.6825 Y40.5205
G01 X12.6527 Y40.4648
G01 X12.6250 Y40.4062
G01 X12.6008 Y40.3478
G01 X12.5790 Y40.2868
G01 X12.5606 Y40.2263
G01 X12.5449 Y40.1634
G01 X12.5325 Y40.1014
G01 X12.5230 Y40.0373
G01 X12.5168 Y39.9744
G01 X12.5136 Y39.9096
G01 X12.5136 Y39.8464
G01 X12.5168 Y39.7816
G01 X12.5230 Y39.7187
G01 X12.5325 Y39.6546
G01 X12.5449 Y39.5926
G01 X12.5606 Y39.5297
G01 X12.5790 Y39.4692
G01 X12.6008 Y39.4082
G01 X12.6250 Y39.3498
G01 X12.6527 Y39.2912
G01 X12.6825 Y39.2355
G01 X12.7158 Y39.1798
G01 X12.7510 Y39.1273
G01 X12.7896 Y39.0752
G01 X12.8297 Y39.0264
G01 X12.8732 Y38.9783
G01 X12.9179 Y38.9336
G01 X12.9660 Y38.8901
G01 X13.0148 Y38.8500
G01 X13.0669 Y38.8114
G01 X13.1194 Y38.7762
G01 X13.1751 Y38.7429
G01 X13.2308 Y38.7131
G01 X13.2894 Y38.6854
G01 X13.3478 Y38.6612
G01 X13.4088 Y38.6394
G01 X13.4693 Y38.6210
G01 X13.5213 Y38.6080
G01 X13.4693 Y38.5950
G01 X13.4088 Y38.5766
G01 X13.3478 Y38.5548
G01 X13.2894 Y38.5306
G01 X13.2308 Y38.5029
G01 X13.1751 Y38.4731
G01 X13.1194 Y38.4398
G01 X13.0669 Y38.4046
G01 X13.0148 Y38.3660
G01 X12.9660 Y38.3259
G01 X12.9179 Y38.2824
G01 X12.8732 Y38.2377
G01 X12.8297 Y38.1896
G01 X12.7896 Y38.1408
G01 X12.7510 Y38.0887
G01 X12.7158 Y38.0362
G01 X12.6825 Y37.9805
G01 X12.6527 Y37.9248
G01 X12.6250 Y37.8662
G01 X12.6008 Y37.8078
G01 X12.5790 Y37.7468
G01 X12.5606 Y37.6863
G01 X12.5449 Y37.6234
G01 X12.5325 Y37.5614
G01 X12.5230 Y37.4973
G01 X12.5168 Y37.4344
G01 X12.5136 Y37.3696
G01 X12.5136 Y37.3064
G01 X12.5168 Y37.2416
G01 X12.5230 Y37.1787
G01 X12.5325 Y37.1146
G01 X12.5449 Y37.0526
G01 X12.5606 Y36.9897
G01 X12.5790 Y36.9292
G01 X12.6008 Y36.8682
G01 X12.6250 Y36.8098
G01 X12.6527 Y36.7512
G01 X12.6825 Y36.6955
G01 X12.7158 Y36.6398
G01 X12.7510 Y36.5873
G01 X12.7896 Y36.5352
G01 X12.8297 Y36.4864
G01 X12.8732 Y36.4383
G01 X12.9179 Y36.3936
G01 X12.9660 Y36.3501
G01 X13.0148 Y36.3100
G01 X13.0669 Y36.2714
G01 X13.1194 Y36.2362
G01 X13.1751 Y36.2029
G01 X13.2308 Y36.1731
G01 X13.2894 Y36.1454
G01 X13.3478 Y36.1212
G01 X13.4088 Y36.0994
G01 X13.4693 Y36.0810
G01 X13.5322 Y36.0653
G01 X13.5942 Y36.0529
G01 X13.6583 Y36.0434
G01 X13.7212 Y36.0372
G01 X13.7860 Y36.0340
G01 X13.8176 Y36.0333
G01 X15.1384 Y36.0333
G01 X15.1700 Y36.0340
G01 X15.2348 Y36.0372
G01 X15.2977 Y36.0434
G01 X15.3618 Y36.0529
G01 X15.4238 Y36.0653
G01 X15.4867 Y36.0810
G01 X15.5472 Y36.0994
G01 X15.6082 Y36.1212
G01 X15.6666 Y36.1454
G01 X15.7252 Y36.1731
G01 X15.7809 Y36.2029
G01 X15.8366 Y36.2362
G01 X15.8891 Y36.2714
G01 X15.9412 Y36.3100
G01 X15.9900 Y36.3501
G01 X16.0381 Y36.3936
G01 X16.0828 Y36.4383
G01 X16.1263 Y36.4864
G01 X16.1664 Y36.5352
G01 X16.2050 Y36.5873
G01 X16.2402 Y36.6398
G01 X16.2735 Y36.6955
G01 X16.3033 Y36.7512
G01 X16.3310 Y36.8098
G01 X16.3552 Y36.8682
G01 X16.3770 Y36.9292
G01 X16.3954 Y36.9897
G01 X16.4111 Y37.0526
G01 X16.4235 Y37.1146
G01 X16.4330 Y37.1787
G01 X16.4392 Y37.2416
G01 X16.4424 Y37.3064
G01 X16.4424 Y37.3696
G01 X16.4392 Y37.4344
G01 X16.4330 Y37.4973
G01 X16.4235 Y37.5614
G01 X16.4111 Y37.6234
G01 X16.3954 Y37.6863
G01 X16.3770 Y37.7468
G01 X16.3552 Y37.8078
G01 X16.3310 Y37.8662
G01 X16.3033 Y37.9248
G01 X16.2735 Y37.9805
G01 X16.2402 Y38.0362
G01 X16.2050 Y38.0887
G01 X16.1664 Y38.1408
G01 X16.1263 Y38.1896
G01 X16.0828 Y38.2377
G01 X16.0381 Y38.2824
G01 X15.9900 Y38.3259
G01 X15.9412 Y38.3660
G01 X15.8891 Y38.4046
G01 X15.8366 Y38.4398
G01 X15.7809 Y38.4731
G01 X15.7252 Y38.5029
G01 X15.6666 Y38.5306
G01 X15.6082 Y38.5548
G01 X15.5472 Y38.5766
G01 X15.4867 Y38.5950
G01 X15.4347 Y38.6080
G00 Z2.0000
G00 X13.8176 Y38.8253
G01 F60.00
G01 Z-0.1500
G01 F100.00
G01 X15.1384 Y38.8253
G01 X15.1576 Y38.8257
G01 X15.2224 Y38.8289
G01 X15.2607 Y38.8327
G01 X15.3248 Y38.8422
G01 X15.3625 Y38.8497
G01 X15.4254 Y38.8655
G01 X15.4623 Y38.8766
G01 X15.5233 Y38.8985
G01 X15.5589 Y38.9132
G01 X15.6175 Y38.9409
G01 X15.6514 Y38.9591
G01 X15.7070 Y38.9924
G01 X15.7390 Y39.0138
G01 X15.7911 Y39.0524
G01 X15.8208 Y39.0768
G01 X15.8689 Y39.1203
G01 X15.8961 Y39.1475
G01 X15.9396 Y39.1956
G01 X15.9640 Y39.2253
G01 X16.0026 Y39.2774
G01 X16.0240 Y39.3094
G01 X16.0573 Y39.3650
G01 X16.0755 Y39.3989
G01 X16.1032 Y39.4575
G01 X16.1179 Y39.4931
G01 X16.1398 Y39.5541
G01 X16.1509 Y39.5910
G01 X16.1667 Y39.6539
G01 X16.1742 Y39.6916
G01 X16.1837 Y39.7557
G01 X16.1875 Y39.7940
G01 X16.1907 Y39.8588
G01 X16.1907 Y39.8972
G01 X16.1875 Y39.9620
G01 X16.1837 Y40.0003
G01 X16.1742 Y40.0644
G01 X16.1667 Y40.1021
G01 X16.1509 Y40.1650
G01 X16.1398 Y40.2019
G01 X16.1179 Y40.2629
G01 X16.1032 Y40.2985
G01 X16.0755 Y40.3571
G01 X16.0573 Y40.3910
G01 X16.0240 Y40.4466
G01 X16.0026 Y40.4786
G01 X15.9640 Y40.5307
G01 X15.9396 Y40.5604
G01 X15.8961 Y40.6085
G01 X15.8689 Y40.6357
G01 X15.8208 Y40.6792
G01 X15.7911 Y40.7036
G01 X15.7390 Y40.7422
G01 X15.7070 Y40.7636
G01 X15.6514 Y40.7969
G01 X15.6175 Y40.8151
G01 X15.5589 Y40.8428
G01 X15.5233 Y40.8575
G01 X15.4623 Y40.8794
G01 X15.4254 Y40.8905
G01 X15.3625 Y40.9063
G01 X15.3248 Y40.9138
G01 X15.2607 Y40.9233
G01 X15.2224 Y40.9271
G01 X15.1576 Y40.9303
G01 X15.1384 Y40.9307
G01 X13.8176 Y40.9307
G01 X13.7984 Y40.9303
G01 X13.7336 Y40.9271
G01 X13.6953 Y40.9233
G01 X13.6312 Y40.9138
G01 X13.5935 Y40.9063
G01 X13.5306 Y40.8905
G01 X13.4937 Y40.8794
G01 X13.4327 Y40.8575
G01 X13.3971 Y40.8428
G01 X13.3385 Y40.8151
G01 X13.3046 Y40.7969
G01 X13.2490 Y40.7636
G01 X13.2170 Y40.7422
G01 X13.1649 Y40.7036
G01 X13.1352 Y40.6792
G01 X13.0871 Y40.6357
G01 X13.0599 Y40.6085
G01 X13.0164 Y40.5604
G01 X12.9920 Y40.5307
G01 X12.9534 Y40.4786
G01 X12.9320 Y40.4466
G01 X12.8987 Y40.3910
G01 X12.8805 Y40.3571
G01 X12.8528 Y40.2985
G01 X12.8381 Y40.2629
G01 X12.8162 Y40.2019
G01 X12.8051 Y40.1650
G01 X12.7893 Y40.1021
G01 X12.7818 Y40.0644
G01 X12.7723 Y40.0003
G01 X12.7685 Y39.9620
G01 X12.7653 Y39.8972
G01 X12.7653 Y39.8588
G01 X12.7685 Y39.7940
G01 X12.7723 Y39.7557
G01 X12.7818 Y39.6916
G01 X12.7893 Y39.6539
G01 X12.8051 Y39.5910
G01 X12.8162 Y39.5541
G01 X12.8381 Y39.4931
G01 X12.8528 Y39.4575
G01 X12.8805 Y39.3989
G01 X12.8987 Y39.3650
G01 X12.9320 Y39.3094
G01 X12.9534 Y39.2774
G01 X12.9920 Y39.2253
G01 X13.0164 Y39.1956
G01 X13.0599 Y39.1475
G01 X13.0871 Y39.1203
G01 X13.1352 Y39.0768
G01 X13.1649 Y39.0524
G01 X13.2170 Y39.0138
G01 X13.2490 Y38.9924
G01 X13.3046 Y38.9591
G01 X13.3385 Y38.9409
G01 X13.3971 Y38.9132
G01 X13.4327 Y38.8985
G01 X13.4937 Y38.8766
G01 X13.5306 Y38.8655
G01 X13.5935 Y38.8497
G01 X13.6312 Y38.8422
G01 X13.6953 Y38.8327
G01 X13.7336 Y38.8289
G01 X13.7984 Y38.8257
G01 X13.8176 Y38.8253
G00 Z2.0000
G00 X13.8176 Y39.0773
G01 F60.00
G01 Z-0.1500
G01 F100.00
G01 X15.1384 Y39.0773
G01 X15.2100 Y39.0806
G01 X15.2237 Y39.0820
G01 X15.2878 Y39.0915
G01 X15.3013 Y39.0942
G01 X15.3642 Y39.1099
G01 X15.3774 Y39.1139
G01 X15.4384 Y39.1358
G01 X15.4511 Y39.1410
G01 X15.5097 Y39.1687
G01 X15.5218 Y39.1752
G01 X15.5775 Y39.2085
G01 X15.5889 Y39.2162
G01 X15.6410 Y39.2548
G01 X15.6516 Y39.2635
G01 X15.6996 Y39.3071
G01 X15.7093 Y39.3168
G01 X15.7529 Y39.3648
G01 X15.7616 Y39.3754
G01 X15.8002 Y39.4275
G01 X15.8079 Y39.4389
G01 X15.8412 Y39.4946
G01 X15.8477 Y39.5067
G01 X15.8754 Y39.5653
G01 X15.8806 Y39.5780
G01 X15.9025 Y39.6390
G01 X15.9065 Y39.6522
G01 X15.9222 Y39.7151
G01 X15.9249 Y39.7286
G01 X15.9344 Y39.7927
G01 X15.9358 Y39.8064
G01 X15.9390 Y39.8711
G01 X15.9390 Y39.8849
G01 X15.9358 Y39.9496
G01 X15.9344 Y39.9633
G01 X15.9249 Y40.0274
G01 X15.9222 Y40.0409
G01 X15.9065 Y40.1038
G01 X15.9025 Y40.1170
G01 X15.8806 Y40.1780
G01 X15.8754 Y40.1907
G01 X15.8477 Y40.2493
G01 X15.8412 Y40.2614
G01 X15.8079 Y40.3171
G01 X15.8002 Y40.3285
G01 X15.7616 Y40.3806
G01 X15.7529 Y40.3912
G01 X15.7093 Y40.4392
G01 X15.6996 Y40.4489
G01 X15.6516 Y40.4925
G01 X15.6410 Y40.5012
G01 X15.5889 Y40.5398
G01 X15.5775 Y40.5475
G01 X15.5218 Y40.5808
G01 X15.5097 Y40.5873
G01 X15.4511 Y40.6150
G01 X15.4384 Y40.6202
G01 X15.3774 Y40.6421
G01 X15.3642 Y40.6461
G01 X15.3013 Y40.6618
G01 X15.2878 Y40.6645
G01 X15.2237 Y40.6740
G01 X15.2100 Y40.6754
G01 X15.1384 Y40.6787
G01 X13.8176 Y40.6787
G01 X13.7460 Y40.6754
G01 X13.7323 Y40.6740
G01 X13.6682 Y40.6645
G01 X13.6547 Y40.6618
G01 X13.5918 Y40.6461
G01 X13.5786 Y40.6421
G01 X13.5176 Y40.6202
G01 X13.5049 Y40.6150
G01 X13.4463 Y40.5873
G01 X13.4342 Y40.5808
G01 X13.3785 Y40.5475
G01 X13.3671 Y40.5398
G01 X13.3150 Y40.5012
G01 X13.3044 Y40.4925
G01 X13.2564 Y40.4489
G01 X13.2467 Y40.4392
G01 X13.2031 Y40.3912
G01 X13.1944 Y40.3806
G01 X13.1558 Y40.3285
G01 X13.1481 Y40.3171
G01 X13.1148 Y40.2614
G01 X13.1083 Y40.2493
G01 X13.0806 Y40.1907
G01 X13.0754 Y40.1780
G01 X13.0535 Y40.1170
G01 X13.0495 Y40.1038
G01 X13.0338 Y40.0409
G01 X13.0311 Y40.0274
G01 X13.0216 Y39.9633
G01 X13.0202 Y39.9496
G01 X13.0170 Y39.8849
G01 X13.0170 Y39.8711
G01 X13.0202 Y39.8064
G01 X13.0216 Y39.7927
G01 X13.0311 Y39.7286
G01 X13.0338 Y39.7151
G01 X13.0495 Y39.6522
G01 X13.0535 Y39.6390
G01 X13.0754 Y39.5780
G01 X13.0806 Y39.5653
G01 X13.1083 Y39.5067
G01 X13.1148 Y39.4946
G01 X13.1481 Y39.4389
G01 X13.1558 Y39.4275
G01 X13.1944 Y39.3754
G01 X13.2031 Y39.3648
G01 X13.2467 Y39.3168
G01 X13.2564 Y39.3071
G01 X13.3044 Y39.2635
G01 X13.3150 Y39.2548
G01 X13.3671 Y39.2162
G01 X13.3785 Y39.2085
G01 X13.4342 Y39.1752
G01 X13.4463 Y39.1687
G01 X13.5049 Y39.1410
G01 X13.5176 Y39.1358
G01 X13.5786 Y39.1139
G01 X13.5918 Y39.1099
G01 X13.6547 Y39.0942
G01 X13.6682 Y39.0915
G01 X13.7323 Y39.0820
G01 X13.7460 Y39.0806
G01 X13.8176 Y39.0773
G00 Z2.0000
G00 X13.8176 Y41.3653
G01 F60.00
G01 Z-0.1500
G01 F100.00
G01 X15.1384 Y41.3653
G01 X15.1576 Y41.3657
G01 X15.2224 Y41.3689
G01 X15.2607 Y41.3727
G01 X15.3248 Y41.3822
G01 X15.3625 Y41.3897
G01 X15.4254 Y41.4055
G01 X15.4623 Y41.4166
G01 X15.5233 Y41.4385
G01 X15.5589 Y41.4532
G01 X15.6175 Y41.4809
G01 X15.6514 Y41.4991
G01 X15.7070 Y41.5324
G01 X15.7390 Y41.5538
G01 X15.7911 Y41.5924
G01 X15.8208 Y41.6168
G01 X15.8689 Y41.6603
G01 X15.8961 Y41.6875
G01 X15.9396 Y41.7356
G01 X15.9640 Y41.7653
G01 X16.0026 Y41.8174
G01 X16.0240 Y41.8494
G01 X16.0573 Y41.9050
G01 X16.0755 Y41.9389
G01 X16.1032 Y41.9975
G01 X16.1179 Y42.0331
G01 X16.1398 Y42.0941
G01 X16.1509 Y42.1310
G01 X16.1667 Y42.1939
G01 X16.1742 Y42.2316
G01 X16.1837 Y42.2957
G01 X16.1875 Y42.3340
G01 X16.1907 Y42.3988
G01 X16.1907 Y42.4372
G01 X16.1875 Y42.5020
G01 X16.1837 Y42.5403
G01 X16.1742 Y42.6044
G01 X16.1667 Y42.6421
G01 X16.1509 Y42.7050
G01 X16.1398 Y42.7419
G01 X16.1179 Y42.8029
G01 X16.1032 Y42.8385
G01 X16.0755 Y42.8971
G01 X16.0573 Y42.9310
G01 X16.0240 Y42.9866
G01 X16.0026 Y43.0186
G01 X15.9640 Y43.0707
G01 X15.9396 Y43.1004
G01 X15.8961 Y43.1485
G01 X15.8689 Y43.1757
G01 X15.8208 Y43.2192
G01 X15.7911 Y43.2436
G01 X15.7390 Y43.2822
G01 X15.7070 Y43.3036
G01 X15.6514 Y43.3369
G01 X15.6175 Y43.3551
G01 X15.5589 Y43.3828
G01 X15.5233 Y43.3975
G01 X15.4623 Y43.4194
G01 X15.4254 Y43.4305
G01 X15.3625 Y43.4463
G01 X15.3248 Y43.4538
G01 X15.2607 Y43.4633
G01 X15.2224 Y43.4671
G01 X15.1576 Y43.4703
G01 X15.1384 Y43.4707
G01 X13.8176 Y43.4707
G01 X13.7984 Y43.4703
G01 X13.7336 Y43.4671
G01 X13.6953 Y43.4633
G01 X13.6312 Y43.4538
G01 X13.5935 Y43.4463
G01 X13.5306 Y43.4305
G01 X13.4937 Y43.4194
G01 X13.4327 Y43.3975
G01 X13.3971 Y43.3828
G01 X13.3385 Y43.3551
G01 X13.3046 Y43.3369
G01 X13.2490 Y43.3036
G01 X13.2170 Y43.2822
G01 X13.1649 Y43.2436
G01 X13.1352 Y43.2192
G01 X13.0871 Y43.1757
G01 X13.0599 Y43.1485
G01 X13.0164 Y43.1004
G01 X12.9920 Y43.0707
G01 X12.9534 Y43.0186
G01 X12.9320 Y42.9866
G01 X12.8987 Y42.9310
G01 X12.8805 Y42.8971
G01 X12.8528 Y42.8385
G01 X12.8381 Y42.8029
G01 X12.8162 Y42.7419
G01 X12.8051 Y42.7050
G01 X12.7893 Y42.6421
G01 X12.7818 Y42.6044
G01 X12.7723 Y42.5403
G01 X12.7685 Y42.5020
G01 X12.7653 Y42.4372
G01 X12.7653 Y42.3988
G01 X12.7685 Y42.3340
G01 X12.7723 Y42.2957
G01 X12.7818 Y42.2316
G01 X12.7893 Y42.1939
G01 X12.8051 Y42.1310
G01 X12.8162 Y42.0941
G01 X12.8381 Y42.0331
G01 X12.8528 Y41.9975
G01 X12.8805 Y41.9389
G01 X12.8987 Y41.9050
G01 X12.9320 Y41.8494
G01 X12.9534 Y41.8174
G01 X12.9920 Y41.7653
G01 X13.0164 Y41.7356
G01 X13.0599 Y41.6875
G01 X13.0871 Y41.6603
G01 X13.1352 Y41.6168
G01 X13.1649 Y41.5924
G01 X13.2170 Y41.5538
G01 X13.2490 Y41.5324
G01 X13.3046 Y41.4991
G01 X13.3385 Y41.4809
G01 X13.3971 Y41.4532
G01 X13.4327 Y41.4385
G01 X13.4937 Y41.4166
G01 X13.5306 Y41.4055
G01 X13.5935 Y41.3897
G01 X13.6312 Y41.3822
G01 X13.6953 Y41.3727
G01 X13.7336 Y41.3689
G01 X13.7984 Y41.3657
G01 X13.8176 Y41.3653
G00 Z2.0000
G00 X13.8176 Y41.6173
G01 F60.00
G01 Z-0.1500
G01 F100.00
G01 X15.1384 Y41.6173
G01 X15.2100 Y41.6206
G01 X15.2237 Y41.6220
G01 X15.2878 Y41.6315
G01 X15.3013 Y41.6342
G01 X15.3642 Y41.6499
G01 X15.3774 Y41.6539
G01 X15.4384 Y41.6758
G01 X15.4511 Y41.6810
G01 X15.5097 Y41.7087
G01 X15.5218 Y41.7152
G01 X15.5775 Y41.7485
G01 X15.5889 Y41.7562
G01 X15.6410 Y41.7948
G01 X15.6516 Y41.8035
G01 X15.6996 Y41.8471
G01 X15.7093 Y41.8568
G01 X15.7529 Y41.9048
G01 X15.7616 Y41.9154
G01 X15.8002 Y41.9675
G01 X15.8079 Y41.9789
G01 X15.8412 Y42.0346
G01 X15.8477 Y42.0467
G01 X15.8754 Y42.1053
G01 X15.8806 Y42.1180
G01 X15.9025 Y42.1790
G01 X15.9065 Y42.1922
G01 X15.9222 Y42.2551
G01 X15.9249 Y42.2686
G01 X15.9344 Y42.3327
G01 X15.9358 Y42.3464
G01 X15.9390 Y42.4111
G01 X15.9390 Y42.4249
G01 X15.9358 Y42.4896
G01 X15.9344 Y42.5033
G01 X15.9249 Y42.5674
G01 X15.9222 Y42.5809
G01 X15.9065 Y42.6438
G01 X15.9025 Y42.6570
G01 X15.8806 Y42.7180
G01 X15.8754 Y42.7307
G01 X15.8477 Y42.7893
G01 X15.8412 Y42.8014
G01 X15.8079 Y42.8571
G01 X15.8002 Y42.8685
G01 X15.7616 Y42.9206
G01 X15.7529 Y42.9312
G01 X15.7093 Y42.9792
G01 X15.6996 Y42.9889
G01 X15.6516 Y43.0325
G01 X15.6410 Y43.0412
G01 X15.5889 Y43.0798
G01 X15.5775 Y43.0875
G01 X15.5218 Y43.1208
G01 X15.5097 Y43.1273
G01 X15.4511 Y43.1550
G01 X15.4384 Y43.1602
G01 X15.3774 Y43.1821
G01 X15.3642 Y43.1861
G01 X15.3013 Y43.2018
G01 X15.2878 Y43.2045
G01 X15.2237 Y43.2140
G01 X15.2100 Y43.2154
G01 X15.1384 Y43.2187
G01 X13.8176 Y43.2187
G01 X13.7460 Y43.2154
G01 X13.7323 Y43.2140
G01 X13.6682 Y43.2045
G01 X13.6547 Y43.2018
G01 X13.5918 Y43.1861
G01 X13.5786 Y43.1821
G01 X13.5176 Y43.1602
G01 X13.5049 Y43.1550
G01 X13.4463 Y43.1273
G01 X13.4342 Y43.1208
G01 X13.3785 Y43.0875
G01 X13.3671 Y43.0798
G01 X13.3150 Y43.0412
G01 X13.3044 Y43.0325
G01 X13.2564 Y42.9889
G01 X13.2467 Y42.9792
G01 X13.2031 Y42.9312
G01 X13.1944 Y42.9206
G01 X13.1558 Y42.8685
G01 X13.1481 Y42.8571
G01 X13.1148 Y42.8014
G01 X13.1083 Y42.7893
G01 X13.0806 Y42.7307
G01 X13.0754 Y42.7180
G01 X13.0535 Y42.6570
G01 X13.0495 Y42.6438
G01 X13.0338 Y42.5809
G01 X13.0311 Y42.5674
G01 X13.0216 Y42.5033
G01 X13.0202 Y42.4896
G01 X13.0170 Y42.4249
G01 X13.0170 Y42.4111
G01 X13.0202 Y42.3464
G01 X13.0216 Y42.3327
G01 X13.0311 Y42.2686
G01 X13.0338 Y42.2551
G01 X13.0495 Y42.1922
G01 X13.0535 Y42.1790
G01 X13.0754 Y42.1180
G01 X13.0806 Y42.1053
G01 X13.1083 Y42.0467
G01 X13.1148 Y42.0346
G01 X13.1481 Y41.9789
G01 X13.1558 Y41.9675
G01 X13.1944 Y41.9154
G01 X13.2031 Y41.9048
G01 X13.2467 Y41.8568
G01 X13.2564 Y41.8471
G01 X13.3044 Y41.8035
G01 X13.3150 Y41.7948
G01 X13.3671 Y41.7562
G01 X13.3785 Y41.7485
G01 X13.4342 Y41.7152
G01 X13.4463 Y41.7087
G01 X13.5049 Y41.6810
G01 X13.5176 Y41.6758
G01 X13.5786 Y41.6539
G01 X13.5918 Y41.6499
G01 X13.6547 Y41.6342
G01 X13.6682 Y41.6315
G01 X13.7323 Y41.6220
G01 X13.7460 Y41.6206
G01 X13.8176 Y41.6173
G00 Z2.0000
G00 X15.1384 Y45.7587
G01 F60.00
G01 Z-0.1500
G01 F100.00
G01 X13.8176 Y45.7587
G01 X13.7460 Y45.7554
G01 X13.7323 Y45.7540
G01 X13.6682 Y45.7445
G01 X13.6547 Y45.7418
G01 X13.5918 Y45.7261
G01 X13.5786 Y45.7221
G01 X13.5176 Y45.7002
G01 X13.5049 Y45.6950
G01 X13.4463 Y45.6673
G01 X13.4342 Y45.6608
G01 X13.3785 Y45.6275
G01 X13.3671 Y45.6198
G01 X13.3150 Y45.5812
G01 X13.3044 Y45.5725
G01 X13.2564 Y45.5289
G01 X13.2467 Y45.5192
G01 X13.2031 Y45.4712
G01 X13.1944 Y45.4606
G01 X13.1558 Y45.4085
G01 X13.1481 Y45.3971
G01 X13.1148 Y45.3414
G01 X13.1083 Y45.3293
G01 X13.0806 Y45.2707
G01 X13.0754 Y45.2580
G01 X13.0535 Y45.1970
G01 X13.0495 Y45.1838
G01 X13.0338 Y45.1209
G01 X13.0311 Y45.1074
G01 X13.0216 Y45.0433
G01 X13.0202 Y45.0296
G01 X13.0170 Y44.9649
G01 X13.0170 Y44.9511
G01 X13.0202 Y44.8864
G01 X13.0216 Y44.8727
G01 X13.0311 Y44.8086
G01 X13.0338 Y44.7951
G01 X13.0495 Y44.7322
G01 X13.0535 Y44.7190
G01 X13.0754 Y44.6580
G01 X13.0806 Y44.6453
G01 X13.1083 Y44.5867
G01 X13.1148 Y44.5746
G01 X13.1481 Y44.5189
G01 X13.1558 Y44.5075
G01 X13.1944 Y44.4554
G01 X13.2031 Y44.4448
G01 X13.2467 Y44.3968
G01 X13.2564 Y44.3871
G01 X13.3044 Y44.3435
G01 X13.3150 Y44.3348
G01 X13.3671 Y44.2962
G01 X13.3785 Y44.2885
G01 X13.4342 Y44.2552
G01 X13.4463 Y44.2487
G01 X13.5049 Y44.2210
G01 X13.5176 Y44.2158
G01 X13.5786 Y44.1939
G01 X13.5918 Y44.1899
G01 X13.6547 Y44.1742
G01 X13.6682 Y44.1715
G01 X13.7323 Y44.1620
G01 X13.7460 Y44.1606
G01 X13.8176 Y44.1573
G01 X15.1384 Y44.1573
G01 X15.2100 Y44.1606
G01 X15.2237 Y44.1620
G01 X15.2878 Y44.1715
G01 X15.3013 Y44.1742
G01 X15.3642 Y44.1899
G01 X15.3774 Y44.1939
G01 X15.4384 Y44.2158
G01 X15.4511 Y44.2210
G01 X15.5097 Y44.2487
G01 X15.5218 Y44.2552
G01 X15.5775 Y44.2885
G01 X15.5889 Y44.2962
G01 X15.6410 Y44.3348
G01 X15.6516 Y44.3435
G01 X15.6996 Y44.3871
G01 X15.7093 Y44.3968
G01 X15.7529 Y44.4448
G01 X15.7616 Y44.4554
G01 X15.8002 Y44.5075
G01 X15.8079 Y44.5189
G01 X15.8412 Y44.5746
G01 X15.8477 Y44.5867
G01 X15.8754 Y44.6453
G01 X15.8806 Y44.6580
G01 X15.9025 Y44.7190
G01 X15.9065 Y44.7322
G01 X15.9222 Y44.7951
G01 X15.9249 Y44.8086
G01 X15.9344 Y44.8727
G01 X15.9358 Y44.8864
G01 X15.9390 Y44.9511
G01 X15.9390 Y44.9649
G01 X15.9358 Y45.0296
G01 X15.9344 Y45.0433
G01 X15.9249 Y45.1074
G01 X15.9222 Y45.1209
G01 X15.9065 Y45.1838
G01 X15.9025 Y45.1970
G01 X15.8806 Y45.2580
G01 X15.8754 Y45.2707
G01 X15.8477 Y45.3293
G01 X15.8412 Y45.3414
G01 X15.8079 Y45.3971
G01 X15.8002 Y45.4085
G01 X15.7616 Y45.4606
G01 X15.7529 Y45.4712
G01 X15.7093 Y45.5192
G01 X15.6996 Y45.5289
G01 X15.6516 Y45.5725
G01 X15.6410 Y45.5812
G01 X15.5889 Y45.6198
G01 X15.5775 Y45.6275
G01 X15.5218 Y45.6608
G01 X15.5097 Y45.6673
G01 X15.4511 Y45.6950
G01 X15.4384 Y45.7002
G01 X15.3774 Y45.7221
G01 X15.3642 Y45.7261
G01 X15.3013 Y45.7418
G01 X15.2878 Y45.7445
G01 X15.2237 Y45.7540
G01 X15.2100 Y45.7554
G01 X15.1384 Y45.7587
G00 Z2.0000
G00 X15.1384 Y46.0107
G01 F60.00
G01 Z-0.1500
G01 F100.00
G01 X13.8176 Y46.0107
G01 X13.7984 Y46.0103
G01 X13.7336 Y46.0071
G01 X13.6953 Y46.0033
G01 X13.6312 Y45.9938
G01 X13.5935 Y45.9863
G01 X13.5306 Y45.9705
G01 X13.4937 Y45.9594
G01 X13.4327 Y45.9375
G01 X13.3971 Y45.9228
G01 X13.3385 Y45.8951
G01 X13.3046 Y45.8769
G01 X13.2490 Y45.8436
G01 X13.2170 Y45.8222
G01 X13.1649 Y45.7836
G01 X13.1352 Y45.7592
G01 X13.0871 Y45.7157
G01 X13.0599 Y45.6885
G01 X13.0164 Y45.6404
G01 X12.9920 Y45.6107
G01 X12.9534 Y45.5586
G01 X12.9320 Y45.5266
G01 X12.8987 Y45.4710
G01 X12.8805 Y45.4371
G01 X12.8528 Y45.3785
G01 X12.8381 Y45.3429
G01 X12.8162 Y45.2819
G01 X12.8051 Y45.2450
G01 X12.7893 Y45.1821
G01 X12.7818 Y45.1444
G01 X12.7723 Y45.0803
G01 X12.7685 Y45.0420
G01 X12.7653 Y44.9772
G01 X12.7653 Y44.9388
G01 X12.7685 Y44.8740
G01 X12.7723 Y44.8357
G01 X12.7818 Y44.7716
G01 X12.7893 Y44.7339
G01 X12.8051 Y44.6710
G01 X12.8162 Y44.6341
G01 X12.8381 Y44.5731
G01 X12.8528 Y44.5375
G01 X12.8805 Y44.4789
G01 X12.8987 Y44.4450
G01 X12.9320 Y44.3894
G01 X12.9534 Y44.3574
G01 X12.9920 Y44.3053
G01 X13.0164 Y44.2756
G01 X13.0599 Y44.2275
G01 X13.0871 Y44.2003
G01 X13.1352 Y44.1568
G01 X13.1649 Y44.1324
G01 X13.2170 Y44.0938
G01 X13.2490 Y44.0724
G01 X13.3046 Y44.0391
G01 X13.3385 Y44.0209
G01 X13.3971 Y43.9932
G01 X13.4327 Y43.9785
G01 X13.4937 Y43.9566
G01 X13.5306 Y43.9455
G01 X13.5935 Y43.9297
G01 X13.6312 Y43.9222
G01 X13.6953 Y43.9127
G01 X13.7336 Y43.9089
G01 X13.7984 Y43.9057
G01 X13.8176 Y43.9053
G01 X15.1384 Y43.9053
G01 X15.1576 Y43.9057
G01 X15.2224 Y43.9089
G01 X15.2607 Y43.9127
G01 X15.3248 Y43.9222
G01 X15.3625 Y43.9297
G01 X15.4254 Y43.9455
G01 X15.4623 Y43.9566
G01 X15.5233 Y43.9785
G01 X15.5589 Y43.9932
G01 X15.6175 Y44.0209
G01 X15.6514 Y44.0391
G01 X15.7070 Y44.0724
G01 X15.7390 Y44.0938
G01 X15.7911 Y44.1324
G01 X15.8208 Y44.1568
G01 X15.8689 Y44.2003
G01 X15.8961 Y44.2275
G01 X15.9396 Y44.2756
G01 X15.9640 Y44.3053
G01 X16.0026 Y44.3574
G01 X16.0240 Y44.3894
G01 X16.0573 Y44.4450
G01 X16.0755 Y44.4789
G01 X16.1032 Y44.5375
G01 X16.1179 Y44.5731
G01 X16.1398 Y44.6341
G01 X16.1509 Y44.6710
G01 X16.1667 Y44.7339
G01 X16.1742 Y44.7716
G01 X16.1837 Y44.8357
G01 X16.1875 Y44.8740
G01 X16.1907 Y44.9388
G01 X16.1907 Y44.9772
G01 X16.1875 Y45.0420
G01 X16.1837 Y45.0803
G01 X16.1742 Y45.1444
G01 X16.1667 Y45.1821
G01 X16.1509 Y45.2450
G01 X16.1398 Y45.2819
G01 X16.1179 Y45.3429
G01 X16.1032 Y45.3785
G01 X16.0755 Y45.4371
G01 X16.0573 Y45.4710
G01 X16.0240 Y45.5266
G01 X16.0026 Y45.5586
G01 X15.9640 Y45.6107
G01 X15.9396 Y45.6404
G01 X15.8961 Y45.6885
G01 X15.8689 Y45.7157
G01 X15.8208 Y45.7592
G01 X15.7911 Y45.7836
G01 X15.7390 Y45.8222
G01 X15.7070 Y45.8436
G01 X15.6514 Y45.8769
G01 X15.6175 Y45.8951
G01 X15.5589 Y45.9228
G01 X15.5233 Y45.9375
G01 X15.4623 Y45.9594
G01 X15.4254 Y45.9705
G01 X15.3625 Y45.9863
G01 X15.3248 Y45.9938
G01 X15.2607 Y46.0033
G01 X15.2224 Y46.0071
G01 X15.1576 Y46.0103
G01 X15.1384 Y46.0107
G00 Z2.0000
G00 X22.7606 Y50.1756
G01 F60.00
G01 Z-0.1500
G01 F100.00
G01 X23.2516 Y49.6846
G01 X23.2801 Y49.6588
G01 X23.3110 Y49.6359
G01 X23.3440 Y49.6161
G01 X23.3788 Y49.5996
G01 X23.4150 Y49.5867
G01 X23.4523 Y49.5773
G01 X23.4904 Y49.5717
G01 X23.5288 Y49.5698
G01 X24.2232 Y49.5698
G01 X24.2616 Y49.5717
G01 X24.2997 Y49.5773
G01 X24.3370 Y49.5867
G01 X24.3732 Y49.5996
G01 X24.4080 Y49.6161
G01 X24.4410 Y49.6359
G01 X24.4719 Y49.6588
G01 X24.5004 Y49.6846
G01 X24.9914 Y50.1756
G01 X25.0172 Y50.2041
G01 X25.0401 Y50.2350
G01 X25.0599 Y50.2680
G01 X25.0764 Y50.3028
G01 X25.0893 Y50.3390
G01 X25.0987 Y50.3763
G01 X25.1043 Y50.4144
G01 X25.1062 Y50.4528
G01 X25.1062 Y51.1472
G01 X25.1043 Y51.1856
G01 X25.0987 Y51.2237
G01 X25.0893 Y51.2610
G01 X25.0764 Y51.2972
G01 X25.0599 Y51.3320
G01 X25.0401 Y51.3650
G01 X25.0172 Y51.3959
G01 X24.9914 Y51.4244
G01 X24.5004 Y51.9154
G01 X24.4719 Y51.9412
G01 X24.4410 Y51.9641
G01 X24.4080 Y51.9839
G01 X24.3732 Y52.0004
G01 X24.3370 Y52.0133
G01 X24.2997 Y52.0227
G01 X24.2616 Y52.0283
G01 X24.2232 Y52.0302
G01 X23.5288 Y52.0302
G01 X23.4904 Y52.0283
G01 X23.4523 Y52.0227
G01 X23.4150 Y52.0133
G01 X23.3788 Y52.0004
G01 X23.3440 Y51.9839
G01 X23.3110 Y51.9641
G01 X23.2801 Y51.9412
G01 X23.2516 Y51.9154
G01 X22.7606 Y51.4244
G01 X22.7348 Y51.3959
G01 X22.7119 Y51.3650
G01 X22.6921 Y51.3320
G01 X22.6756 Y51.2972
G01 X22.6627 Y51.2610
G01 X22.6533 Y51.2237
G01 X22.6477 Y51.1856
G01 X22.6458 Y51.1472
G01 X22.6458 Y50.4528
G01 X22.6477 Y50.4144
G01 X22.6533 Y50.3763
G01 X22.6627 Y50.3390
G01 X22.6756 Y50.3028
G01 X22.6921 Y50.2680
G01 X22.7119 Y50.2350
G01 X22.7348 Y50.2041
G01 X22.7606 Y50.1756
G00 Z2.0000
G00 X22.9388 Y50.3538
G01 F60.00
G01 Z-0.1500
G01 F100.00
G01 X23.4298 Y49.8628
G01 X23.4400 Y49.8536
G01 X23.4510 Y49.8454
G01 X23.4628 Y49.8383
G01 X23.4752 Y49.8325
G01 X23.4882 Y49.8278
G01 X23.5015 Y49.8245
G01 X23.5151 Y49.8225
G01 X23.5288 Y49.8218
G01 X24.2232 Y49.8218
G01 X24.2369 Y49.8225
G01 X24.2505 Y49.8245
G01 X24.2638 Y49.8278
G01 X24.2768 Y49.8325
G01 X24.2892 Y49.8383
G01 X24.3010 Y49.8454
G01 X24.3120 Y49.8536
G01 X24.3222 Y49.8628
G01 X24.8132 Y50.3538
G01 X24.8224 Y50.3640
G01 X24.8306 Y50.3750
G01 X24.8377 Y50.3868
G01 X24.8435 Y50.3992
G01 X24.8482 Y50.4122
G01 X24.8515 Y50.4255
G01 X24.8535 Y50.4391
G01 X24.8542 Y50.4528
G01 X24.8542 Y51.1472
G01 X24.8535 Y51.1609
G01 X24.8515 Y51.1745
G01 X24.8482 Y51.1878
G01 X24.8435 Y51.2008
G01 X24.8377 Y51.2132
G01 X24.8306 Y51.2250
G01 X24.8224 Y51.2360
G01 X24.8132 Y51.2462
G01 X24.3222 Y51.7372
G01 X24.3120 Y51.7464
G01 X24.3010 Y51.7546
G01 X24.2892 Y51.7617
G01 X24.2768 Y51.7675
G01 X24.2638 Y51.7722
G01 X24.2505 Y51.7755
G01 X24.2369 Y51.7775
G01 X24.2232 Y51.7782
G01 X23.5288 Y51.7782
G01 X23.5151 Y51.7775
G01 X23.5015 Y51.7755
G01 X23.4882 Y51.7722
G01 X23.4752 Y51.7675
G01 X23.4628 Y51.7617
G01 X23.4510 Y51.7546
G01 X23.4400 Y51.7464
G01 X23.4298 Y51.7372
G01 X22.9388 Y51.2462
G01 X22.9296 Y51.2360
G01 X22.9214 Y51.2250
G01 X22.9143 Y51.2132
G01 X22.9085 Y51.2008
G01 X22.9038 Y51.1878
G01 X22.9005 Y51.1745
G01 X22.8985 Y51.1609
G01 X22.8978 Y51.1472
G01 X22.8978 Y50.4528
G01 X22.8985 Y50.4391
G01 X22.9005 Y50.4255
G01 X22.9038 Y50.4122
G01 X22.9085 Y50.3992
G01 X22.9143 Y50.3868
G01 X22.9214 Y50.3750
G01 X22.9296 Y50.3640
G01 X22.9388 Y50.3538
G00 Z2.0000
G00 X25.3006 Y50.1756
G01 F60.00
G01 Z-0.1500
G01 F100.00
G01 X25.5157 Y49.9605
G01 X25.5157 Y47.0131
G01 X25.5030 Y46.9918
G01 X25.4849 Y46.9579
G01 X25.4574 Y46.8999
G01 X25.4427 Y46.8643
G01 X25.4211 Y46.8039
G01 X25.4099 Y46.7671
G01 X25.3943 Y46.7048
G01 X25.3868 Y46.6671
G01 X25.3774 Y46.6036
G01 X25.3736 Y46.5653
G01 X25.3705 Y46.5012
G01 X25.3705 Y46.4628
G01 X25.3736 Y46.3987
G01 X25.3774 Y46.3604
G01 X25.3868 Y46.2969
G01 X25.3943 Y46.2592
G01 X25.4099 Y46.1969
G01 X25.4211 Y46.1601
G01 X25.4427 Y46.0997
G01 X25.4574 Y46.0641
G01 X25.4849 Y46.0061
G01 X25.5030 Y45.9722
G01 X25.5360 Y45.9171
G01 X25.5574 Y45.8851
G01 X25.5956 Y45.8336
G01 X25.6200 Y45.8039
G01 X25.6631 Y45.7563
G01 X25.6903 Y45.7291
G01 X25.7379 Y45.6860
G01 X25.7676 Y45.6616
G01 X25.8191 Y45.6234
G01 X25.8511 Y45.6020
G01 X25.9062 Y45.5690
G01 X25.9401 Y45.5509
G01 X25.9981 Y45.5234
G01 X26.0337 Y45.5087
G01 X26.0941 Y45.4871
G01 X26.1309 Y45.4759
G01 X26.1932 Y45.4603
G01 X26.2309 Y45.4528
G01 X26.2944 Y45.4434
G01 X26.3327 Y45.4396
G01 X26.3968 Y45.4365
G01 X26.4352 Y45.4365
G01 X26.4993 Y45.4396
G01 X26.5376 Y45.4434
G01 X26.6011 Y45.4528
G01 X26.6388 Y45.4603
G01 X26.7011 Y45.4759
G01 X26.7379 Y45.4871
G01 X26.7983 Y45.5087
G01 X26.8339 Y45.5234
G01 X26.8919 Y45.5509
G01 X26.9258 Y45.5690
G01 X26.9809 Y45.6020
G01 X27.0129 Y45.6234
G01 X27.0644 Y45.6616
G01 X27.0941 Y45.6860
G01 X27.1417 Y45.7291
G01 X27.1689 Y45.7563
G01 X27.2120 Y45.8039
G01 X27.2364 Y45.8336
G01 X27.2746 Y45.8851
G01 X27.2960 Y45.9171
G01 X27.3290 Y45.9722
G01 X27.3471 Y46.0061
G01 X27.3746 Y46.0641
G01 X27.3893 Y46.0997
G01 X27.4109 Y46.1601
G01 X27.4221 Y46.1969
G01 X27.4377 Y46.2592
G01 X27.4452 Y46.2969
G01 X27.4546 Y46.3604
G01 X27.4584 Y46.3987
G01 X27.4615 Y46.4628
G01 X27.4615 Y46.5012
G01 X27.4584 Y46.5653
G01 X27.4546 Y46.6036
G01 X27.4452 Y46.6671
G01 X27.4377 Y46.7048
G01 X27.4221 Y46.7671
G01 X27.4109 Y46.8039
G01 X27.3893 Y46.8643
G01 X27.3746 Y46.8999
G01 X27.3471 Y46.9579
G01 X27.3290 Y46.9918
G01 X27.3163 Y47.0131
G01 X27.3163 Y49.9605
G01 X27.5314 Y50.1756
G01 X27.5572 Y50.2041
G01 X27.5801 Y50.2350
G01 X27.5999 Y50.2680
G01 X27.6164 Y50.3028
G01 X27.6293 Y50.3390
G01 X27.6387 Y50.3763
G01 X27.6443 Y50.4144
G01 X27.6462 Y50.4528
G01 X27.6462 Y51.1472
G01 X27.6443 Y51.1856
G01 X27.6387 Y51.2237
G01 X27.6293 Y51.2610
G01 X27.6164 Y51.2972
G01 X27.5999 Y51.3320
G01 X27.5801 Y51.3650
G01 X27.5572 Y51.3959
G01 X27.5314 Y51.4244
G01 X27.0404 Y51.9154
G01 X27.0119 Y51.9412
G01 X26.9810 Y51.9641
G01 X26.9480 Y51.9839
G01 X26.9132 Y52.0004
G01 X26.8770 Y52.0133
G01 X26.8397 Y52.0227
G01 X26.8016 Y52.0283
G01 X26.7632 Y52.0302
G01 X26.0688 Y52.0302
G01 X26.0304 Y52.0283
G01 X25.9923 Y52.0227
G01 X25.9550 Y52.0133
G01 X25.9188 Y52.0004
G01 X25.8840 Y51.9839
G01 X25.8510 Y51.9641
G01 X25.8201 Y51.9412
G01 X25.7916 Y51.9154
G01 X25.3006 Y51.4244
G01 X25.2748 Y51.3959
G01 X25.2519 Y51.3650
G01 X25.2321 Y51.3320
G01 X25.2156 Y51.2972
G01 X25.2027 Y51.2610
G01 X25.1933 Y51.2237
G01 X25.1877 Y51.1856
G01 X25.1858 Y51.1472
G01 X25.1858 Y50.4528
G01 X25.1877 Y50.4144
G01 X25.1933 Y50.3763
G01 X25.2027 Y50.3390
G01 X25.2156 Y50.3028
G01 X25.2321 Y50.2680
G01 X25.2519 Y50.2350
G01 X25.2748 Y50.2041
G01 X25.3006 Y50.1756
G00 Z2.0000
G00 X25.4788 Y50.3538
G01 F60.00
G01 Z-0.1500
G01 F100.00
G01 X25.7677 Y50.0649
G01 X25.7677 Y46.9395
G01 X25.7598 Y46.9287
G01 X25.7521 Y46.9173
G01 X25.7191 Y46.8623
G01 X25.7127 Y46.8501
G01 X25.6852 Y46.7921
G01 X25.6800 Y46.7794
G01 X25.6583 Y46.7190
G01 X25.6544 Y46.7059
G01 X25.6388 Y46.6436
G01 X25.6361 Y46.6301
G01 X25.6267 Y46.5666
G01 X25.6253 Y46.5530
G01 X25.6222 Y46.4889
G01 X25.6222 Y46.4751
G01 X25.6253 Y46.4110
G01 X25.6267 Y46.3974
G01 X25.6361 Y46.3339
G01 X25.6388 Y46.3204
G01 X25.6544 Y46.2581
G01 X25.6583 Y46.2450
G01 X25.6800 Y46.1846
G01 X25.6852 Y46.1719
G01 X25.7127 Y46.1139
G01 X25.7191 Y46.1017
G01 X25.7521 Y46.0467
G01 X25.7598 Y46.0353
G01 X25.7980 Y45.9837
G01 X25.8067 Y45.9731
G01 X25.8498 Y45.9255
G01 X25.8595 Y45.9158
G01 X25.9071 Y45.8727
G01 X25.9177 Y45.8640
G01 X25.9693 Y45.8258
G01 X25.9807 Y45.8181
G01 X26.0357 Y45.7851
G01 X26.0479 Y45.7787
G01 X26.1059 Y45.7512
G01 X26.1186 Y45.7460
G01 X26.1790 Y45.7243
G01 X26.1921 Y45.7204
G01 X26.2544 Y45.7048
G01 X26.2679 Y45.7021
G01 X26.3314 Y45.6927
G01 X26.3450 Y45.6913
G01 X26.4091 Y45.6882
G01 X26.4229 Y45.6882
G01 X26.4870 Y45.6913
G01 X26.5006 Y45.6927
G01 X26.5641 Y45.7021
G01 X26.5776 Y45.7048
G01 X26.6399 Y45.7204
G01 X26.6530 Y45.7243
G01 X26.7134 Y45.7460
G01 X26.7261 Y45.7512
G01 X26.7841 Y45.7787
G01 X26.7963 Y45.7851
G01 X26.8513 Y45.8181
G01 X26.8627 Y45.8258
G01 X26.9143 Y45.8640
G01 X26.9249 Y45.8727
G01 X26.9725 Y45.9158
G01 X26.9822 Y45.9255
G01 X27.0253 Y45.9731
G01 X27.0340 Y45.9837
G01 X27.0722 Y46.0353
G01 X27.0799 Y46.0467
G01 X27.1129 Y46.1017
G01 X27.1193 Y46.1139
G01 X27.1468 Y46.1719
G01 X27.1520 Y46.1846
G01 X27.1737 Y46.2450
G01 X27.1776 Y46.2581
G01 X27.1932 Y46.3204
G01 X27.1959 Y46.3339
G01 X27.2053 Y46.3974
G01 X27.2067 Y46.4110
G01 X27.2098 Y46.4751
G01 X27.2098 Y46.4889
G01 X27.2067 Y46.5530
G01 X27.2053 Y46.5666
G01 X27.1959 Y46.6301
G01 X27.1932 Y46.6436
G01 X27.1776 Y46.7059
G01 X27.1737 Y46.7190
G01 X27.1520 Y46.7794
G01 X27.1468 Y46.7921
G01 X27.1193 Y46.8501
G01 X27.1129 Y46.8623
G01 X27.0799 Y46.9173
G01 X27.0722 Y46.9287
G01 X27.0643 Y46.9395
G01 X27.0643 Y50.0649
G01 X27.3532 Y50.3538
G01 X27.3624 Y50.3640
G01 X27.3706 Y50.3750
G01 X27.3777 Y50.3868
G01 X27.3835 Y50.3992
G01 X27.3882 Y50.4122
G01 X27.3915 Y50.4255
G01 X27.3935 Y50.4391
G01 X27.3942 Y50.4528
G01 X27.3942 Y51.1472
G01 X27.3935 Y51.1609
G01 X27.3915 Y51.1745
G01 X27.3882 Y51.1878
G01 X27.3835 Y51.2008
G01 X27.3777 Y51.2132
G01 X27.3706 Y51.2250
G01 X27.3624 Y51.2360
G01 X27.3532 Y51.2462
G01 X26.8622 Y51.7372
G01 X26.8520 Y51.7464
G01 X26.8410 Y51.7546
G01 X26.8292 Y51.7617
G01 X26.8168 Y51.7675
G01 X26.8038 Y51.7722
G01 X26.7905 Y51.7755
G01 X26.7769 Y51.7775
G01 X26.7632 Y51.7782
G01 X26.0688 Y51.7782
G01 X26.0551 Y51.7775
G01 X26.0415 Y51.7755
G01 X26.0282 Y51.7722
G01 X26.0152 Y51.7675
G01 X26.0028 Y51.7617
G01 X25.9910 Y51.7546
G01 X25.9800 Y51.7464
G01 X25.9698 Y51.7372
G01 X25.4788 Y51.2462
G01 X25.4696 Y51.2360
G01 X25.4614 Y51.2250
G01 X25.4543 Y51.2132
G01 X25.4485 Y51.2008
G01 X25.4438 Y51.1878
G01 X25.4405 Y51.1745
G01 X25.4385 Y51.1609
G01 X25.4378 Y51.1472
G01 X25.4378 Y50.4528
G01 X25.4385 Y50.4391
G01 X25.4405 Y50.4255
G01 X25.4438 Y50.4122
G01 X25.4485 Y50.3992
G01 X25.4543 Y50.3868
G01 X25.4614 Y50.3750
G01 X25.4696 Y50.3640
G01 X25.4788 Y50.3538
G00 Z2.0000
G00 X27.6860 Y49.9739
G01 F60.00
G01 Z-0.1500
G01 F100.00
G01 X27.5683 Y49.8561
G01 X27.5683 Y47.0782
G01 X27.5749 Y47.0656
G01 X27.6024 Y47.0076
G01 X27.6266 Y46.9492
G01 X27.6482 Y46.8888
G01 X27.6665 Y46.8283
G01 X27.6821 Y46.7661
G01 X27.6860 Y46.7466
G01 X27.6899 Y46.7661
G01 X27.7055 Y46.8283
G01 X27.7238 Y46.8888
G01 X27.7454 Y46.9492
G01 X27.7696 Y47.0076
G01 X27.7971 Y47.0656
G01 X27.8037 Y47.0782
G01 X27.8037 Y49.8561
G01 X27.6860 Y49.9739
G00 Z2.0000
G00 X27.8406 Y50.1756
G01 F60.00
G01 Z-0.1500
G01 F100.00
G01 X28.0557 Y49.9605
G01 X28.0557 Y47.0131
G01 X28.0430 Y46.9918
G01 X28.0249 Y46.9579
G01 X27.9974 Y46.8999
G01 X27.9827 Y46.8643
G01 X27.9611 Y46.8039
G01 X27.9499 Y46.7671
G01 X27.9343 Y46.7048
G01 X27.9268 Y46.6671
G01 X27.9174 Y46.6036
G01 X27.9136 Y46.5653
G01 X27.9105 Y46.5012
G01 X27.9105 Y46.4628
G01 X27.9136 Y46.3987
G01 X27.9174 Y46.3604
G01 X27.9268 Y46.2969
G01 X27.9343 Y46.2592
G01 X27.9499 Y46.1969
G01 X27.9611 Y46.1601
G01 X27.9827 Y46.0997
G01 X27.9974 Y46.0641
G01 X28.0249 Y46.0061
G01 X28.0430 Y45.9722
G01 X28.0760 Y45.9171
G01 X28.0974 Y45.8851
G01 X28.1356 Y45.8336
G01 X28.1600 Y45.8039
G01 X28.2031 Y45.7563
G01 X28.2303 Y45.7291
G01 X28.2779 Y45.6860
G01 X28.3076 Y45.6616
G01 X28.3591 Y45.6234
G01 X28.3911 Y45.6020
G01 X28.4462 Y45.5690
G01 X28.4801 Y45.5509
G01 X28.5381 Y45.5234
G01 X28.5737 Y45.5087
G01 X28.6341 Y45.4871
G01 X28.6709 Y45.4759
G01 X28.7332 Y45.4603
G01 X28.7709 Y45.4528
G01 X28.8344 Y45.4434
G01 X28.8727 Y45.4396
G01 X28.9368 Y45.4365
G01 X28.9752 Y45.4365
G01 X29.0393 Y45.4396
G01 X29.0776 Y45.4434
G01 X29.1411 Y45.4528
G01 X29.1788 Y45.4603
G01 X29.2411 Y45.4759
G01 X29.2779 Y45.4871
G01 X29.3383 Y45.5087
G01 X29.3739 Y45.5234
G01 X29.4319 Y45.5509
G01 X29.4658 Y45.5690
G01 X29.5209 Y45.6020
G01 X29.5529 Y45.6234
G01 X29.6044 Y45.6616
G01 X29.6341 Y45.6860
G01 X29.6817 Y45.7291
G01 X29.7089 Y45.7563
G01 X29.7520 Y45.8039
G01 X29.7764 Y45.8336
G01 X29.8146 Y45.8851
G01 X29.8360 Y45.9171
G01 X29.8690 Y45.9722
G01 X29.8871 Y46.0061
G01 X29.9146 Y46.0641
G01 X29.9293 Y46.0997
G01 X29.9509 Y46.1601
G01 X29.9621 Y46.1969
G01 X29.9777 Y46.2592
G01 X29.9852 Y46.2969
G01 X29.9946 Y46.3604
G01 X29.9984 Y46.3987
G01 X30.0015 Y46.4628
G01 X30.0015 Y46.5012
G01 X29.9984 Y46.5653
G01 X29.9946 Y46.6036
G01 X29.9852 Y46.6671
G01 X29.9777 Y46.7048
G01 X29.9621 Y46.7671
G01 X29.9509 Y46.8039
G01 X29.9293 Y46.8643
G01 X29.9146 Y46.8999
G01 X29.8871 Y46.9579
G01 X29.8690 Y46.9918
G01 X29.8563 Y47.0131
G01 X29.8563 Y49.9605
G01 X30.0714 Y50.1756
G01 X30.0972 Y50.2041
G01 X30.1201 Y50.2350
G01 X30.1399 Y50.2680
G01 X30.1564 Y50.3028
G01 X30.1693 Y50.3390
G01 X30.1787 Y50.3763
G01 X30.1843 Y50.4144
G01 X30.1862 Y50.4528
G01 X30.1862 Y51.1472
G01 X30.1843 Y51.1856
G01 X30.1787 Y51.2237
G01 X30.1693 Y51.2610
G01 X30.1564 Y51.2972
G01 X30.1399 Y51.3320
G01 X30.1201 Y51.3650
G01 X30.0972 Y51.3959
G01 X30.0714 Y51.4244
G01 X29.5804 Y51.9154
G01 X29.5519 Y51.9412
G01 X29.5210 Y51.9641
G01 X29.4880 Y51.9839
G01 X29.4532 Y52.0004
G01 X29.4170 Y52.0133
G01 X29.3797 Y52.0227
G01 X29.3416 Y52.0283
G01 X29.3032 Y52.0302
G01 X28.6088 Y52.0302
G01 X28.5704 Y52.0283
G01 X28.5323 Y52.0227
G01 X28.4950 Y52.0133
G01 X28.4588 Y52.0004
G01 X28.4240 Y51.9839
G01 X28.3910 Y51.9641
G01 X28.3601 Y51.9412
G01 X28.3316 Y51.9154
G01 X27.8406 Y51.4244
G01 X27.8148 Y51.3959
G01 X27.7919 Y51.3650
G01 X27.7721 Y51.3320
G01 X27.7556 Y51.2972
G01 X27.7427 Y51.2610
G01 X27.7333 Y51.2237
G01 X27.7277 Y51.1856
G01 X27.7258 Y51.1472
G01 X27.7258 Y50.4528
G01 X27.7277 Y50.4144
G01 X27.7333 Y50.3763
G01 X27.7427 Y50.3390
G01 X27.7556 Y50.3028
G01 X27.7721 Y50.2680
G01 X27.7919 Y50.2350
G01 X27.8148 Y50.2041
G01 X27.8406 Y50.1756
G00 Z2.0000
G00 X28.0188 Y50.3538
G01 F60.00
G01 Z-0.1500
G01 F100.00
G01 X28.3077 Y50.0649
G01 X28.3077 Y46.9395
G01 X28.2998 Y46.9287
G01 X28.2921 Y46.9173
G01 X28.2591 Y46.8623
G01 X28.2527 Y46.8501
G01 X28.2252 Y46.7921
G01 X28.2200 Y46.7794
G01 X28.1983 Y46.7190
G01 X28.1944 Y46.7059
G01 X28.1788 Y46.6436
G01 X28.1761 Y46.6301
G01 X28.1667 Y46.5666
G01 X28.1653 Y46.5530
G01 X28.1622 Y46.4889
G01 X28.1622 Y46.4751
G01 X28.1653 Y46.4110
G01 X28.1667 Y46.3974
G01 X28.1761 Y46.3339
G01 X28.1788 Y46.3204
G01 X28.1944 Y46.2581
G01 X28.1983 Y46.2450
G01 X28.2200 Y46.1846
G01 X28.2252 Y46.1719
G01 X28.2527 Y46.1139
G01 X28.2591 Y46.1017
G01 X28.2921 Y46.0467
G01 X28.2998 Y46.0353
G01 X28.3380 Y45.9837
G01 X28.3467 Y45.9731
G01 X28.3898 Y45.9255
G01 X28.3995 Y45.9158
G01 X28.4471 Y45.8727
G01 X28.4577 Y45.8640
G01 X28.5093 Y45.8258
G01 X28.5207 Y45.8181
G01 X28.5757 Y45.7851
G01 X28.5879 Y45.7787
G01 X28.6459 Y45.7512
G01 X28.6586 Y45.7460
G01 X28.7190 Y45.7243
G01 X28.7321 Y45.7204
G01 X28.7944 Y45.7048
G01 X28.8079 Y45.7021
G01 X28.8714 Y45.6927
G01 X28.8850 Y45.6913
G01 X28.9491 Y45.6882
G01 X28.9629 Y45.6882
G01 X29.0270 Y45.6913
G01 X29.0406 Y45.6927
G01 X29.1041 Y45.7021
G01 X29.1176 Y45.7048
G01 X29.1799 Y45.7204
G01 X29.1930 Y45.7243
G01 X29.2534 Y45.7460
G01 X29.2661 Y45.7512
G01 X29.3241 Y45.7787
G01 X29.3363 Y45.7851
G01 X29.3913 Y45.8181
G01 X29.4027 Y45.8258
G01 X29.4543 Y45.8640
G01 X29.4649 Y45.8727
G01 X29.5125 Y45.9158
G01 X29.5222 Y45.9255
G01 X29.5653 Y45.9731
G01 X29.5740 Y45.9837
G01 X29.6122 Y46.0353
G01 X29.6199 Y46.0467
G01 X29.6529 Y46.1017
G01 X29.6593 Y46.1139
G01 X29.6868 Y46.1719
G01 X29.6920 Y46.1846
G01 X29.7137 Y46.2450
G01 X29.7176 Y46.2581
G01 X29.7332 Y46.3204
G01 X29.7359 Y46.3339
G01 X29.7453 Y46.3974
G01 X29.7467 Y46.4110
G01 X29.7498 Y46.4751
G01 X29.7498 Y46.4889
G01 X29.7467 Y46.5530
G01 X29.7453 Y46.5666
G01 X29.7359 Y46.6301
G01 X29.7332 Y46.6436
G01 X29.7176 Y46.7059
G01 X29.7137 Y46.7190
G01 X29.6920 Y46.7794
G01 X29.6868 Y46.7921
G01 X29.6593 Y46.8501
G01 X29.6529 Y46.8623
G01 X29.6199 Y46.9173
G01 X29.6122 Y46.9287
G01 X29.6043 Y46.9395
G01 X29.6043 Y50.0649
G01 X29.8932 Y50.3538
G01 X29.9024 Y50.3640
G01 X29.9106 Y50.3750
G01 X29.9177 Y50.3868
G01 X29.9235 Y50.3992
G01 X29.9282 Y50.4122
G01 X29.9315 Y50.4255
G01 X29.9335 Y50.4391
G01 X29.9342 Y50.4528
G01 X29.9342 Y51.1472
G01 X29.9335 Y51.1609
G01 X29.9315 Y51.1745
G01 X29.9282 Y51.1878
G01 X29.9235 Y51.2008
G01 X29.9177 Y51.2132
G01 X29.9106 Y51.2250
G01 X29.9024 Y51.2360
G01 X29.8932 Y51.2462
G01 X29.4022 Y51.7372
G01 X29.3920 Y51.7464
G01 X29.3810 Y51.7546
G01 X29.3692 Y51.7617
G01 X29.3568 Y51.7675
G01 X29.3438 Y51.7722
G01 X29.3305 Y51.7755
G01 X29.3169 Y51.7775
G01 X29.3032 Y51.7782
G01 X28.6088 Y51.7782
G01 X28.5951 Y51.7775
G01 X28.5815 Y51.7755
G01 X28.5682 Y51.7722
G01 X28.5552 Y51.7675
G01 X28.5428 Y51.7617
G01 X28.5310 Y51.7546
G01 X28.5200 Y51.7464
G01 X28.5098 Y51.7372
G01 X28.0188 Y51.2462
G01 X28.0096 Y51.2360
G01 X28.0014 Y51.2250
G01 X27.9943 Y51.2132
G01 X27.9885 Y51.2008
G01 X27.9838 Y51.1878
G01 X27.9805 Y51.1745
G01 X27.9785 Y51.1609
G01 X27.9778 Y51.1472
G01 X27.9778 Y50.4528
G01 X27.9785 Y50.4391
G01 X27.9805 Y50.4255
G01 X27.9838 Y50.4122
G01 X27.9885 Y50.3992
G01 X27.9943 Y50.3868
G01 X28.0014 Y50.3750
G01 X28.0096 Y50.3640
G01 X28.0188 Y50.3538
G00 Z2.0000
G00 X30.3806 Y50.1756
G01 F60.00
G01 Z-0.1500
G01 F100.00
G01 X30.5957 Y49.9605
G01 X30.5957 Y47.0131
G01 X30.5830 Y46.9918
G01 X30.5649 Y46.9579
G01 X30.5374 Y46.8999
G01 X30.5227 Y46.8643
G01 X30.5011 Y46.8039
G01 X30.4899 Y46.7671
G01 X30.4743 Y46.7048
G01 X30.4668 Y46.6671
G01 X30.4574 Y46.6036
G01 X30.4536 Y46.5653
G01 X30.4505 Y46.5012
G01 X30.4505 Y46.4628
G01 X30.4536 Y46.3987
G01 X30.4574 Y46.3604
G01 X30.4668 Y46.2969
G01 X30.4743 Y46.2592
G01 X30.4899 Y46.1969
G01 X30.5011 Y46.1601
G01 X30.5227 Y46.0997
G01 X30.5374 Y46.0641
G01 X30.5649 Y46.0061
G01 X30.5830 Y45.9722
G01 X30.6160 Y45.9171
G01 X30.6374 Y45.8851
G01 X30.6756 Y45.8336
G01 X30.7000 Y45.8039
G01 X30.7431 Y45.7563
G01 X30.7703 Y45.7291
G01 X30.8179 Y45.6860
G01 X30.8476 Y45.6616
G01 X30.8991 Y45.6234
G01 X30.9311 Y45.6020
G01 X30.9862 Y45.5690
G01 X31.0201 Y45.5509
G01 X31.0781 Y45.5234
G01 X31.1137 Y45.5087
G01 X31.1741 Y45.4871
G01 X31.2109 Y45.4759
G01 X31.2732 Y45.4603
G01 X31.3109 Y45.4528
G01 X31.3744 Y45.4434
G01 X31.4127 Y45.4396
G01 X31.4768 Y45.4365
G01 X31.5152 Y45.4365
G01 X31.5793 Y45.4396
G01 X31.6176 Y45.4434
G01 X31.6811 Y45.4528
G01 X31.7188 Y45.4603
G01 X31.7811 Y45.4759
G01 X31.8179 Y45.4871
G01 X31.8783 Y45.5087
G01 X31.9139 Y45.5234
G01 X31.9719 Y45.5509
G01 X32.0058 Y45.5690
G01 X32.0609 Y45.6020
G01 X32.0929 Y45.6234
G01 X32.1444 Y45.6616
G01 X32.1741 Y45.6860
G01 X32.2217 Y45.7291
G01 X32.2489 Y45.7563
G01 X32.2920 Y45.8039
G01 X32.3164 Y45.8336
G01 X32.3546 Y45.8851
G01 X32.3760 Y45.9171
G01 X32.4090 Y45.9722
G01 X32.4271 Y46.0061
G01 X32.4546 Y46.0641
G01 X32.4693 Y46.0997
G01 X32.4909 Y46.1601
G01 X32.5021 Y46.1969
G01 X32.5177 Y46.2592
G01 X32.5252 Y46.2969
G01 X32.5346 Y46.3604
G01 X32.5384 Y46.3987
G01 X32.5415 Y46.4628
G01 X32.5415 Y46.5012
G01 X32.5384 Y46.5653
G01 X32.5346 Y46.6036
G01 X32.5252 Y46.6671
G01 X32.5177 Y46.7048
G01 X32.5021 Y46.7671
G01 X32.4909 Y46.8039
G01 X32.4693 Y46.8643
G01 X32.4546 Y46.8999
G01 X32.4271 Y46.9579
G01 X32.4090 Y46.9918
G01 X32.3963 Y47.0131
G01 X32.3963 Y49.9605
G01 X32.6114 Y50.1756
G01 X32.6372 Y50.2041
G01 X32.6601 Y50.2350
G01 X32.6799 Y50.2680
G01 X32.6964 Y50.3028
G01 X32.7093 Y50.3390
G01 X32.7187 Y50.3763
G01 X32.7243 Y50.4144
G01 X32.7262 Y50.4528
G01 X32.7262 Y51.1472
G01 X32.7243 Y51.1856
G01 X32.7187 Y51.2237
G01 X32.7093 Y51.2610
G01 X32.6964 Y51.2972
G01 X32.6799 Y51.3320
G01 X32.6601 Y51.3650
G01 X32.6372 Y51.3959
G01 X32.6114 Y51.4244
G01 X32.1204 Y51.9154
G01 X32.0919 Y51.9412
G01 X32.0610 Y51.9641
G01 X32.0280 Y51.9839
G01 X31.9932 Y52.0004
G01 X31.9570 Y52.0133
G01 X31.9197 Y52.0227
G01 X31.8816 Y52.0283
G01 X31.8432 Y52.0302
G01 X31.1488 Y52.0302
G01 X31.1104 Y52.0283
G01 X31.0723 Y52.0227
G01 X31.0350 Y52.0133
G01 X30.9988 Y52.0004
G01 X30.9640 Y51.9839
G01 X30.9310 Y51.9641
G01 X30.9001 Y51.9412
G01 X30.8716 Y51.9154
G01 X30.3806 Y51.4244
G01 X30.3548 Y51.3959
G01 X30.3319 Y51.3650
G01 X30.3121 Y51.3320
G01 X30.2956 Y51.2972
G01 X30.2827 Y51.2610
G01 X30.2733 Y51.2237
G01 X30.2677 Y51.1856
G01 X30.2658 Y51.1472
G01 X30.2658 Y50.4528
G01 X30.2677 Y50.4144
G01 X30.2733 Y50.3763
G01 X30.2827 Y50.3390
G01 X30.2956 Y50.3028
G01 X30.3121 Y50.2680
G01 X30.3319 Y50.2350
G01 X30.3548 Y50.2041
G01 X30.3806 Y50.1756
G00 Z2.0000
G00 X30.5588 Y50.3538
G01 F60.00
G01 Z-0.1500
G01 F100.00
