(1001)
(T2  D=0.8 CR=0 - ZMIN=-1 - fraise deux tailles)
G90 G94
G17
G21
G28 G91 Z0
G90

(Poche 2D2)
T2
S8000 M3
G54
G0 X2.278 Y65.463
Z15
Z5
G1 Z2.58 F130
X2.253 Z2.522
X2.201 Y65.46 Z2.5
G3 X2.306 Y64.707 Z2.458 I0.053 J-0.376
X2.201 Y65.46 Z2.417 I-0.053 J0.376
X2.306 Y64.707 Z2.375 I0.053 J-0.376
X2.201 Y65.46 Z2.333 I-0.053 J0.376
X2.306 Y64.707 Z2.292 I0.053 J-0.376
X2.201 Y65.46 Z2.25 I-0.053 J0.376
X2.306 Y64.707 Z2.208 I0.053 J-0.376
X2.201 Y65.46 Z2.166 I-0.053 J0.376
X2.306 Y64.707 Z2.125 I0.053 J-0.376
X2.201 Y65.46 Z2.083 I-0.053 J0.376
X2.306 Y64.707 Z2.041 I0.053 J-0.376
X2.201 Y65.46 Z2 I-0.053 J0.376
X2.306 Y64.707 Z1.958 I0.053 J-0.376
X2.201 Y65.46 Z1.916 I-0.053 J0.376
X2.306 Y64.707 Z1.875 I0.053 J-0.376
X2.201 Y65.46 Z1.833 I-0.053 J0.376
X2.306 Y64.707 Z1.791 I0.053 J-0.376
X2.201 Y65.46 Z1.75 I-0.053 J0.376
X2.306 Y64.707 Z1.708 I0.053 J-0.376
X2.201 Y65.46 Z1.666 I-0.053 J0.376
X2.306 Y64.707 Z1.625 I0.053 J-0.376
X2.201 Y65.46 Z1.583 I-0.053 J0.376
X2.306 Y64.707 Z1.541 I0.053 J-0.376
X2.201 Y65.46 Z1.499 I-0.053 J0.376
X2.306 Y64.707 Z1.458 I0.053 J-0.376
X2.201 Y65.46 Z1.416 I-0.053 J0.376
X2.306 Y64.707 Z1.374 I0.053 J-0.376
X2.201 Y65.46 Z1.333 I-0.053 J0.376
X2.306 Y64.707 Z1.291 I0.053 J-0.376
X2.201 Y65.46 Z1.249 I-0.053 J0.376
X2.306 Y64.707 Z1.208 I0.053 J-0.376
X2.201 Y65.46 Z1.166 I-0.053 J0.376
X2.306 Y64.707 Z1.124 I0.053 J-0.376
X2.201 Y65.46 Z1.083 I-0.053 J0.376
X2.306 Y64.707 Z1.041 I0.053 J-0.376
X2.201 Y65.46 Z0.999 I-0.053 J0.376
X2.306 Y64.707 Z0.958 I0.053 J-0.376
X2.201 Y65.46 Z0.916 I-0.053 J0.376
X2.306 Y64.707 Z0.874 I0.053 J-0.376
X2.201 Y65.46 Z0.832 I-0.053 J0.376
X2.306 Y64.707 Z0.791 I0.053 J-0.376
X2.201 Y65.46 Z0.749 I-0.053 J0.376
X2.306 Y64.707 Z0.707 I0.053 J-0.376
X2.201 Y65.46 Z0.666 I-0.053 J0.376
X2.306 Y64.707 Z0.624 I0.053 J-0.376
X2.201 Y65.46 Z0.582 I-0.053 J0.376
X2.306 Y64.707 Z0.541 I0.053 J-0.376
X2.201 Y65.46 Z0.499 I-0.053 J0.376
X2.306 Y64.707 Z0.457 I0.053 J-0.376
X2.201 Y65.46 Z0.416 I-0.053 J0.376
X2.306 Y64.707 Z0.374 I0.053 J-0.376
X2.201 Y65.46 Z0.332 I-0.053 J0.376
X2.306 Y64.707 Z0.291 I0.053 J-0.376
X2.201 Y65.46 Z0.249 I-0.053 J0.376
X2.306 Y64.707 Z0.207 I0.053 J-0.376
X2.201 Y65.46 Z0.165 I-0.053 J0.376
X2.306 Y64.707 Z0.124 I0.053 J-0.376
X2.201 Y65.46 Z0.082 I-0.053 J0.376
X2.306 Y64.707 Z0.04 I0.053 J-0.376
X2.201 Y65.46 Z-0.001 I-0.053 J0.376
X2.306 Y64.707 Z-0.043 I0.053 J-0.376
X2.201 Y65.46 Z-0.085 I-0.053 J0.376
X2.306 Y64.707 Z-0.126 I0.053 J-0.376
X2.201 Y65.46 Z-0.168 I-0.053 J0.376
X2.306 Y64.707 Z-0.21 I0.053 J-0.376
X2.201 Y65.46 Z-0.251 I-0.053 J0.376
X2.306 Y64.707 Z-0.293 I0.053 J-0.376
X2.201 Y65.46 Z-0.335 I-0.053 J0.376
X2.306 Y64.707 Z-0.377 I0.053 J-0.376
X2.201 Y65.46 Z-0.418 I-0.053 J0.376
X2.306 Y64.707 Z-0.46 I0.053 J-0.376
X2.201 Y65.46 Z-0.502 I-0.053 J0.376
X2.306 Y64.707 Z-0.543 I0.053 J-0.376
X2.201 Y65.46 Z-0.585 I-0.053 J0.376
X2.306 Y64.707 Z-0.627 I0.053 J-0.376
X2.201 Y65.46 Z-0.668 I-0.053 J0.376
X2.306 Y64.707 Z-0.71 I0.053 J-0.376
X2.201 Y65.46 Z-0.752 I-0.053 J0.376
X2.306 Y64.707 Z-0.793 I0.053 J-0.376
X2.201 Y65.46 Z-0.835 I-0.053 J0.376
X2.306 Y64.707 Z-0.877 I0.053 J-0.376
X2.201 Y65.46 Z-0.918 I-0.053 J0.376
X2.306 Y64.707 Z-0.96 I0.053 J-0.376
X2.253 Y65.463 Z-1 I-0.053 J0.376
G1 X1.856
G3 X1.537 Y65.144 I0 J-0.319
G1 Y1.856
G3 X1.856 Y1.537 I0.319 J0
G1 X2.253
X2.273 Y1.542
X2.288 Y1.556
X2.293 Y1.576
X2.288 Y1.596
X2.043 Y2.043
X1.596 Y2.288
X1.576 Y2.293
X1.556 Y2.288
X1.542 Y2.273
X1.537 Y2.253
Y1.856
G3 X1.856 Y1.537 I0.319 J0
G1 X140.144
G3 X140.463 Y1.856 I0 J0.319
G1 Y2.253
X140.458 Y2.273
X140.444 Y2.288
X140.424 Y2.293
X140.404 Y2.288
X139.957 Y2.043
X139.712 Y1.596
X139.707 Y1.576
X139.712 Y1.556
X139.727 Y1.542
X139.747 Y1.537
X140.144
G3 X140.463 Y1.856 I0 J0.319
G1 Y65.144
G3 X140.144 Y65.463 I-0.319 J0
G1 X139.747
X139.727 Y65.458
X139.712 Y65.444
X139.707 Y65.424
X139.712 Y65.404
X139.957 Y64.957
X140.404 Y64.712
X140.424 Y64.707
X140.444 Y64.712
X140.458 Y64.727
X140.463 Y64.747
Y65.144
G3 X140.144 Y65.463 I-0.319 J0
G1 X1.856
G3 X1.537 Y65.144 I0 J-0.319
G1 Y64.747
G2 X1.254 Y64.322 I-0.46 J0
G3 X0.971 Y63.898 I0.177 J-0.424
G1 Y1.29
G3 X1.29 Y0.971 I0.319 J0
G1 X140.71
G3 X141.029 Y1.29 I0 J0.319
G1 Y65.71
G3 X140.71 Y66.029 I-0.319 J0
G1 X1.29
G3 X0.971 Y65.71 I0 J-0.319
G1 Y63.898
G2 X0.685 Y63.47 I-0.464 J0
G3 X0.4 Y63.042 I0.178 J-0.428
G1 Y0.4
X141.6
Y66.6
X0.4
Y63.042
X0.405 Y63.014 Z-0.988
X0.419 Y62.99 Z-0.977
X0.437 Y62.975 Z-0.92
G0 Z15
G28 G91 Z0
G90
G28 G91 X0 Y0
G90
M5
M30
